; G-Code generated by Simplify3D(R) Version 4.0.0
; Mar 30, 2022 at 5:31:46 PM
; Settings Summary
;   processName,Process1
;   applyToModels,Boom_Lift_Linkage_Sweep_2
;   profileName,Default (modified)
;   profileVersion,2017-03-01 08:00:00
;   baseProfile,
;   printMaterial,
;   printQuality,
;   printExtruders,
;   extruderName,Primary Extruder
;   extruderToolheadNumber,0
;   extruderDiameter,0.4
;   extruderAutoWidth,0
;   extruderWidth,0.8
;   extrusionMultiplier,1.01
;   extruderUseRetract,1
;   extruderRetractionDistance,9
;   extruderExtraRestartDistance,0
;   extruderRetractionZLift,0
;   extruderRetractionSpeed,1988
;   extruderUseCoasting,0
;   extruderCoastingDistance,0.2
;   extruderUseWipe,0
;   extruderWipeDistance,5
;   primaryExtruder,0
;   layerHeight,0.2
;   topSolidLayers,4
;   bottomSolidLayers,4
;   perimeterOutlines,1
;   printPerimetersInsideOut,1
;   startPointOption,2
;   startPointOriginX,0
;   startPointOriginY,0
;   sequentialIslands,0
;   spiralVaseMode,0
;   firstLayerHeightPercentage,90
;   firstLayerWidthPercentage,100
;   firstLayerUnderspeed,0.5
;   useRaft,0
;   raftExtruder,0
;   raftTopLayers,3
;   raftBaseLayers,2
;   raftOffset,3
;   raftSeparationDistance,0.14
;   raftTopInfill,100
;   aboveRaftSpeedMultiplier,0.3
;   useSkirt,1
;   skirtExtruder,0
;   skirtLayers,1
;   skirtOutlines,1
;   skirtOffset,0.3
;   usePrimePillar,0
;   primePillarExtruder,999
;   primePillarWidth,12
;   primePillarLocation,7
;   primePillarSpeedMultiplier,1
;   useOozeShield,0
;   oozeShieldExtruder,999
;   oozeShieldOffset,2
;   oozeShieldOutlines,1
;   oozeShieldSidewallShape,1
;   oozeShieldSidewallAngle,30
;   oozeShieldSpeedMultiplier,1
;   infillExtruder,0
;   internalInfillPattern,Rectilinear
;   externalInfillPattern,Rectilinear
;   infillPercentage,35
;   outlineOverlapPercentage,30
;   infillExtrusionWidthPercentage,100
;   minInfillLength,5
;   infillLayerInterval,1
;   internalInfillAngles,45,-45
;   overlapInternalInfillAngles,0
;   externalInfillAngles,45,-45
;   generateSupport,1
;   supportExtruder,0
;   supportInfillPercentage,30
;   supportExtraInflation,0
;   supportBaseLayers,0
;   denseSupportExtruder,0
;   denseSupportLayers,0
;   denseSupportInfillPercentage,70
;   supportLayerInterval,1
;   supportHorizontalPartOffset,0.3
;   supportUpperSeparationLayers,1
;   supportLowerSeparationLayers,1
;   supportType,0
;   supportGridSpacing,4
;   maxOverhangAngle,45
;   supportAngles,0
;   temperatureName,Primary Extruder,Bed
;   temperatureNumber,0,0
;   temperatureSetpointCount,1,1
;   temperatureSetpointLayers,1,1
;   temperatureSetpointTemperatures,205,60
;   temperatureStabilizeAtStartup,1,1
;   temperatureHeatedBed,0,1
;   temperatureRelayBetweenLayers,0,0
;   temperatureRelayBetweenLoops,0,0
;   fanLayers,1,2
;   fanSpeeds,0,100
;   blipFanToFullPower,0
;   adjustSpeedForCooling,1
;   minSpeedLayerTime,15
;   minCoolingSpeedSlowdown,20
;   increaseFanForCooling,0
;   minFanLayerTime,45
;   maxCoolingFanSpeed,100
;   increaseFanForBridging,0
;   bridgingFanSpeed,100
;   use5D,1
;   relativeEdistances,0
;   allowEaxisZeroing,1
;   independentExtruderAxes,0
;   includeM10123,0
;   stickySupport,1
;   applyToolheadOffsets,0
;   gcodeXoffset,0
;   gcodeYoffset,0
;   gcodeZoffset,0
;   overrideMachineDefinition,1
;   machineTypeOverride,0
;   strokeXoverride,220
;   strokeYoverride,220
;   strokeZoverride,220
;   originOffsetXoverride,0
;   originOffsetYoverride,0
;   originOffsetZoverride,0
;   homeXdirOverride,-1
;   homeYdirOverride,-1
;   homeZdirOverride,-1
;   flipXoverride,1
;   flipYoverride,-1
;   flipZoverride,1
;   toolheadOffsets,0,0|0,0|0,0|0,0|0,0|0,0
;   overrideFirmwareConfiguration,0
;   firmwareTypeOverride,RepRap (Marlin/Repetier/Sprinter)
;   GPXconfigOverride,r2
;   baudRateOverride,115200
;   overridePrinterModels,0
;   printerModelsOverride
;   startingGcode,G28 ; home all axes
;   layerChangeGcode,
;   retractionGcode,
;   toolChangeGcode,
;   endingGcode,M104 S0 ; turn off extruder,M140 S0 ; turn off bed,M84 ; disable motors,G28 ; home all axes
;   exportFileFormat,gcode
;   celebration,0
;   celebrationSong,Random Song
;   postProcessing,
;   defaultSpeed,1900
;   outlineUnderspeed,0.95
;   solidInfillUnderspeed,0.8
;   supportUnderspeed,0.8
;   rapidXYspeed,4800
;   rapidZspeed,1002
;   minBridgingArea,50
;   bridgingExtraInflation,0
;   bridgingExtrusionMultiplier,1
;   bridgingSpeedMultiplier,1
;   useFixedBridgingAngle,0
;   fixedBridgingAngle,0
;   applyBridgingToPerimeters,0
;   filamentDiameters,1.75|1.75|1.75|1.75|1.75|1.75
;   filamentPricesPerKg,46|46|46|46|46|46
;   filamentDensities,1.25|1.25|1.25|1.25|1.25|1.25
;   useMinPrintHeight,0
;   minPrintHeight,0
;   useMaxPrintHeight,0
;   maxPrintHeight,0
;   useDiaphragm,0
;   diaphragmLayerInterval,20
;   robustSlicing,1
;   mergeAllIntoSolid,0
;   onlyRetractWhenCrossingOutline,1
;   retractBetweenLayers,1
;   useRetractionMinTravel,0
;   retractionMinTravel,3
;   retractWhileWiping,0
;   onlyWipeOutlines,1
;   avoidCrossingOutline,0
;   maxMovementDetourFactor,3
;   toolChangeRetractionDistance,12
;   toolChangeExtraRestartDistance,-0.5
;   toolChangeRetractionSpeed,600
;   externalThinWallType,0
;   internalThinWallType,2
;   thinWallAllowedOverlapPercentage,10
;   singleExtrusionMinLength,1
;   singleExtrusionMinPrintingWidthPercentage,50
;   singleExtrusionMaxPrintingWidthPercentage,200
;   singleExtrusionEndpointExtension,0.2
;   horizontalSizeCompensation,0
G90
M82
M106 S0
M140 S60
M190 S60
M104 S205 T0
M109 S205 T0
G28 ; home all axes
G92 E0
G1 E-9.0000 F1988
G1 Z0.180 F1002
; process Process1
; layer 1, Z = 0.180
T0
; tool H0.200 W0.800
; skirt
G1 X88.302 Y103.923 F4800
G1 E0.0000 F596
G92 E0
G1 X88.324 Y103.903 E0.0020 F950
G1 X88.333 Y103.895 E0.0028
G1 X88.861 Y103.465 E0.0485
G1 X88.871 Y103.458 E0.0493
G1 X88.895 Y103.440 E0.0513
G1 X88.905 Y103.434 E0.0521
G1 X89.480 Y103.069 E0.0979
G1 X89.490 Y103.063 E0.0987
G1 X89.516 Y103.049 E0.1007
G1 X89.527 Y103.043 E0.1015
G1 X90.142 Y102.749 E0.1473
G1 X90.152 Y102.745 E0.1481
G1 X90.180 Y102.733 E0.1500
G1 X90.191 Y102.729 E0.1508
G1 X90.844 Y102.507 E0.1972
G1 X90.856 Y102.504 E0.1980
G1 X90.885 Y102.496 E0.2000
G1 X90.896 Y102.493 E0.2008
G1 X91.555 Y102.355 E0.2460
G1 X91.566 Y102.352 E0.2468
G1 X91.595 Y102.348 E0.2488
G1 X91.607 Y102.347 E0.2496
G1 X92.285 Y102.285 E0.2953
G1 X92.297 Y102.285 E0.2961
G1 X92.327 Y102.284 E0.2981
G1 X92.338 Y102.284 E0.2989
G1 X93.019 Y102.303 E0.3447
G1 X93.031 Y102.303 E0.3455
G1 X93.061 Y102.306 E0.3475
G1 X93.072 Y102.307 E0.3483
G1 X93.746 Y102.407 E0.3940
G1 X93.758 Y102.409 E0.3948
G1 X93.787 Y102.415 E0.3968
G1 X93.799 Y102.418 E0.3976
G1 X94.456 Y102.596 E0.4434
G1 X94.467 Y102.600 E0.4442
G1 X94.495 Y102.609 E0.4462
G1 X94.507 Y102.613 E0.4470
G1 X95.138 Y102.868 E0.4927
G1 X95.149 Y102.873 E0.4935
G1 X95.176 Y102.886 E0.4955
G1 X95.186 Y102.891 E0.4963
G1 X95.784 Y103.219 E0.5421
G1 X95.794 Y103.225 E0.5429
G1 X95.819 Y103.241 E0.5449
G1 X95.829 Y103.248 E0.5457
G1 X96.383 Y103.644 E0.5914
G1 X96.392 Y103.651 E0.5922
G1 X96.415 Y103.670 E0.5942
G1 X96.424 Y103.678 E0.5950
G1 X96.928 Y104.137 E0.6408
G1 X96.936 Y104.145 E0.6416
G1 X96.957 Y104.166 E0.6436
G1 X96.965 Y104.175 E0.6444
G1 X97.408 Y104.688 E0.6899
G1 X97.414 Y104.695 E0.6905
G1 X97.428 Y104.713 E0.6921
G1 X97.434 Y104.720 E0.6927
G1 X97.510 Y104.828 E0.7016
G1 X99.060 Y105.233 E0.8092
G1 X100.858 Y105.628 E0.9329
G1 X102.671 Y105.952 E1.0566
G1 X104.494 Y106.205 E1.1802
G1 X106.326 Y106.386 E1.3040
G1 X108.164 Y106.494 E1.4276
G1 X110.005 Y106.530 E1.5513
G1 X111.845 Y106.494 E1.6750
G1 X113.683 Y106.386 E1.7987
G1 X115.516 Y106.205 E1.9224
G1 X117.339 Y105.952 E2.0461
G1 X119.152 Y105.628 E2.1698
G1 X120.950 Y105.233 E2.2935
G1 X122.510 Y104.825 E2.4018
G1 X122.790 Y104.455 E2.4330
G1 X122.798 Y104.446 E2.4338
G1 X122.817 Y104.422 E2.4359
G1 X122.826 Y104.413 E2.4367
G1 X123.301 Y103.924 E2.4825
G1 X123.309 Y103.916 E2.4833
G1 X123.331 Y103.896 E2.4853
G1 X123.340 Y103.888 E2.4861
G1 X123.869 Y103.459 E2.5318
G1 X123.878 Y103.452 E2.5326
G1 X123.902 Y103.435 E2.5346
G1 X123.912 Y103.428 E2.5354
G1 X124.488 Y103.064 E2.5812
G1 X124.499 Y103.058 E2.5820
G1 X124.525 Y103.044 E2.5840
G1 X124.535 Y103.038 E2.5848
G1 X125.150 Y102.745 E2.6306
G1 X125.161 Y102.741 E2.6313
G1 X125.188 Y102.730 E2.6333
G1 X125.200 Y102.725 E2.6341
G1 X125.845 Y102.507 E2.6799
G1 X125.856 Y102.504 E2.6807
G1 X125.885 Y102.496 E2.6827
G1 X125.896 Y102.493 E2.6835
G1 X126.563 Y102.353 E2.7293
G1 X126.575 Y102.351 E2.7301
G1 X126.604 Y102.346 E2.7321
G1 X126.616 Y102.345 E2.7329
G1 X127.294 Y102.284 E2.7786
G1 X127.306 Y102.284 E2.7794
G1 X127.336 Y102.283 E2.7814
G1 X127.348 Y102.283 E2.7822
G1 X128.029 Y102.303 E2.8280
G1 X128.040 Y102.304 E2.8288
G1 X128.070 Y102.306 E2.8308
G1 X128.082 Y102.308 E2.8316
G1 X128.756 Y102.408 E2.8773
G1 X128.767 Y102.410 E2.8781
G1 X128.796 Y102.417 E2.8801
G1 X128.808 Y102.419 E2.8809
G1 X129.465 Y102.599 E2.9267
G1 X129.476 Y102.602 E2.9275
G1 X129.505 Y102.612 E2.9295
G1 X129.516 Y102.616 E2.9303
G1 X130.147 Y102.872 E2.9761
G1 X130.158 Y102.877 E2.9769
G1 X130.185 Y102.890 E2.9788
G1 X130.195 Y102.895 E2.9796
G1 X130.792 Y103.224 E3.0254
G1 X130.802 Y103.230 E3.0262
G1 X130.827 Y103.246 E3.0282
G1 X130.837 Y103.252 E3.0290
G1 X131.390 Y103.650 E3.0748
G1 X131.400 Y103.657 E3.0756
G1 X131.423 Y103.675 E3.0776
G1 X131.432 Y103.683 E3.0784
G1 X131.935 Y104.143 E3.1241
G1 X131.943 Y104.151 E3.1249
G1 X131.964 Y104.173 E3.1269
G1 X131.972 Y104.181 E3.1277
G1 X132.416 Y104.697 E3.1735
G1 X132.424 Y104.707 E3.1743
G1 X132.442 Y104.730 E3.1763
G1 X132.449 Y104.740 E3.1771
G1 X132.829 Y105.305 E3.2228
G1 X132.836 Y105.315 E3.2236
G1 X132.851 Y105.340 E3.2256
G1 X132.857 Y105.351 E3.2264
G1 X133.168 Y105.957 E3.2722
G1 X133.173 Y105.968 E3.2730
G1 X133.185 Y105.995 E3.2750
G1 X133.189 Y106.006 E3.2758
G1 X133.426 Y106.644 E3.3216
G1 X133.430 Y106.656 E3.3224
G1 X133.439 Y106.684 E3.3243
G1 X133.442 Y106.695 E3.3251
G1 X133.602 Y107.358 E3.3709
G1 X133.604 Y107.369 E3.3717
G1 X133.610 Y107.399 E3.3737
G1 X133.611 Y107.410 E3.3745
G1 X133.692 Y108.087 E3.4203
G1 X133.693 Y108.099 E3.4211
G1 X133.695 Y108.128 E3.4231
G1 X133.695 Y108.140 E3.4239
G1 X133.695 Y108.821 E3.4696
G1 X133.695 Y108.833 E3.4704
G1 X133.693 Y108.863 E3.4724
G1 X133.692 Y108.874 E3.4732
G1 X133.611 Y109.551 E3.5190
G1 X133.610 Y109.563 E3.5198
G1 X133.604 Y109.592 E3.5218
G1 X133.602 Y109.603 E3.5226
G1 X133.442 Y110.266 E3.5684
G1 X133.439 Y110.277 E3.5692
G1 X133.430 Y110.306 E3.5711
G1 X133.426 Y110.317 E3.5719
G1 X133.189 Y110.955 E3.6177
G1 X133.185 Y110.966 E3.6185
G1 X133.173 Y110.993 E3.6205
G1 X133.168 Y111.004 E3.6213
G1 X132.857 Y111.610 E3.6671
G1 X132.851 Y111.621 E3.6679
G1 X132.836 Y111.646 E3.6699
G1 X132.829 Y111.656 E3.6707
G1 X132.449 Y112.221 E3.7164
G1 X132.442 Y112.231 E3.7172
G1 X132.424 Y112.254 E3.7192
G1 X132.416 Y112.264 E3.7200
G1 X131.972 Y112.780 E3.7658
G1 X131.964 Y112.789 E3.7666
G1 X131.943 Y112.810 E3.7686
G1 X131.935 Y112.818 E3.7694
G1 X131.432 Y113.278 E3.8151
G1 X131.423 Y113.286 E3.8159
G1 X131.400 Y113.304 E3.8179
G1 X131.390 Y113.312 E3.8187
G1 X130.837 Y113.709 E3.8645
G1 X130.827 Y113.715 E3.8653
G1 X130.802 Y113.731 E3.8673
G1 X130.792 Y113.737 E3.8681
G1 X130.196 Y114.066 E3.9138
G1 X130.187 Y114.071 E3.9145
G1 X130.162 Y114.082 E3.9163
G1 X130.152 Y114.087 E3.9171
G1 X129.624 Y114.307 E3.9555
G1 X129.618 Y114.309 E3.9559
G1 X129.602 Y114.315 E3.9571
G1 X129.596 Y114.317 E3.9575
G1 X127.637 Y114.981 E4.0965
G1 X127.633 Y114.982 E4.0967
G1 X127.625 Y114.985 E4.0973
G1 X127.621 Y114.986 E4.0976
G1 X125.599 Y115.591 E4.2394
G1 X125.596 Y115.592 E4.2396
G1 X125.587 Y115.594 E4.2402
G1 X125.583 Y115.595 E4.2405
G1 X123.562 Y116.119 E4.3808
G1 X123.559 Y116.120 E4.3810
G1 X123.550 Y116.122 E4.3816
G1 X123.547 Y116.123 E4.3819
G1 X121.508 Y116.574 E4.5221
G1 X121.505 Y116.575 E4.5223
G1 X121.496 Y116.577 E4.5230
G1 X121.492 Y116.577 E4.5232
G1 X119.439 Y116.954 E4.6635
G1 X119.435 Y116.955 E4.6637
G1 X119.426 Y116.956 E4.6643
G1 X119.423 Y116.957 E4.6646
G1 X117.357 Y117.258 E4.8048
G1 X117.354 Y117.259 E4.8051
G1 X117.345 Y117.260 E4.8057
G1 X117.341 Y117.261 E4.8059
G1 X115.266 Y117.487 E4.9462
G1 X115.262 Y117.488 E4.9464
G1 X115.253 Y117.488 E4.9470
G1 X115.249 Y117.489 E4.9473
G1 X113.167 Y117.640 E5.0875
G1 X113.163 Y117.640 E5.0878
G1 X113.154 Y117.641 E5.0884
G1 X113.151 Y117.641 E5.0886
G1 X111.065 Y117.717 E5.2289
G1 X111.061 Y117.717 E5.2291
G1 X111.052 Y117.717 E5.2297
G1 X111.049 Y117.717 E5.2300
G1 X108.961 Y117.717 E5.3702
G1 X108.957 Y117.717 E5.3705
G1 X108.948 Y117.717 E5.3711
G1 X108.945 Y117.717 E5.3713
G1 X106.859 Y117.641 E5.5116
G1 X106.855 Y117.641 E5.5118
G1 X106.846 Y117.640 E5.5124
G1 X106.842 Y117.640 E5.5127
G1 X104.760 Y117.489 E5.6529
G1 X104.757 Y117.488 E5.6532
G1 X104.748 Y117.488 E5.6538
G1 X104.744 Y117.487 E5.6540
G1 X102.669 Y117.261 E5.7943
G1 X102.665 Y117.260 E5.7945
G1 X102.656 Y117.259 E5.7951
G1 X102.652 Y117.258 E5.7954
G1 X100.587 Y116.957 E5.9356
G1 X100.583 Y116.956 E5.9358
G1 X100.575 Y116.955 E5.9365
G1 X100.571 Y116.954 E5.9367
G1 X98.517 Y116.577 E6.0770
G1 X98.514 Y116.577 E6.0772
G1 X98.505 Y116.575 E6.0778
G1 X98.501 Y116.574 E6.0781
G1 X96.463 Y116.123 E6.2183
G1 X96.460 Y116.122 E6.2186
G1 X96.451 Y116.120 E6.2192
G1 X96.447 Y116.119 E6.2194
G1 X94.427 Y115.595 E6.3597
G1 X94.423 Y115.594 E6.3599
G1 X94.414 Y115.592 E6.3605
G1 X94.411 Y115.591 E6.3608
G1 X92.411 Y114.993 E6.5010
G1 X92.407 Y114.992 E6.5013
G1 X92.398 Y114.989 E6.5019
G1 X92.395 Y114.988 E6.5021
G1 X90.411 Y114.316 E6.6429
G1 X90.401 Y114.313 E6.6435
G1 X90.379 Y114.304 E6.6452
G1 X90.370 Y114.300 E6.6458
G1 X89.553 Y113.932 E6.7060
G1 X89.541 Y113.926 E6.7069
G1 X89.511 Y113.909 E6.7093
G1 X89.499 Y113.902 E6.7102
G1 X88.920 Y113.538 E6.7561
G1 X88.910 Y113.532 E6.7569
G1 X88.886 Y113.514 E6.7589
G1 X88.877 Y113.507 E6.7597
G1 X88.347 Y113.079 E6.8055
G1 X88.338 Y113.071 E6.8063
G1 X88.316 Y113.051 E6.8083
G1 X88.308 Y113.043 E6.8090
G1 X87.832 Y112.555 E6.8548
G1 X87.824 Y112.546 E6.8556
G1 X87.805 Y112.524 E6.8576
G1 X87.798 Y112.514 E6.8584
G1 X87.383 Y111.974 E6.9042
G1 X87.376 Y111.964 E6.9050
G1 X87.360 Y111.939 E6.9070
G1 X87.354 Y111.929 E6.9078
G1 X87.006 Y111.343 E6.9535
G1 X87.001 Y111.333 E6.9543
G1 X86.987 Y111.307 E6.9563
G1 X86.982 Y111.296 E6.9571
G1 X86.706 Y110.673 E7.0029
G1 X86.702 Y110.662 E7.0037
G1 X86.691 Y110.634 E7.0057
G1 X86.688 Y110.623 E7.0065
G1 X86.488 Y109.972 E7.0522
G1 X86.484 Y109.960 E7.0530
G1 X86.477 Y109.931 E7.0550
G1 X86.475 Y109.920 E7.0558
G1 X86.354 Y109.250 E7.1016
G1 X86.352 Y109.238 E7.1024
G1 X86.348 Y109.209 E7.1044
G1 X86.347 Y109.197 E7.1052
G1 X86.306 Y108.517 E7.1509
G1 X86.305 Y108.505 E7.1517
G1 X86.305 Y108.475 E7.1537
G1 X86.306 Y108.463 E7.1545
G1 X86.345 Y107.783 E7.2003
G1 X86.346 Y107.771 E7.2011
G1 X86.349 Y107.742 E7.2031
G1 X86.351 Y107.730 E7.2039
G1 X86.471 Y107.060 E7.2496
G1 X86.473 Y107.048 E7.2504
G1 X86.480 Y107.019 E7.2524
G1 X86.483 Y107.008 E7.2532
G1 X86.681 Y106.356 E7.2990
G1 X86.685 Y106.345 E7.2998
G1 X86.695 Y106.317 E7.3018
G1 X86.700 Y106.306 E7.3026
G1 X86.973 Y105.682 E7.3483
G1 X86.978 Y105.671 E7.3491
G1 X86.992 Y105.645 E7.3511
G1 X86.998 Y105.635 E7.3519
G1 X87.343 Y105.047 E7.3977
G1 X87.349 Y105.037 E7.3985
G1 X87.366 Y105.013 E7.4005
G1 X87.373 Y105.003 E7.4013
G1 X87.785 Y104.461 E7.4471
G1 X87.793 Y104.452 E7.4479
