; G-Code generated by Simplify3D(R) Version 4.0.0
; Mar 30, 2022 at 5:31:08 PM
; Settings Summary
;   processName,Process1
;   applyToModels,Boom_Lift_Linkage_Sweep_1
;   profileName,Default (modified)
;   profileVersion,2017-03-01 08:00:00
;   baseProfile,
;   printMaterial,
;   printQuality,
;   printExtruders,
;   extruderName,Primary Extruder
;   extruderToolheadNumber,0
;   extruderDiameter,0.4
;   extruderAutoWidth,0
;   extruderWidth,0.8
;   extrusionMultiplier,1.01
;   extruderUseRetract,1
;   extruderRetractionDistance,9
;   extruderExtraRestartDistance,0
;   extruderRetractionZLift,0
;   extruderRetractionSpeed,1988
;   extruderUseCoasting,0
;   extruderCoastingDistance,0.2
;   extruderUseWipe,0
;   extruderWipeDistance,5
;   primaryExtruder,0
;   layerHeight,0.2
;   topSolidLayers,4
;   bottomSolidLayers,4
;   perimeterOutlines,1
;   printPerimetersInsideOut,1
;   startPointOption,2
;   startPointOriginX,0
;   startPointOriginY,0
;   sequentialIslands,0
;   spiralVaseMode,0
;   firstLayerHeightPercentage,90
;   firstLayerWidthPercentage,100
;   firstLayerUnderspeed,0.5
;   useRaft,0
;   raftExtruder,0
;   raftTopLayers,3
;   raftBaseLayers,2
;   raftOffset,3
;   raftSeparationDistance,0.14
;   raftTopInfill,100
;   aboveRaftSpeedMultiplier,0.3
;   useSkirt,1
;   skirtExtruder,0
;   skirtLayers,1
;   skirtOutlines,1
;   skirtOffset,0.3
;   usePrimePillar,0
;   primePillarExtruder,999
;   primePillarWidth,12
;   primePillarLocation,7
;   primePillarSpeedMultiplier,1
;   useOozeShield,0
;   oozeShieldExtruder,999
;   oozeShieldOffset,2
;   oozeShieldOutlines,1
;   oozeShieldSidewallShape,1
;   oozeShieldSidewallAngle,30
;   oozeShieldSpeedMultiplier,1
;   infillExtruder,0
;   internalInfillPattern,Rectilinear
;   externalInfillPattern,Rectilinear
;   infillPercentage,35
;   outlineOverlapPercentage,30
;   infillExtrusionWidthPercentage,100
;   minInfillLength,5
;   infillLayerInterval,1
;   internalInfillAngles,45,-45
;   overlapInternalInfillAngles,0
;   externalInfillAngles,45,-45
;   generateSupport,1
;   supportExtruder,0
;   supportInfillPercentage,30
;   supportExtraInflation,0
;   supportBaseLayers,0
;   denseSupportExtruder,0
;   denseSupportLayers,0
;   denseSupportInfillPercentage,70
;   supportLayerInterval,1
;   supportHorizontalPartOffset,0.3
;   supportUpperSeparationLayers,1
;   supportLowerSeparationLayers,1
;   supportType,0
;   supportGridSpacing,4
;   maxOverhangAngle,45
;   supportAngles,0
;   temperatureName,Primary Extruder,Bed
;   temperatureNumber,0,0
;   temperatureSetpointCount,1,1
;   temperatureSetpointLayers,1,1
;   temperatureSetpointTemperatures,205,60
;   temperatureStabilizeAtStartup,1,1
;   temperatureHeatedBed,0,1
;   temperatureRelayBetweenLayers,0,0
;   temperatureRelayBetweenLoops,0,0
;   fanLayers,1,2
;   fanSpeeds,0,100
;   blipFanToFullPower,0
;   adjustSpeedForCooling,1
;   minSpeedLayerTime,15
;   minCoolingSpeedSlowdown,20
;   increaseFanForCooling,0
;   minFanLayerTime,45
;   maxCoolingFanSpeed,100
;   increaseFanForBridging,0
;   bridgingFanSpeed,100
;   use5D,1
;   relativeEdistances,0
;   allowEaxisZeroing,1
;   independentExtruderAxes,0
;   includeM10123,0
;   stickySupport,1
;   applyToolheadOffsets,0
;   gcodeXoffset,0
;   gcodeYoffset,0
;   gcodeZoffset,0
;   overrideMachineDefinition,1
;   machineTypeOverride,0
;   strokeXoverride,220
;   strokeYoverride,220
;   strokeZoverride,220
;   originOffsetXoverride,0
;   originOffsetYoverride,0
;   originOffsetZoverride,0
;   homeXdirOverride,-1
;   homeYdirOverride,-1
;   homeZdirOverride,-1
;   flipXoverride,1
;   flipYoverride,-1
;   flipZoverride,1
;   toolheadOffsets,0,0|0,0|0,0|0,0|0,0|0,0
;   overrideFirmwareConfiguration,0
;   firmwareTypeOverride,RepRap (Marlin/Repetier/Sprinter)
;   GPXconfigOverride,r2
;   baudRateOverride,115200
;   overridePrinterModels,0
;   printerModelsOverride
;   startingGcode,G28 ; home all axes
;   layerChangeGcode,
;   retractionGcode,
;   toolChangeGcode,
;   endingGcode,M104 S0 ; turn off extruder,M140 S0 ; turn off bed,M84 ; disable motors,G28 ; home all axes
;   exportFileFormat,gcode
;   celebration,0
;   celebrationSong,Random Song
;   postProcessing,
;   defaultSpeed,1900
;   outlineUnderspeed,0.95
;   solidInfillUnderspeed,0.8
;   supportUnderspeed,0.8
;   rapidXYspeed,4800
;   rapidZspeed,1002
;   minBridgingArea,50
;   bridgingExtraInflation,0
;   bridgingExtrusionMultiplier,1
;   bridgingSpeedMultiplier,1
;   useFixedBridgingAngle,0
;   fixedBridgingAngle,0
;   applyBridgingToPerimeters,0
;   filamentDiameters,1.75|1.75|1.75|1.75|1.75|1.75
;   filamentPricesPerKg,46|46|46|46|46|46
;   filamentDensities,1.25|1.25|1.25|1.25|1.25|1.25
;   useMinPrintHeight,0
;   minPrintHeight,0
;   useMaxPrintHeight,0
;   maxPrintHeight,0
;   useDiaphragm,0
;   diaphragmLayerInterval,20
;   robustSlicing,1
;   mergeAllIntoSolid,0
;   onlyRetractWhenCrossingOutline,1
;   retractBetweenLayers,1
;   useRetractionMinTravel,0
;   retractionMinTravel,3
;   retractWhileWiping,0
;   onlyWipeOutlines,1
;   avoidCrossingOutline,0
;   maxMovementDetourFactor,3
;   toolChangeRetractionDistance,12
;   toolChangeExtraRestartDistance,-0.5
;   toolChangeRetractionSpeed,600
;   externalThinWallType,0
;   internalThinWallType,2
;   thinWallAllowedOverlapPercentage,10
;   singleExtrusionMinLength,1
;   singleExtrusionMinPrintingWidthPercentage,50
;   singleExtrusionMaxPrintingWidthPercentage,200
;   singleExtrusionEndpointExtension,0.2
;   horizontalSizeCompensation,0
G90
M82
M106 S0
M140 S60
M190 S60
M104 S205 T0
M109 S205 T0
G28 ; home all axes
G92 E0
G1 E-9.0000 F1988
G1 Z0.180 F1002
; process Process1
; layer 1, Z = 0.180
T0
; tool H0.200 W0.800
; skirt
G1 X88.326 Y103.896 F4800
G1 E0.0000 F596
G92 E0
G1 X88.335 Y103.888 E0.0008 F950
G1 X88.864 Y103.459 E0.0466
G1 X88.873 Y103.452 E0.0474
G1 X88.898 Y103.435 E0.0493
G1 X88.907 Y103.428 E0.0501
G1 X89.484 Y103.064 E0.0959
G1 X89.494 Y103.058 E0.0967
G1 X89.520 Y103.044 E0.0987
G1 X89.530 Y103.038 E0.0995
G1 X90.145 Y102.745 E0.1453
G1 X90.156 Y102.741 E0.1461
G1 X90.184 Y102.730 E0.1481
G1 X90.195 Y102.725 E0.1489
G1 X90.840 Y102.507 E0.1946
G1 X90.852 Y102.504 E0.1954
G1 X90.880 Y102.496 E0.1974
G1 X90.892 Y102.493 E0.1982
G1 X91.558 Y102.353 E0.2440
G1 X91.570 Y102.351 E0.2448
G1 X91.599 Y102.346 E0.2468
G1 X91.611 Y102.345 E0.2476
G1 X92.290 Y102.284 E0.2933
G1 X92.301 Y102.284 E0.2941
G1 X92.331 Y102.283 E0.2961
G1 X92.343 Y102.283 E0.2969
G1 X93.024 Y102.303 E0.3427
G1 X93.036 Y102.304 E0.3435
G1 X93.065 Y102.306 E0.3455
G1 X93.077 Y102.308 E0.3463
G1 X93.751 Y102.408 E0.3921
G1 X93.762 Y102.410 E0.3929
G1 X93.791 Y102.417 E0.3948
G1 X93.803 Y102.419 E0.3956
G1 X94.460 Y102.599 E0.4414
G1 X94.472 Y102.602 E0.4422
G1 X94.500 Y102.612 E0.4442
G1 X94.511 Y102.616 E0.4450
G1 X95.142 Y102.872 E0.4908
G1 X95.153 Y102.877 E0.4916
G1 X95.180 Y102.890 E0.4936
G1 X95.190 Y102.895 E0.4944
G1 X95.787 Y103.224 E0.5401
G1 X95.797 Y103.230 E0.5409
G1 X95.822 Y103.246 E0.5429
G1 X95.832 Y103.252 E0.5437
G1 X96.386 Y103.650 E0.5895
G1 X96.395 Y103.657 E0.5903
G1 X96.418 Y103.675 E0.5923
G1 X96.427 Y103.683 E0.5931
G1 X96.930 Y104.143 E0.6389
G1 X96.938 Y104.151 E0.6397
G1 X96.959 Y104.173 E0.6416
G1 X96.967 Y104.181 E0.6424
G1 X97.409 Y104.695 E0.6880
G1 X97.415 Y104.702 E0.6886
G1 X97.430 Y104.720 E0.6902
G1 X97.435 Y104.728 E0.6908
G1 X97.506 Y104.828 E0.6990
G1 X99.055 Y105.233 E0.8066
G1 X100.853 Y105.628 E0.9303
G1 X102.666 Y105.952 E1.0540
G1 X104.489 Y106.205 E1.1777
G1 X106.322 Y106.386 E1.3014
G1 X108.159 Y106.494 E1.4251
G1 X110.000 Y106.530 E1.5487
G1 X111.841 Y106.494 E1.6724
G1 X113.678 Y106.386 E1.7961
G1 X115.511 Y106.205 E1.9198
G1 X117.334 Y105.952 E2.0435
G1 X119.147 Y105.628 E2.1672
G1 X120.945 Y105.233 E2.2909
G1 X122.505 Y104.825 E2.3992
G1 X122.780 Y104.462 E2.4298
G1 X122.787 Y104.453 E2.4306
G1 X122.807 Y104.430 E2.4327
G1 X122.815 Y104.421 E2.4335
G1 X123.289 Y103.931 E2.4793
G1 X123.298 Y103.923 E2.4801
G1 X123.319 Y103.903 E2.4820
G1 X123.328 Y103.895 E2.4828
G1 X123.857 Y103.465 E2.5286
G1 X123.866 Y103.458 E2.5294
G1 X123.890 Y103.440 E2.5314
G1 X123.900 Y103.434 E2.5322
G1 X124.475 Y103.069 E2.5780
G1 X124.486 Y103.063 E2.5788
G1 X124.512 Y103.049 E2.5807
G1 X124.522 Y103.043 E2.5815
G1 X125.137 Y102.749 E2.6273
G1 X125.148 Y102.745 E2.6281
G1 X125.175 Y102.733 E2.6301
G1 X125.186 Y102.729 E2.6309
G1 X125.831 Y102.510 E2.6767
G1 X125.842 Y102.507 E2.6775
G1 X125.871 Y102.499 E2.6795
G1 X125.883 Y102.496 E2.6803
G1 X126.549 Y102.355 E2.7260
G1 X126.561 Y102.353 E2.7268
G1 X126.590 Y102.348 E2.7288
G1 X126.602 Y102.347 E2.7296
G1 X127.280 Y102.285 E2.7754
G1 X127.292 Y102.285 E2.7762
G1 X127.322 Y102.284 E2.7782
G1 X127.334 Y102.284 E2.7790
G1 X128.014 Y102.303 E2.8247
G1 X128.026 Y102.303 E2.8255
G1 X128.056 Y102.306 E2.8275
G1 X128.068 Y102.307 E2.8283
G1 X128.742 Y102.407 E2.8741
G1 X128.753 Y102.409 E2.8749
G1 X128.782 Y102.415 E2.8769
G1 X128.794 Y102.418 E2.8777
G1 X129.451 Y102.596 E2.9234
G1 X129.463 Y102.600 E2.9242
G1 X129.491 Y102.609 E2.9262
G1 X129.502 Y102.613 E2.9270
G1 X130.133 Y102.869 E2.9728
G1 X130.144 Y102.873 E2.9736
G1 X130.171 Y102.886 E2.9756
G1 X130.182 Y102.891 E2.9764
G1 X130.779 Y103.219 E3.0221
G1 X130.789 Y103.225 E3.0229
G1 X130.814 Y103.241 E3.0249
G1 X130.824 Y103.248 E3.0257
G1 X131.378 Y103.644 E3.0715
G1 X131.387 Y103.651 E3.0723
G1 X131.410 Y103.670 E3.0743
G1 X131.419 Y103.678 E3.0751
G1 X131.923 Y104.137 E3.1209
G1 X131.931 Y104.145 E3.1216
G1 X131.952 Y104.166 E3.1236
G1 X131.960 Y104.175 E3.1244
G1 X132.405 Y104.690 E3.1702
G1 X132.413 Y104.699 E3.1710
G1 X132.431 Y104.723 E3.1730
G1 X132.438 Y104.733 E3.1738
G1 X132.819 Y105.297 E3.2196
G1 X132.826 Y105.307 E3.2204
G1 X132.841 Y105.333 E3.2223
G1 X132.847 Y105.343 E3.2231
G1 X133.159 Y105.949 E3.2689
G1 X133.164 Y105.959 E3.2697
G1 X133.176 Y105.986 E3.2717
G1 X133.180 Y105.997 E3.2725
G1 X133.418 Y106.635 E3.3183
G1 X133.422 Y106.647 E3.3191
G1 X133.431 Y106.675 E3.3211
G1 X133.434 Y106.686 E3.3219
G1 X133.595 Y107.349 E3.3676
G1 X133.597 Y107.360 E3.3684
G1 X133.603 Y107.389 E3.3704
G1 X133.604 Y107.401 E3.3712
G1 X133.686 Y108.077 E3.4170
G1 X133.687 Y108.089 E3.4178
G1 X133.689 Y108.119 E3.4198
G1 X133.689 Y108.130 E3.4206
G1 X133.690 Y108.816 E3.4666
G1 X133.690 Y108.828 E3.4674
G1 X133.688 Y108.858 E3.4694
G1 X133.687 Y108.870 E3.4702
G1 X133.608 Y109.542 E3.5157
G1 X133.606 Y109.554 E3.5165
G1 X133.601 Y109.583 E3.5185
G1 X133.598 Y109.594 E3.5193
G1 X133.439 Y110.256 E3.5650
G1 X133.436 Y110.268 E3.5658
G1 X133.428 Y110.296 E3.5678
G1 X133.424 Y110.307 E3.5686
G1 X133.188 Y110.947 E3.6144
G1 X133.183 Y110.958 E3.6152
G1 X133.171 Y110.985 E3.6172
G1 X133.166 Y110.995 E3.6180
G1 X132.914 Y111.488 E3.6551
G1 X132.920 Y111.495 E3.6558
G1 X132.920 Y112.424 E3.7181
G1 X132.859 Y112.571 E3.7288
G1 X132.571 Y112.859 E3.7562
G1 X132.424 Y112.920 E3.7669
G1 X131.817 Y112.920 E3.8077
G1 X131.434 Y113.272 E3.8426
G1 X131.425 Y113.279 E3.8434
G1 X131.402 Y113.298 E3.8454
G1 X131.393 Y113.305 E3.8462
G1 X130.840 Y113.703 E3.8920
G1 X130.830 Y113.710 E3.8928
G1 X130.805 Y113.726 E3.8947
G1 X130.795 Y113.732 E3.8955
G1 X130.200 Y114.061 E3.9412
G1 X130.190 Y114.066 E3.9420
G1 X130.165 Y114.078 E3.9438
G1 X130.155 Y114.082 E3.9445
G1 X129.620 Y114.306 E3.9835
G1 X129.614 Y114.309 E3.9840
G1 X129.598 Y114.315 E3.9851
G1 X129.591 Y114.317 E3.9856
G1 X127.632 Y114.981 E4.1246
G1 X127.628 Y114.982 E4.1248
G1 X127.620 Y114.985 E4.1254
G1 X127.617 Y114.986 E4.1257
G1 X125.594 Y115.591 E4.2675
G1 X125.591 Y115.592 E4.2677
G1 X125.582 Y115.594 E4.2683
G1 X125.578 Y115.595 E4.2686
G1 X123.558 Y116.119 E4.4089
G1 X123.554 Y116.120 E4.4091
G1 X123.545 Y116.122 E4.4097
G1 X123.542 Y116.123 E4.4100
G1 X121.503 Y116.574 E4.5502
G1 X121.500 Y116.575 E4.5504
G1 X121.491 Y116.577 E4.5510
G1 X121.487 Y116.577 E4.5513
G1 X119.434 Y116.954 E4.6916
G1 X119.430 Y116.955 E4.6918
G1 X119.421 Y116.956 E4.6924
G1 X119.418 Y116.957 E4.6927
G1 X117.352 Y117.258 E4.8329
G1 X117.349 Y117.259 E4.8331
G1 X117.340 Y117.260 E4.8338
G1 X117.336 Y117.261 E4.8340
G1 X115.261 Y117.487 E4.9743
G1 X115.257 Y117.488 E4.9745
G1 X115.248 Y117.488 E4.9751
G1 X115.245 Y117.489 E4.9754
G1 X113.162 Y117.640 E5.1156
G1 X113.159 Y117.640 E5.1159
G1 X113.150 Y117.641 E5.1165
G1 X113.146 Y117.641 E5.1167
G1 X111.060 Y117.717 E5.2570
G1 X111.057 Y117.717 E5.2572
G1 X111.047 Y117.717 E5.2578
G1 X111.044 Y117.717 E5.2581
G1 X108.956 Y117.717 E5.3983
G1 X108.953 Y117.717 E5.3986
G1 X108.943 Y117.717 E5.3992
G1 X108.940 Y117.717 E5.3994
G1 X106.854 Y117.641 E5.5397
G1 X106.850 Y117.641 E5.5399
G1 X106.841 Y117.640 E5.5405
G1 X106.838 Y117.640 E5.5408
G1 X104.755 Y117.489 E5.6810
G1 X104.752 Y117.488 E5.6812
G1 X104.743 Y117.488 E5.6819
G1 X104.739 Y117.487 E5.6821
G1 X102.664 Y117.261 E5.8224
G1 X102.660 Y117.260 E5.8226
G1 X102.651 Y117.259 E5.8232
G1 X102.648 Y117.258 E5.8235
G1 X100.582 Y116.957 E5.9637
G1 X100.579 Y116.956 E5.9639
G1 X100.570 Y116.955 E5.9646
G1 X100.566 Y116.954 E5.9648
G1 X98.513 Y116.577 E6.1051
G1 X98.509 Y116.577 E6.1053
G1 X98.500 Y116.575 E6.1059
G1 X98.497 Y116.574 E6.1062
G1 X96.458 Y116.123 E6.2464
G1 X96.455 Y116.122 E6.2467
G1 X96.446 Y116.120 E6.2473
G1 X96.442 Y116.119 E6.2475
G1 X94.422 Y115.595 E6.3878
G1 X94.418 Y115.594 E6.3880
G1 X94.410 Y115.592 E6.3886
G1 X94.406 Y115.591 E6.3889
G1 X92.406 Y114.993 E6.5291
G1 X92.402 Y114.992 E6.5294
G1 X92.394 Y114.989 E6.5300
G1 X92.390 Y114.988 E6.5302
G1 X90.406 Y114.316 E6.6710
G1 X90.396 Y114.313 E6.6717
G1 X90.374 Y114.304 E6.6733
G1 X90.365 Y114.300 E6.6739
G1 X89.541 Y113.928 E6.7347
G1 X89.528 Y113.922 E6.7356
G1 X89.498 Y113.905 E6.7380
G1 X89.486 Y113.898 E6.7389
G1 X88.907 Y113.533 E6.7848
G1 X88.898 Y113.527 E6.7856
G1 X88.873 Y113.509 E6.7876
G1 X88.864 Y113.502 E6.7884
G1 X88.335 Y113.073 E6.8342
G1 X88.326 Y113.065 E6.8350
G1 X88.304 Y113.045 E6.8370
G1 X88.296 Y113.037 E6.8378
G1 X87.821 Y112.548 E6.8836
G1 X87.813 Y112.539 E6.8844
G1 X87.794 Y112.517 E6.8863
G1 X87.786 Y112.508 E6.8871
G1 X87.373 Y111.966 E6.9329
G1 X87.366 Y111.956 E6.9337
G1 X87.349 Y111.932 E6.9357
G1 X87.343 Y111.922 E6.9365
G1 X86.997 Y111.335 E6.9823
G1 X86.991 Y111.325 E6.9831
G1 X86.977 Y111.298 E6.9851
G1 X86.972 Y111.288 E6.9859
G1 X86.698 Y110.664 E7.0316
G1 X86.693 Y110.653 E7.0324
G1 X86.683 Y110.625 E7.0344
G1 X86.679 Y110.614 E7.0352
G1 X86.480 Y109.963 E7.0810
G1 X86.477 Y109.951 E7.0818
G1 X86.470 Y109.922 E7.0838
G1 X86.468 Y109.911 E7.0846
G1 X86.347 Y109.240 E7.1303
G1 X86.345 Y109.229 E7.1311
G1 X86.342 Y109.199 E7.1331
G1 X86.341 Y109.187 E7.1339
G1 X86.300 Y108.507 E7.1797
G1 X86.300 Y108.495 E7.1805
G1 X86.300 Y108.466 E7.1825
G1 X86.300 Y108.454 E7.1833
G1 X86.341 Y107.774 E7.2291
G1 X86.342 Y107.762 E7.2299
G1 X86.345 Y107.732 E7.2319
G1 X86.347 Y107.721 E7.2326
G1 X86.468 Y107.050 E7.2784
G1 X86.470 Y107.039 E7.2792
G1 X86.477 Y107.010 E7.2812
G1 X86.480 Y106.998 E7.2820
G1 X86.679 Y106.347 E7.3278
G1 X86.683 Y106.336 E7.3286
G1 X86.693 Y106.308 E7.3306
G1 X86.698 Y106.297 E7.3314
G1 X86.972 Y105.673 E7.3771
G1 X86.977 Y105.663 E7.3779
G1 X86.991 Y105.636 E7.3799
G1 X86.997 Y105.626 E7.3807
G1 X87.343 Y105.039 E7.4265
G1 X87.349 Y105.029 E7.4273
G1 X87.366 Y105.005 E7.4293
G1 X87.373 Y104.995 E7.4301
G1 X87.786 Y104.454 E7.4758
G1 X87.794 Y104.444 E7.4766
G1 X87.813 Y104.422 E7.4786
G1 X87.821 Y104.413 E7.4794
G1 X88.296 Y103.924 E7.5252
G1 X88.304 Y103.916 E7.5260
G1 X88.326 Y103.896 E7.5280
G92 E0
G1 E-9.0000 F1988
; outer perimeter
