; G-Code generated by Simplify3D(R) Version 4.0.0
; Mar 30, 2022 at 5:59:02 PM
; Settings Summary
;   processName,Process1
;   applyToModels,Boom_Stop_Ring_V3_2pc
;   profileName,Default (modified)
;   profileVersion,2017-03-01 08:00:00
;   baseProfile,
;   printMaterial,
;   printQuality,
;   printExtruders,
;   extruderName,Primary Extruder
;   extruderToolheadNumber,0
;   extruderDiameter,0.4
;   extruderAutoWidth,0
;   extruderWidth,0.8
;   extrusionMultiplier,1.01
;   extruderUseRetract,1
;   extruderRetractionDistance,9
;   extruderExtraRestartDistance,0
;   extruderRetractionZLift,0
;   extruderRetractionSpeed,1988
;   extruderUseCoasting,0
;   extruderCoastingDistance,0.2
;   extruderUseWipe,0
;   extruderWipeDistance,5
;   primaryExtruder,0
;   layerHeight,0.2
;   topSolidLayers,4
;   bottomSolidLayers,4
;   perimeterOutlines,1
;   printPerimetersInsideOut,1
;   startPointOption,2
;   startPointOriginX,0
;   startPointOriginY,0
;   sequentialIslands,0
;   spiralVaseMode,0
;   firstLayerHeightPercentage,90
;   firstLayerWidthPercentage,100
;   firstLayerUnderspeed,0.5
;   useRaft,0
;   raftExtruder,0
;   raftTopLayers,3
;   raftBaseLayers,2
;   raftOffset,3
;   raftSeparationDistance,0.14
;   raftTopInfill,100
;   aboveRaftSpeedMultiplier,0.3
;   useSkirt,1
;   skirtExtruder,0
;   skirtLayers,1
;   skirtOutlines,1
;   skirtOffset,0.3
;   usePrimePillar,0
;   primePillarExtruder,999
;   primePillarWidth,12
;   primePillarLocation,7
;   primePillarSpeedMultiplier,1
;   useOozeShield,0
;   oozeShieldExtruder,999
;   oozeShieldOffset,2
;   oozeShieldOutlines,1
;   oozeShieldSidewallShape,1
;   oozeShieldSidewallAngle,30
;   oozeShieldSpeedMultiplier,1
;   infillExtruder,0
;   internalInfillPattern,Rectilinear
;   externalInfillPattern,Rectilinear
;   infillPercentage,35
;   outlineOverlapPercentage,30
;   infillExtrusionWidthPercentage,100
;   minInfillLength,5
;   infillLayerInterval,1
;   internalInfillAngles,45,-45
;   overlapInternalInfillAngles,0
;   externalInfillAngles,45,-45
;   generateSupport,1
;   supportExtruder,0
;   supportInfillPercentage,30
;   supportExtraInflation,0
;   supportBaseLayers,0
;   denseSupportExtruder,0
;   denseSupportLayers,0
;   denseSupportInfillPercentage,70
;   supportLayerInterval,1
;   supportHorizontalPartOffset,0.3
;   supportUpperSeparationLayers,1
;   supportLowerSeparationLayers,1
;   supportType,0
;   supportGridSpacing,4
;   maxOverhangAngle,45
;   supportAngles,0
;   temperatureName,Primary Extruder,Bed
;   temperatureNumber,0,0
;   temperatureSetpointCount,1,1
;   temperatureSetpointLayers,1,1
;   temperatureSetpointTemperatures,205,60
;   temperatureStabilizeAtStartup,1,1
;   temperatureHeatedBed,0,1
;   temperatureRelayBetweenLayers,0,0
;   temperatureRelayBetweenLoops,0,0
;   fanLayers,1,2
;   fanSpeeds,0,100
;   blipFanToFullPower,0
;   adjustSpeedForCooling,1
;   minSpeedLayerTime,15
;   minCoolingSpeedSlowdown,20
;   increaseFanForCooling,0
;   minFanLayerTime,45
;   maxCoolingFanSpeed,100
;   increaseFanForBridging,0
;   bridgingFanSpeed,100
;   use5D,1
;   relativeEdistances,0
;   allowEaxisZeroing,1
;   independentExtruderAxes,0
;   includeM10123,0
;   stickySupport,1
;   applyToolheadOffsets,0
;   gcodeXoffset,0
;   gcodeYoffset,0
;   gcodeZoffset,0
;   overrideMachineDefinition,1
;   machineTypeOverride,0
;   strokeXoverride,220
;   strokeYoverride,220
;   strokeZoverride,220
;   originOffsetXoverride,0
;   originOffsetYoverride,0
;   originOffsetZoverride,0
;   homeXdirOverride,-1
;   homeYdirOverride,-1
;   homeZdirOverride,-1
;   flipXoverride,1
;   flipYoverride,-1
;   flipZoverride,1
;   toolheadOffsets,0,0|0,0|0,0|0,0|0,0|0,0
;   overrideFirmwareConfiguration,0
;   firmwareTypeOverride,RepRap (Marlin/Repetier/Sprinter)
;   GPXconfigOverride,r2
;   baudRateOverride,115200
;   overridePrinterModels,0
;   printerModelsOverride
;   startingGcode,G28 ; home all axes
;   layerChangeGcode,
;   retractionGcode,
;   toolChangeGcode,
;   endingGcode,M104 S0 ; turn off extruder,M140 S0 ; turn off bed,M84 ; disable motors,G28 ; home all axes
;   exportFileFormat,gcode
;   celebration,0
;   celebrationSong,Random Song
;   postProcessing,
;   defaultSpeed,2000
;   outlineUnderspeed,0.95
;   solidInfillUnderspeed,0.8
;   supportUnderspeed,0.8
;   rapidXYspeed,4800
;   rapidZspeed,1002
;   minBridgingArea,50
;   bridgingExtraInflation,0
;   bridgingExtrusionMultiplier,1
;   bridgingSpeedMultiplier,1
;   useFixedBridgingAngle,0
;   fixedBridgingAngle,0
;   applyBridgingToPerimeters,0
;   filamentDiameters,1.75|1.75|1.75|1.75|1.75|1.75
;   filamentPricesPerKg,46|46|46|46|46|46
;   filamentDensities,1.25|1.25|1.25|1.25|1.25|1.25
;   useMinPrintHeight,0
;   minPrintHeight,0
;   useMaxPrintHeight,0
;   maxPrintHeight,0
;   useDiaphragm,0
;   diaphragmLayerInterval,20
;   robustSlicing,1
;   mergeAllIntoSolid,0
;   onlyRetractWhenCrossingOutline,1
;   retractBetweenLayers,1
;   useRetractionMinTravel,0
;   retractionMinTravel,3
;   retractWhileWiping,0
;   onlyWipeOutlines,1
;   avoidCrossingOutline,0
;   maxMovementDetourFactor,3
;   toolChangeRetractionDistance,12
;   toolChangeExtraRestartDistance,-0.5
;   toolChangeRetractionSpeed,600
;   externalThinWallType,0
;   internalThinWallType,2
;   thinWallAllowedOverlapPercentage,10
;   singleExtrusionMinLength,1
;   singleExtrusionMinPrintingWidthPercentage,50
;   singleExtrusionMaxPrintingWidthPercentage,200
;   singleExtrusionEndpointExtension,0.2
;   horizontalSizeCompensation,0
G90
M82
M106 S0
M140 S60
M190 S60
M104 S205 T0
M109 S205 T0
G28 ; home all axes
G92 E0
G1 E-9.0000 F1988
G1 Z0.180 F1002
; process Process1
; layer 1, Z = 0.180
T0
; tool H0.200 W0.800
; skirt
G1 X98.165 Y96.290 F4800
G1 E0.0000 F596
G92 E0
G1 X98.171 Y96.285 E0.0005 F1000
G1 X98.964 Y95.558 E0.0728
G1 X98.969 Y95.553 E0.0733
G1 X98.984 Y95.540 E0.0746
G1 X98.990 Y95.535 E0.0751
G1 X99.841 Y94.865 E0.1479
G1 X99.847 Y94.860 E0.1484
G1 X99.863 Y94.849 E0.1497
G1 X99.869 Y94.845 E0.1502
G1 X100.756 Y94.250 E0.2220
G1 X100.763 Y94.246 E0.2225
G1 X100.778 Y94.236 E0.2237
G1 X100.785 Y94.232 E0.2242
G1 X101.728 Y93.698 E0.2971
G1 X101.735 Y93.694 E0.2976
G1 X101.752 Y93.685 E0.2989
G1 X101.758 Y93.682 E0.2994
G1 X102.725 Y93.227 E0.3711
G1 X102.732 Y93.224 E0.3717
G1 X102.749 Y93.217 E0.3729
G1 X102.756 Y93.214 E0.3734
G1 X103.769 Y92.827 E0.4462
G1 X103.776 Y92.825 E0.4468
G1 X103.794 Y92.819 E0.4480
G1 X103.801 Y92.816 E0.4485
G1 X104.833 Y92.510 E0.5208
G1 X104.840 Y92.508 E0.5214
G1 X104.858 Y92.503 E0.5226
G1 X104.866 Y92.502 E0.5231
G1 X105.910 Y92.276 E0.5949
G1 X105.917 Y92.274 E0.5954
G1 X105.936 Y92.271 E0.5967
G1 X105.943 Y92.270 E0.5972
G1 X107.009 Y92.122 E0.6694
G1 X107.016 Y92.121 E0.6699
G1 X107.035 Y92.119 E0.6712
G1 X107.042 Y92.118 E0.6717
G1 X108.124 Y92.051 E0.7446
G1 X108.132 Y92.050 E0.7451
G1 X108.151 Y92.050 E0.7464
G1 X108.159 Y92.050 E0.7469
G1 X109.227 Y92.064 E0.8186
G1 X109.234 Y92.064 E0.8192
G1 X109.253 Y92.065 E0.8204
G1 X109.261 Y92.066 E0.8209
G1 X110.340 Y92.162 E0.8937
G1 X110.348 Y92.163 E0.8942
G1 X110.367 Y92.165 E0.8955
G1 X110.374 Y92.166 E0.8960
G1 X111.428 Y92.341 E0.9678
G1 X111.435 Y92.342 E0.9683
G1 X111.453 Y92.346 E0.9695
G1 X111.461 Y92.348 E0.9701
G1 X112.514 Y92.605 E1.0429
G1 X112.521 Y92.607 E1.0434
G1 X112.540 Y92.612 E1.0447
G1 X112.547 Y92.615 E1.0452
G1 X113.570 Y92.949 E1.1175
G1 X113.577 Y92.951 E1.1180
G1 X113.595 Y92.958 E1.1193
G1 X113.602 Y92.960 E1.1198
G1 X114.597 Y93.371 E1.1921
G1 X114.605 Y93.374 E1.1927
G1 X114.623 Y93.383 E1.1940
G1 X114.630 Y93.386 E1.1945
G1 X115.452 Y93.805 E1.2565
G1 X120.414 Y92.475 E1.6017
G1 X120.572 Y92.496 E1.6124
G1 X120.925 Y92.700 E1.6398
G1 X121.022 Y92.826 E1.6504
G1 X123.716 Y102.879 E2.3497
G1 X123.695 Y103.037 E2.3604
G1 X123.491 Y103.390 E2.3878
G1 X123.365 Y103.487 E2.3985
G1 X116.216 Y105.402 E2.8957
G1 X116.063 Y105.384 E2.9060
G1 X115.717 Y105.196 E2.9325
G1 X115.619 Y105.077 E2.9429
G1 X115.329 Y104.175 E3.0065
G1 X115.044 Y103.517 E3.0547
G1 X114.699 Y102.896 E3.1024
G1 X114.288 Y102.302 E3.1509
G1 X113.825 Y101.756 E3.1990
G1 X113.310 Y101.258 E3.2472
G1 X112.754 Y100.816 E3.2949
G1 X112.152 Y100.427 E3.3430
G1 X111.515 Y100.100 E3.3912
G1 X110.844 Y99.834 E3.4397
G1 X110.161 Y99.639 E3.4874
G1 X109.456 Y99.510 E3.5355
G1 X108.736 Y99.450 E3.5840
G1 X108.020 Y99.462 E3.6322
G1 X107.309 Y99.544 E3.6803
G1 X106.609 Y99.695 E3.7284
G1 X105.932 Y99.913 E3.7761
G1 X105.274 Y100.197 E3.8243
G1 X104.648 Y100.545 E3.8724
G1 X104.059 Y100.952 E3.9205
G1 X103.508 Y101.419 E3.9690
G1 X103.010 Y101.933 E4.0171
G1 X102.568 Y102.490 E4.0649
G1 X102.176 Y103.096 E4.1134
G1 X101.849 Y103.733 E4.1615
G1 X101.586 Y104.400 E4.2096
G1 X101.389 Y105.088 E4.2578
G1 X101.261 Y105.793 E4.3059
G1 X101.203 Y106.507 E4.3540
G1 X101.214 Y107.223 E4.4021
G1 X101.296 Y107.935 E4.4503
G1 X101.451 Y108.652 E4.4995
G1 X101.709 Y109.615 E4.5665
G1 X101.712 Y109.626 E4.5673
G1 X101.717 Y109.653 E4.5692
G1 X101.719 Y109.664 E4.5699
G1 X101.776 Y110.038 E4.5953
G1 X101.778 Y110.060 E4.5968
G1 X101.780 Y110.116 E4.6006
G1 X101.779 Y110.139 E4.6021
G1 X101.750 Y110.530 E4.6284
G1 X101.747 Y110.552 E4.6299
G1 X101.737 Y110.607 E4.6337
G1 X101.731 Y110.629 E4.6352
G1 X101.616 Y111.003 E4.6616
G1 X101.608 Y111.024 E4.6631
G1 X101.586 Y111.076 E4.6668
G1 X101.575 Y111.096 E4.6683
G1 X101.379 Y111.435 E4.6947
G1 X101.367 Y111.454 E4.6962
G1 X101.334 Y111.499 E4.7000
G1 X101.319 Y111.517 E4.7015
G1 X101.053 Y111.804 E4.7278
G1 X101.037 Y111.820 E4.7293
G1 X100.994 Y111.856 E4.7331
G1 X100.976 Y111.870 E4.7346
G1 X100.652 Y112.091 E4.7609
G1 X100.633 Y112.102 E4.7624
G1 X100.584 Y112.129 E4.7662
G1 X100.563 Y112.138 E4.7677
G1 X100.211 Y112.276 E4.7931
G1 X100.201 Y112.280 E4.7939
G1 X100.174 Y112.289 E4.7958
G1 X100.163 Y112.292 E4.7965
G1 X96.370 Y113.308 E5.0603
G1 X103.717 Y113.308 E5.5539
G1 X103.852 Y113.359 E5.5636
G1 X104.130 Y113.599 E5.5883
G1 X104.200 Y113.726 E5.5980
G1 X104.335 Y114.663 E5.6616
G1 X104.511 Y115.369 E5.7105
G1 X104.756 Y116.054 E5.7594
G1 X105.068 Y116.712 E5.8083
G1 X105.443 Y117.335 E5.8572
G1 X105.879 Y117.917 E5.9061
G1 X106.371 Y118.454 E5.9550
G1 X106.914 Y118.939 E6.0039
G1 X107.503 Y119.367 E6.0528
G1 X108.131 Y119.734 E6.1017
G1 X108.792 Y120.037 E6.1506
G1 X109.481 Y120.273 E6.1995
G1 X110.189 Y120.439 E6.2484
G1 X110.911 Y120.534 E6.2972
G1 X111.638 Y120.556 E6.3461
G1 X112.364 Y120.506 E6.3950
G1 X113.082 Y120.383 E6.4439
G1 X113.783 Y120.190 E6.4928
G1 X114.462 Y119.928 E6.5417
G1 X115.112 Y119.600 E6.5906
G1 X115.725 Y119.209 E6.6395
G1 X116.297 Y118.758 E6.6884
G1 X116.821 Y118.253 E6.7373
G1 X117.292 Y117.698 E6.7862
G1 X117.705 Y117.099 E6.8351
G1 X118.056 Y116.462 E6.8840
G1 X118.343 Y115.792 E6.9329
G1 X118.561 Y115.099 E6.9817
G1 X118.709 Y114.386 E7.0306
G1 X118.786 Y113.662 E7.0795
G1 X118.790 Y112.935 E7.1284
G1 X118.722 Y112.210 E7.1773
G1 X118.581 Y111.496 E7.2262
G1 X118.371 Y110.800 E7.2751
G1 X118.093 Y110.131 E7.3238
G1 X117.558 Y109.158 E7.3984
G1 X117.540 Y109.002 E7.4089
G1 X117.648 Y108.615 E7.4359
G1 X117.745 Y108.491 E7.4464
G1 X123.295 Y105.286 E7.8771
G1 X123.455 Y105.266 E7.8879
G1 X123.852 Y105.375 E7.9155
G1 X123.978 Y105.475 E7.9263
G1 X124.588 Y106.569 E8.0105
G1 X124.591 Y106.576 E8.0110
G1 X124.600 Y106.592 E8.0122
G1 X124.603 Y106.599 E8.0127
G1 X125.047 Y107.557 E8.0837
G1 X125.050 Y107.564 E8.0842
G1 X125.058 Y107.581 E8.0855
G1 X125.060 Y107.588 E8.0860
G1 X125.432 Y108.576 E8.1569
G1 X125.435 Y108.583 E8.1574
G1 X125.441 Y108.601 E8.1587
G1 X125.443 Y108.608 E8.1592
G1 X125.741 Y109.621 E8.2301
G1 X125.743 Y109.629 E8.2306
G1 X125.747 Y109.647 E8.2319
G1 X125.749 Y109.654 E8.2324
G1 X125.971 Y110.686 E8.3033
G1 X125.973 Y110.694 E8.3038
G1 X125.976 Y110.712 E8.3051
G1 X125.977 Y110.719 E8.3056
G1 X126.122 Y111.766 E8.3765
G1 X126.123 Y111.773 E8.3770
G1 X126.125 Y111.792 E8.3783
G1 X126.125 Y111.799 E8.3788
G1 X126.192 Y112.853 E8.4497
G1 X126.193 Y112.860 E8.4502
G1 X126.193 Y112.879 E8.4515
G1 X126.193 Y112.886 E8.4520
G1 X126.182 Y113.942 E8.5229
G1 X126.182 Y113.950 E8.5234
G1 X126.181 Y113.968 E8.5247
G1 X126.180 Y113.976 E8.5252
G1 X126.091 Y115.028 E8.5961
G1 X126.090 Y115.035 E8.5966
G1 X126.088 Y115.054 E8.5979
G1 X126.087 Y115.061 E8.5984
G1 X125.920 Y116.104 E8.6694
G1 X125.918 Y116.111 E8.6698
G1 X125.915 Y116.129 E8.6711
G1 X125.913 Y116.137 E8.6716
G1 X125.669 Y117.165 E8.7426
G1 X125.668 Y117.172 E8.7431
G1 X125.663 Y117.190 E8.7443
G1 X125.660 Y117.197 E8.7448
G1 X125.341 Y118.204 E8.8158
G1 X125.339 Y118.211 E8.8163
G1 X125.332 Y118.228 E8.8175
G1 X125.330 Y118.235 E8.8180
G1 X124.937 Y119.215 E8.8890
G1 X124.934 Y119.222 E8.8895
G1 X124.926 Y119.239 E8.8907
G1 X124.923 Y119.246 E8.8912
G1 X124.459 Y120.194 E8.9622
G1 X124.455 Y120.201 E8.9627
G1 X124.446 Y120.217 E8.9639
G1 X124.443 Y120.224 E8.9644
G1 X123.909 Y121.135 E9.0354
G1 X123.905 Y121.142 E9.0359
G1 X123.895 Y121.157 E9.0371
G1 X123.891 Y121.163 E9.0376
G1 X123.292 Y122.033 E9.1086
G1 X123.287 Y122.039 E9.1091
G1 X123.276 Y122.054 E9.1103
G1 X123.272 Y122.060 E9.1108
G1 X122.609 Y122.882 E9.1818
G1 X122.604 Y122.888 E9.1823
G1 X122.592 Y122.902 E9.1835
G1 X122.587 Y122.908 E9.1840
G1 X121.866 Y123.679 E9.2550
G1 X121.861 Y123.684 E9.2555
G1 X121.848 Y123.697 E9.2567
G1 X121.842 Y123.703 E9.2572
G1 X121.066 Y124.418 E9.3282
G1 X121.060 Y124.423 E9.3287
G1 X121.046 Y124.435 E9.3299
G1 X121.040 Y124.440 E9.3304
G1 X120.213 Y125.096 E9.4014
G1 X120.207 Y125.101 E9.4019
G1 X120.192 Y125.112 E9.4032
G1 X120.186 Y125.116 E9.4037
G1 X119.312 Y125.709 E9.4746
G1 X119.306 Y125.713 E9.4751
G1 X119.290 Y125.723 E9.4764
G1 X119.284 Y125.727 E9.4769
G1 X118.368 Y126.254 E9.5478
G1 X118.362 Y126.257 E9.5483
G1 X118.345 Y126.266 E9.5496
G1 X118.339 Y126.269 E9.5501
G1 X117.387 Y126.727 E9.6210
G1 X117.380 Y126.730 E9.6215
G1 X117.363 Y126.737 E9.6228
G1 X117.356 Y126.740 E9.6233
G1 X116.373 Y127.126 E9.6942
G1 X116.366 Y127.129 E9.6947
G1 X116.348 Y127.135 E9.6960
G1 X116.341 Y127.137 E9.6965
G1 X115.332 Y127.449 E9.7674
G1 X115.325 Y127.451 E9.7679
G1 X115.307 Y127.456 E9.7692
G1 X115.300 Y127.458 E9.7697
G1 X114.270 Y127.694 E9.8406
G1 X114.263 Y127.696 E9.8411
G1 X114.245 Y127.699 E9.8424
G1 X114.238 Y127.700 E9.8429
G1 X113.194 Y127.860 E9.9138
G1 X113.186 Y127.861 E9.9143
G1 X113.168 Y127.863 E9.9156
G1 X113.160 Y127.864 E9.9161
G1 X112.107 Y127.945 E9.9871
G1 X112.100 Y127.946 E9.9875
G1 X112.082 Y127.947 E9.9888
G1 X112.074 Y127.947 E9.9893
G1 X111.018 Y127.950 E10.0603
G1 X111.010 Y127.950 E10.0608
G1 X110.992 Y127.949 E10.0620
G1 X110.984 Y127.949 E10.0625
G1 X109.931 Y127.874 E10.1335
G1 X109.923 Y127.874 E10.1340
G1 X109.905 Y127.872 E10.1352
G1 X109.898 Y127.871 E10.1357
G1 X108.853 Y127.718 E10.2067
G1 X108.845 Y127.717 E10.2072
G1 X108.827 Y127.713 E10.2084
G1 X108.820 Y127.712 E10.2089
G1 X107.789 Y127.482 E10.2799
G1 X107.782 Y127.481 E10.2804
G1 X107.764 Y127.476 E10.2816
G1 X107.757 Y127.474 E10.2821
G1 X106.745 Y127.169 E10.3531
G1 X106.738 Y127.166 E10.3536
G1 X106.721 Y127.160 E10.3548
G1 X106.714 Y127.158 E10.3553
G1 X105.728 Y126.778 E10.4263
G1 X105.721 Y126.775 E10.4268
G1 X105.704 Y126.768 E10.4280
G1 X105.697 Y126.765 E10.4285
G1 X104.743 Y126.314 E10.4995
G1 X104.736 Y126.311 E10.5000
G1 X104.720 Y126.302 E10.5012
G1 X104.713 Y126.298 E10.5017
G1 X103.794 Y125.778 E10.5727
G1 X103.788 Y125.774 E10.5732
G1 X103.772 Y125.764 E10.5744
G1 X103.766 Y125.760 E10.5749
G1 X102.883 Y125.169 E10.6463
G1 X102.877 Y125.165 E10.6468
G1 X102.862 Y125.154 E10.6481
