; G-Code generated by Simplify3D(R) Version 4.0.0
; Mar 30, 2022 at 5:30:38 PM
; Settings Summary
;   processName,Process1
;   applyToModels,Boom_Joint_20Deg_R
;   profileName,Default (modified)
;   profileVersion,2017-03-01 08:00:00
;   baseProfile,
;   printMaterial,
;   printQuality,
;   printExtruders,
;   extruderName,Primary Extruder
;   extruderToolheadNumber,0
;   extruderDiameter,0.4
;   extruderAutoWidth,0
;   extruderWidth,0.8
;   extrusionMultiplier,1.01
;   extruderUseRetract,1
;   extruderRetractionDistance,9
;   extruderExtraRestartDistance,0
;   extruderRetractionZLift,0
;   extruderRetractionSpeed,1988
;   extruderUseCoasting,0
;   extruderCoastingDistance,0.2
;   extruderUseWipe,0
;   extruderWipeDistance,5
;   primaryExtruder,0
;   layerHeight,0.2
;   topSolidLayers,4
;   bottomSolidLayers,4
;   perimeterOutlines,1
;   printPerimetersInsideOut,1
;   startPointOption,2
;   startPointOriginX,0
;   startPointOriginY,0
;   sequentialIslands,0
;   spiralVaseMode,0
;   firstLayerHeightPercentage,90
;   firstLayerWidthPercentage,100
;   firstLayerUnderspeed,0.5
;   useRaft,0
;   raftExtruder,0
;   raftTopLayers,3
;   raftBaseLayers,2
;   raftOffset,3
;   raftSeparationDistance,0.14
;   raftTopInfill,100
;   aboveRaftSpeedMultiplier,0.3
;   useSkirt,1
;   skirtExtruder,0
;   skirtLayers,1
;   skirtOutlines,1
;   skirtOffset,0.3
;   usePrimePillar,0
;   primePillarExtruder,999
;   primePillarWidth,12
;   primePillarLocation,7
;   primePillarSpeedMultiplier,1
;   useOozeShield,0
;   oozeShieldExtruder,999
;   oozeShieldOffset,2
;   oozeShieldOutlines,1
;   oozeShieldSidewallShape,1
;   oozeShieldSidewallAngle,30
;   oozeShieldSpeedMultiplier,1
;   infillExtruder,0
;   internalInfillPattern,Rectilinear
;   externalInfillPattern,Rectilinear
;   infillPercentage,35
;   outlineOverlapPercentage,30
;   infillExtrusionWidthPercentage,100
;   minInfillLength,5
;   infillLayerInterval,1
;   internalInfillAngles,45,-45
;   overlapInternalInfillAngles,0
;   externalInfillAngles,45,-45
;   generateSupport,1
;   supportExtruder,0
;   supportInfillPercentage,30
;   supportExtraInflation,0
;   supportBaseLayers,0
;   denseSupportExtruder,0
;   denseSupportLayers,0
;   denseSupportInfillPercentage,70
;   supportLayerInterval,1
;   supportHorizontalPartOffset,0.3
;   supportUpperSeparationLayers,1
;   supportLowerSeparationLayers,1
;   supportType,0
;   supportGridSpacing,4
;   maxOverhangAngle,45
;   supportAngles,0
;   temperatureName,Primary Extruder,Bed
;   temperatureNumber,0,0
;   temperatureSetpointCount,1,1
;   temperatureSetpointLayers,1,1
;   temperatureSetpointTemperatures,205,60
;   temperatureStabilizeAtStartup,1,1
;   temperatureHeatedBed,0,1
;   temperatureRelayBetweenLayers,0,0
;   temperatureRelayBetweenLoops,0,0
;   fanLayers,1,2
;   fanSpeeds,0,100
;   blipFanToFullPower,0
;   adjustSpeedForCooling,1
;   minSpeedLayerTime,15
;   minCoolingSpeedSlowdown,20
;   increaseFanForCooling,0
;   minFanLayerTime,45
;   maxCoolingFanSpeed,100
;   increaseFanForBridging,0
;   bridgingFanSpeed,100
;   use5D,1
;   relativeEdistances,0
;   allowEaxisZeroing,1
;   independentExtruderAxes,0
;   includeM10123,0
;   stickySupport,1
;   applyToolheadOffsets,0
;   gcodeXoffset,0
;   gcodeYoffset,0
;   gcodeZoffset,0
;   overrideMachineDefinition,1
;   machineTypeOverride,0
;   strokeXoverride,220
;   strokeYoverride,220
;   strokeZoverride,220
;   originOffsetXoverride,0
;   originOffsetYoverride,0
;   originOffsetZoverride,0
;   homeXdirOverride,-1
;   homeYdirOverride,-1
;   homeZdirOverride,-1
;   flipXoverride,1
;   flipYoverride,-1
;   flipZoverride,1
;   toolheadOffsets,0,0|0,0|0,0|0,0|0,0|0,0
;   overrideFirmwareConfiguration,0
;   firmwareTypeOverride,RepRap (Marlin/Repetier/Sprinter)
;   GPXconfigOverride,r2
;   baudRateOverride,115200
;   overridePrinterModels,0
;   printerModelsOverride
;   startingGcode,G28 ; home all axes
;   layerChangeGcode,
;   retractionGcode,
;   toolChangeGcode,
;   endingGcode,M104 S0 ; turn off extruder,M140 S0 ; turn off bed,M84 ; disable motors,G28 ; home all axes
;   exportFileFormat,gcode
;   celebration,0
;   celebrationSong,Random Song
;   postProcessing,
;   defaultSpeed,1900
;   outlineUnderspeed,0.95
;   solidInfillUnderspeed,0.8
;   supportUnderspeed,0.8
;   rapidXYspeed,4800
;   rapidZspeed,1002
;   minBridgingArea,50
;   bridgingExtraInflation,0
;   bridgingExtrusionMultiplier,1
;   bridgingSpeedMultiplier,1
;   useFixedBridgingAngle,0
;   fixedBridgingAngle,0
;   applyBridgingToPerimeters,0
;   filamentDiameters,1.75|1.75|1.75|1.75|1.75|1.75
;   filamentPricesPerKg,46|46|46|46|46|46
;   filamentDensities,1.25|1.25|1.25|1.25|1.25|1.25
;   useMinPrintHeight,0
;   minPrintHeight,0
;   useMaxPrintHeight,0
;   maxPrintHeight,0
;   useDiaphragm,0
;   diaphragmLayerInterval,20
;   robustSlicing,1
;   mergeAllIntoSolid,0
;   onlyRetractWhenCrossingOutline,1
;   retractBetweenLayers,1
;   useRetractionMinTravel,0
;   retractionMinTravel,3
;   retractWhileWiping,0
;   onlyWipeOutlines,1
;   avoidCrossingOutline,0
;   maxMovementDetourFactor,3
;   toolChangeRetractionDistance,12
;   toolChangeExtraRestartDistance,-0.5
;   toolChangeRetractionSpeed,600
;   externalThinWallType,0
;   internalThinWallType,2
;   thinWallAllowedOverlapPercentage,10
;   singleExtrusionMinLength,1
;   singleExtrusionMinPrintingWidthPercentage,50
;   singleExtrusionMaxPrintingWidthPercentage,200
;   singleExtrusionEndpointExtension,0.2
;   horizontalSizeCompensation,0
G90
M82
M106 S0
M140 S60
M190 S60
M104 S205 T0
M109 S205 T0
G28 ; home all axes
G92 E0
G1 E-9.0000 F1988
G1 Z0.180 F1002
; process Process1
; layer 1, Z = 0.180
T0
; tool H0.200 W0.800
; skirt
G1 X102.900 Y89.331 F4800
G1 E0.0000 F596
G92 E0
G1 X102.980 Y89.256 E0.0074 F950
G1 X103.831 Y88.818 E0.0717
G1 X103.836 Y88.816 E0.0720
G1 X103.846 Y88.811 E0.0728
G1 X103.851 Y88.809 E0.0731
G1 X104.898 Y88.331 E0.1505
G1 X104.904 Y88.329 E0.1509
G1 X104.918 Y88.323 E0.1519
G1 X104.923 Y88.321 E0.1523
G1 X105.900 Y87.945 E0.2226
G1 X105.906 Y87.943 E0.2230
G1 X105.921 Y87.938 E0.2241
G1 X105.928 Y87.936 E0.2246
G1 X106.850 Y87.649 E0.2895
G1 X106.857 Y87.647 E0.2899
G1 X106.874 Y87.643 E0.2911
G1 X106.881 Y87.641 E0.2916
G1 X107.765 Y87.433 E0.3526
G1 X107.772 Y87.432 E0.3531
G1 X107.790 Y87.428 E0.3544
G1 X107.798 Y87.427 E0.3549
G1 X108.658 Y87.291 E0.4134
G1 X108.668 Y87.290 E0.4141
G1 X108.692 Y87.287 E0.4157
G1 X108.702 Y87.286 E0.4164
G1 X109.971 Y87.210 E0.5018
G1 X109.981 Y87.210 E0.5024
G1 X110.005 Y87.210 E0.5041
G1 X110.015 Y87.210 E0.5047
G1 X110.856 Y87.243 E0.5613
G1 X110.864 Y87.244 E0.5618
G1 X110.884 Y87.245 E0.5631
G1 X110.891 Y87.246 E0.5637
G1 X111.740 Y87.346 E0.6211
G1 X111.747 Y87.347 E0.6216
G1 X111.766 Y87.350 E0.6228
G1 X111.774 Y87.351 E0.6234
G1 X112.645 Y87.521 E0.6830
G1 X112.653 Y87.523 E0.6836
G1 X112.676 Y87.528 E0.6851
G1 X112.684 Y87.531 E0.6857
G1 X114.063 Y87.933 E0.7822
G1 X114.071 Y87.935 E0.7828
G1 X114.091 Y87.942 E0.7842
G1 X114.099 Y87.945 E0.7848
G1 X115.078 Y88.321 E0.8552
G1 X115.083 Y88.323 E0.8556
G1 X115.097 Y88.329 E0.8566
G1 X115.103 Y88.332 E0.8571
G1 X116.149 Y88.808 E0.9343
G1 X116.153 Y88.810 E0.9346
G1 X116.164 Y88.816 E0.9354
G1 X116.168 Y88.818 E0.9357
G1 X117.020 Y89.256 E1.0001
G1 X117.100 Y89.331 E1.0075
G1 X117.246 Y89.569 E1.0262
G1 X117.276 Y89.675 E1.0336
G1 X117.276 Y130.326 E3.7648
G1 X117.245 Y130.434 E3.7723
G1 X117.097 Y130.673 E3.7912
G1 X117.014 Y130.749 E3.7987
G1 X115.703 Y131.403 E3.8972
G1 X115.698 Y131.406 E3.8976
G1 X115.684 Y131.412 E3.8986
G1 X115.678 Y131.415 E3.8990
G1 X114.652 Y131.851 E3.9739
G1 X114.645 Y131.854 E3.9744
G1 X114.626 Y131.861 E3.9758
G1 X114.619 Y131.863 E3.9763
G1 X113.201 Y132.337 E4.0768
G1 X113.192 Y132.339 E4.0774
G1 X113.171 Y132.345 E4.0788
G1 X113.162 Y132.347 E4.0794
G1 X112.264 Y132.561 E4.1415
G1 X112.256 Y132.563 E4.1420
G1 X112.238 Y132.566 E4.1433
G1 X112.231 Y132.568 E4.1438
G1 X111.358 Y132.707 E4.2031
G1 X111.348 Y132.708 E4.2038
G1 X111.324 Y132.711 E4.2054
G1 X111.314 Y132.712 E4.2061
G1 X110.027 Y132.790 E4.2927
G1 X110.015 Y132.790 E4.2935
G1 X109.985 Y132.790 E4.2956
G1 X109.973 Y132.790 E4.2964
G1 X108.685 Y132.712 E4.3830
G1 X108.676 Y132.711 E4.3837
G1 X108.651 Y132.708 E4.3853
G1 X108.642 Y132.707 E4.3860
G1 X107.767 Y132.567 E4.4455
G1 X107.758 Y132.566 E4.4461
G1 X107.735 Y132.561 E4.4477
G1 X107.726 Y132.559 E4.4483
G1 X106.387 Y132.215 E4.5412
G1 X106.379 Y132.213 E4.5418
G1 X106.358 Y132.207 E4.5432
G1 X106.350 Y132.204 E4.5438
G1 X105.388 Y131.867 E4.6123
G1 X105.382 Y131.865 E4.6127
G1 X105.367 Y131.859 E4.6138
G1 X105.361 Y131.856 E4.6142
G1 X104.337 Y131.422 E4.6889
G1 X104.331 Y131.420 E4.6894
G1 X104.317 Y131.413 E4.6904
G1 X104.312 Y131.411 E4.6908
G1 X102.986 Y130.749 E4.7904
G1 X102.903 Y130.674 E4.7979
G1 X102.755 Y130.434 E4.8168
G1 X102.724 Y130.327 E4.8243
G1 X102.724 Y89.675 E7.5555
G1 X102.754 Y89.569 E7.5629
G1 X102.900 Y89.331 E7.5817
G92 E0
G1 E-9.0000 F1988
; outer perimeter
G1 X103.824 Y90.054 F4800
G1 E0.0000 F1988
G92 E0
G1 X104.320 Y89.804 E0.0373 F902
G1 X105.336 Y89.340 E0.1124
G1 X106.274 Y88.980 E0.1799
G1 X107.154 Y88.706 E0.2418
G1 X107.993 Y88.510 E0.2996
G1 X108.803 Y88.382 E0.3547
G1 X109.601 Y88.318 E0.4085
G1 X109.996 Y88.310 E0.4351
G1 X110.788 Y88.341 E0.4883
G1 X111.587 Y88.435 E0.5424
G1 X112.412 Y88.596 E0.5988
G1 X112.841 Y88.705 E0.6286
G1 X113.726 Y88.980 E0.6909
G1 X114.665 Y89.341 E0.7584
G1 X115.678 Y89.803 E0.8333
G1 X116.176 Y90.058 E0.8708
G1 X116.176 Y129.942 E3.5504
G1 X115.747 Y130.164 E3.5828
G1 X115.233 Y130.409 E3.6211
G1 X114.243 Y130.829 E3.6934
G1 X113.321 Y131.154 E3.7590
G1 X112.887 Y131.282 E3.7895
G1 X112.033 Y131.485 E3.8484
G1 X111.212 Y131.616 E3.9042
G1 X110.405 Y131.681 E3.9587
G1 X110.004 Y131.690 E3.9856
G1 X109.198 Y131.658 E4.0398
G1 X108.791 Y131.617 E4.0673
G1 X107.963 Y131.485 E4.1236
G1 X107.563 Y131.398 E4.1511
G1 X106.691 Y131.158 E4.2119
G1 X105.772 Y130.836 E4.2773
G1 X104.782 Y130.416 E4.3496
G1 X104.253 Y130.164 E4.3889
G1 X103.824 Y129.942 E4.4213
G1 X103.824 Y90.054 E7.1012
; solid layer
G1 X114.998 Y90.108 F4800
G92 E0
G1 X115.616 Y90.725 E0.0586 F760
G1 X115.616 Y91.857 E0.1347
G1 X113.144 Y89.386 E0.3694
G1 X112.690 Y89.245 E0.4014
G1 X112.289 Y89.143 E0.4292
G1 X111.644 Y89.017 E0.4733
G1 X115.616 Y92.988 E0.8506
G1 X115.616 Y94.119 E0.9266
G1 X110.382 Y88.886 E1.4239
G1 X109.991 Y88.870 E1.4502
G1 X109.629 Y88.878 E1.4745
G1 X109.271 Y88.906 E1.4987
G1 X115.616 Y95.251 E2.1015
G1 X115.616 Y96.382 E2.1775
G1 X108.267 Y89.033 E2.8757
G1 X108.101 Y89.059 E2.8870
G1 X107.340 Y89.238 E2.9395
G1 X115.616 Y97.514 E3.7258
G1 X115.616 Y98.645 E3.8018
G1 X106.475 Y89.504 E4.6703
G1 X106.458 Y89.509 E4.6715
G1 X105.656 Y89.817 E4.7292
G1 X115.616 Y99.776 E5.6755
G1 X115.616 Y100.908 E5.7515
G1 X104.874 Y90.166 E6.7721
G1 X104.563 Y90.308 E6.7951
G1 X104.384 Y90.398 E6.8085
G1 X104.384 Y90.808 E6.8360
G1 X115.616 Y102.039 E7.9031
G1 X115.616 Y103.170 E7.9791
G1 X104.384 Y91.939 E9.0462
G1 X104.384 Y93.071 E9.1222
G1 X115.616 Y104.302 E10.1894
G1 X115.616 Y105.433 E10.2654
G1 X104.384 Y94.202 E11.3325
G1 X104.384 Y95.333 E11.4085
G1 X115.616 Y106.565 E12.4756
G1 X115.616 Y107.696 E12.5516
G1 X104.384 Y96.465 E13.6187
G1 X104.384 Y97.596 E13.6947
G1 X115.616 Y108.827 E14.7619
G1 X115.616 Y109.959 E14.8379
G1 X104.384 Y98.728 E15.9050
G1 X104.384 Y99.859 E15.9810
G1 X115.616 Y111.090 E17.0481
G1 X115.616 Y112.221 E17.1241
G1 X104.384 Y100.990 E18.1912
G1 X104.384 Y102.122 E18.2672
G1 X115.616 Y113.353 E19.3343
G1 X115.616 Y114.484 E19.4104
G1 X104.384 Y103.253 E20.4775
G1 X104.384 Y104.384 E20.5535
G1 X115.616 Y115.615 E21.6206
G1 X115.616 Y116.747 E21.6966
G1 X104.384 Y105.516 E22.7637
G1 X104.384 Y106.647 E22.8397
G1 X115.616 Y117.878 E23.9068
G1 X115.616 Y119.010 E23.9829
G1 X104.384 Y107.779 E25.0500
G1 X104.384 Y108.910 E25.1260
G1 X115.616 Y120.141 E26.1931
G1 X115.616 Y121.272 E26.2691
G1 X104.384 Y110.041 E27.3362
G1 X104.384 Y111.173 E27.4122
G1 X115.616 Y122.404 E28.4793
G1 X115.616 Y123.535 E28.5553
G1 X104.384 Y112.304 E29.6225
G1 X104.384 Y113.435 E29.6985
G1 X115.616 Y124.666 E30.7656
G1 X115.616 Y125.798 E30.8416
G1 X104.384 Y114.567 E31.9087
G1 X104.384 Y115.698 E31.9847
G1 X115.616 Y126.929 E33.0518
G1 X115.616 Y128.061 E33.1278
G1 X104.384 Y116.830 E34.1950
G1 X104.384 Y117.961 E34.2710
G1 X115.616 Y129.192 E35.3381
G1 X115.616 Y129.601 E35.3656
G1 X115.497 Y129.662 E35.3745
G1 X115.130 Y129.838 E35.4019
G1 X104.384 Y119.092 E36.4228
G1 X104.384 Y120.224 E36.4988
G1 X114.340 Y130.180 E37.4448
G1 X114.040 Y130.307 E37.4667
G1 X113.520 Y130.490 E37.5038
G1 X104.384 Y121.355 E38.3718
G1 X104.384 Y122.486 E38.4478
G1 X112.659 Y130.761 E39.2340
G1 X111.924 Y130.936 E39.2847
G1 X111.733 Y130.966 E39.2977
G1 X104.384 Y123.618 E39.9959
G1 X104.384 Y124.749 E40.0719
G1 X110.729 Y131.094 E40.6747
G1 X110.376 Y131.122 E40.6985
G1 X110.009 Y131.130 E40.7232
G1 X109.618 Y131.114 E40.7495
G1 X104.384 Y125.881 E41.2467
G1 X104.384 Y127.012 E41.3228
G1 X108.352 Y130.980 E41.6998
G1 X108.067 Y130.934 E41.7192
G1 X107.697 Y130.854 E41.7446
G1 X106.867 Y130.625 E41.8025
G1 X104.384 Y128.143 E42.0383
G1 X104.384 Y129.275 E42.1143
G1 X105.018 Y129.908 E42.1745
G92 E0
G1 E-9.0000 F1988
; layer 2, Z = 0.380
M106 S255
; outer perimeter
G1 X104.880 Y130.630 F4800
G1 Z0.380 F1002
G1 E0.0000 F1988
G92 E0
G1 X104.347 Y130.375 E0.0397 F1805
G1 X103.665 Y130.017 E0.0915
G1 X103.665 Y89.980 E2.7814
G1 X103.920 Y89.842 E2.8008
G1 X104.961 Y89.333 E2.8786
G1 X105.406 Y89.139 E2.9113
G1 X106.329 Y88.783 E2.9777
G1 X107.195 Y88.513 E3.0387
G1 X107.634 Y88.401 E3.0692
G1 X108.443 Y88.243 E3.1245
G1 X109.227 Y88.151 E3.1776
G1 X110.000 Y88.120 E3.2295
G1 X110.773 Y88.151 E3.2815
G1 X111.557 Y88.243 E3.3345
G1 X112.363 Y88.400 E3.3897
G1 X113.203 Y88.628 E3.4482
G1 X114.090 Y88.936 E3.5113
G1 X115.044 Y89.336 E3.5808
G1 X115.583 Y89.591 E3.6209
G1 X116.335 Y89.983 E3.6778
G1 X116.335 Y130.016 E6.3675
G1 X115.653 Y130.375 E6.4192
G1 X115.120 Y130.630 E6.4589
G1 X114.148 Y131.042 E6.5298
G1 X113.246 Y131.358 E6.5940
G1 X112.390 Y131.593 E6.6537
G1 X112.012 Y131.676 E6.6797
G1 X111.580 Y131.754 E6.7092
G1 X110.783 Y131.849 E6.7631
G1 X110.000 Y131.880 E6.8158
G1 X109.217 Y131.849 E6.8684
G1 X108.420 Y131.754 E6.9224
G1 X107.987 Y131.676 E6.9519
G1 X107.610 Y131.593 E6.9779
G1 X106.754 Y131.358 E7.0375
G1 X105.852 Y131.042 E7.1017
G1 X104.880 Y130.630 E7.1726
; solid layer
G1 X115.775 Y129.115 F4800
G92 E0
G1 X114.684 Y130.207 E0.1037 F1520
G1 X113.946 Y130.519 E0.1575
G1 X113.079 Y130.823 E0.2192
G1 X112.881 Y130.878 E0.2330
G1 X115.775 Y127.984 E0.5080
G1 X115.775 Y126.853 E0.5840
G1 X111.419 Y131.209 E0.9979
G1 X110.739 Y131.290 E1.0439
G1 X110.184 Y131.312 E1.0812
G1 X115.775 Y125.721 E1.6124
G1 X115.775 Y124.590 E1.6884
G1 X109.095 Y131.270 E2.3231
G1 X108.503 Y131.200 E2.3632
G1 X108.106 Y131.128 E2.3903
G1 X115.775 Y123.458 E3.1190
G1 X115.775 Y122.327 E3.1950
G1 X107.202 Y130.900 E4.0096
G1 X106.921 Y130.823 E4.0292
G1 X106.348 Y130.622 E4.0700
G1 X115.775 Y121.196 E4.9656
G1 X115.775 Y120.064 E5.0416
G1 X105.538 Y130.301 E6.0143
G1 X105.110 Y130.119 E6.0455
G1 X104.757 Y129.950 E6.0718
G1 X115.775 Y118.933 E7.1186
G1 X115.775 Y117.802 E7.1946
G1 X104.225 Y129.351 E8.2920
G1 X104.225 Y128.220 E8.3680
G1 X115.775 Y116.670 E9.4655
G1 X115.775 Y115.539 E9.5415
G1 X104.225 Y127.089 E10.6389
G1 X104.225 Y125.957 E10.7149
G1 X115.775 Y114.407 E11.8123
G1 X115.775 Y113.276 E11.8883
