; G-Code generated by Simplify3D(R) Version 4.0.0
; Mar 30, 2022 at 5:32:26 PM
; Settings Summary
;   processName,Process1
;   applyToModels,Boom_Outer_Joint_1
;   profileName,Default (modified)
;   profileVersion,2017-03-01 08:00:00
;   baseProfile,
;   printMaterial,
;   printQuality,
;   printExtruders,
;   extruderName,Primary Extruder
;   extruderToolheadNumber,0
;   extruderDiameter,0.4
;   extruderAutoWidth,0
;   extruderWidth,0.8
;   extrusionMultiplier,1.01
;   extruderUseRetract,1
;   extruderRetractionDistance,9
;   extruderExtraRestartDistance,0
;   extruderRetractionZLift,0
;   extruderRetractionSpeed,1988
;   extruderUseCoasting,0
;   extruderCoastingDistance,0.2
;   extruderUseWipe,0
;   extruderWipeDistance,5
;   primaryExtruder,0
;   layerHeight,0.2
;   topSolidLayers,4
;   bottomSolidLayers,4
;   perimeterOutlines,1
;   printPerimetersInsideOut,1
;   startPointOption,2
;   startPointOriginX,0
;   startPointOriginY,0
;   sequentialIslands,0
;   spiralVaseMode,0
;   firstLayerHeightPercentage,90
;   firstLayerWidthPercentage,100
;   firstLayerUnderspeed,0.5
;   useRaft,0
;   raftExtruder,0
;   raftTopLayers,3
;   raftBaseLayers,2
;   raftOffset,3
;   raftSeparationDistance,0.14
;   raftTopInfill,100
;   aboveRaftSpeedMultiplier,0.3
;   useSkirt,1
;   skirtExtruder,0
;   skirtLayers,1
;   skirtOutlines,1
;   skirtOffset,0.3
;   usePrimePillar,0
;   primePillarExtruder,999
;   primePillarWidth,12
;   primePillarLocation,7
;   primePillarSpeedMultiplier,1
;   useOozeShield,0
;   oozeShieldExtruder,999
;   oozeShieldOffset,2
;   oozeShieldOutlines,1
;   oozeShieldSidewallShape,1
;   oozeShieldSidewallAngle,30
;   oozeShieldSpeedMultiplier,1
;   infillExtruder,0
;   internalInfillPattern,Rectilinear
;   externalInfillPattern,Rectilinear
;   infillPercentage,35
;   outlineOverlapPercentage,30
;   infillExtrusionWidthPercentage,100
;   minInfillLength,5
;   infillLayerInterval,1
;   internalInfillAngles,45,-45
;   overlapInternalInfillAngles,0
;   externalInfillAngles,45,-45
;   generateSupport,1
;   supportExtruder,0
;   supportInfillPercentage,30
;   supportExtraInflation,0
;   supportBaseLayers,0
;   denseSupportExtruder,0
;   denseSupportLayers,0
;   denseSupportInfillPercentage,70
;   supportLayerInterval,1
;   supportHorizontalPartOffset,0.3
;   supportUpperSeparationLayers,1
;   supportLowerSeparationLayers,1
;   supportType,0
;   supportGridSpacing,4
;   maxOverhangAngle,45
;   supportAngles,0
;   temperatureName,Primary Extruder,Bed
;   temperatureNumber,0,0
;   temperatureSetpointCount,1,1
;   temperatureSetpointLayers,1,1
;   temperatureSetpointTemperatures,205,60
;   temperatureStabilizeAtStartup,1,1
;   temperatureHeatedBed,0,1
;   temperatureRelayBetweenLayers,0,0
;   temperatureRelayBetweenLoops,0,0
;   fanLayers,1,2
;   fanSpeeds,0,100
;   blipFanToFullPower,0
;   adjustSpeedForCooling,1
;   minSpeedLayerTime,15
;   minCoolingSpeedSlowdown,20
;   increaseFanForCooling,0
;   minFanLayerTime,45
;   maxCoolingFanSpeed,100
;   increaseFanForBridging,0
;   bridgingFanSpeed,100
;   use5D,1
;   relativeEdistances,0
;   allowEaxisZeroing,1
;   independentExtruderAxes,0
;   includeM10123,0
;   stickySupport,1
;   applyToolheadOffsets,0
;   gcodeXoffset,0
;   gcodeYoffset,0
;   gcodeZoffset,0
;   overrideMachineDefinition,1
;   machineTypeOverride,0
;   strokeXoverride,220
;   strokeYoverride,220
;   strokeZoverride,220
;   originOffsetXoverride,0
;   originOffsetYoverride,0
;   originOffsetZoverride,0
;   homeXdirOverride,-1
;   homeYdirOverride,-1
;   homeZdirOverride,-1
;   flipXoverride,1
;   flipYoverride,-1
;   flipZoverride,1
;   toolheadOffsets,0,0|0,0|0,0|0,0|0,0|0,0
;   overrideFirmwareConfiguration,0
;   firmwareTypeOverride,RepRap (Marlin/Repetier/Sprinter)
;   GPXconfigOverride,r2
;   baudRateOverride,115200
;   overridePrinterModels,0
;   printerModelsOverride
;   startingGcode,G28 ; home all axes
;   layerChangeGcode,
;   retractionGcode,
;   toolChangeGcode,
;   endingGcode,M104 S0 ; turn off extruder,M140 S0 ; turn off bed,M84 ; disable motors,G28 ; home all axes
;   exportFileFormat,gcode
;   celebration,0
;   celebrationSong,Random Song
;   postProcessing,
;   defaultSpeed,1900
;   outlineUnderspeed,0.95
;   solidInfillUnderspeed,0.8
;   supportUnderspeed,0.8
;   rapidXYspeed,4800
;   rapidZspeed,1002
;   minBridgingArea,50
;   bridgingExtraInflation,0
;   bridgingExtrusionMultiplier,1
;   bridgingSpeedMultiplier,1
;   useFixedBridgingAngle,0
;   fixedBridgingAngle,0
;   applyBridgingToPerimeters,0
;   filamentDiameters,1.75|1.75|1.75|1.75|1.75|1.75
;   filamentPricesPerKg,46|46|46|46|46|46
;   filamentDensities,1.25|1.25|1.25|1.25|1.25|1.25
;   useMinPrintHeight,0
;   minPrintHeight,0
;   useMaxPrintHeight,0
;   maxPrintHeight,0
;   useDiaphragm,0
;   diaphragmLayerInterval,20
;   robustSlicing,1
;   mergeAllIntoSolid,0
;   onlyRetractWhenCrossingOutline,1
;   retractBetweenLayers,1
;   useRetractionMinTravel,0
;   retractionMinTravel,3
;   retractWhileWiping,0
;   onlyWipeOutlines,1
;   avoidCrossingOutline,0
;   maxMovementDetourFactor,3
;   toolChangeRetractionDistance,12
;   toolChangeExtraRestartDistance,-0.5
;   toolChangeRetractionSpeed,600
;   externalThinWallType,0
;   internalThinWallType,2
;   thinWallAllowedOverlapPercentage,10
;   singleExtrusionMinLength,1
;   singleExtrusionMinPrintingWidthPercentage,50
;   singleExtrusionMaxPrintingWidthPercentage,200
;   singleExtrusionEndpointExtension,0.2
;   horizontalSizeCompensation,0
G90
M82
M106 S0
M140 S60
M190 S60
M104 S205 T0
M109 S205 T0
G28 ; home all axes
G92 E0
G1 E-9.0000 F1988
G1 Z0.180 F1002
; process Process1
; layer 1, Z = 0.180
T0
; tool H0.200 W0.800
; skirt
G1 X75.339 Y91.374 F4800
G1 E0.0000 F596
G92 E0
G1 X75.355 Y91.362 E0.0013 F950
G1 X75.395 Y91.334 E0.0046
G1 X75.411 Y91.323 E0.0059
G1 X75.913 Y91.033 E0.0449
G1 X75.936 Y91.022 E0.0466
G1 X75.997 Y90.997 E0.0510
G1 X76.022 Y90.988 E0.0528
G1 X76.589 Y90.836 E0.0923
G1 X76.615 Y90.831 E0.0940
G1 X76.680 Y90.822 E0.0984
G1 X76.706 Y90.821 E0.1002
G1 X143.008 Y90.804 E4.5547
G1 X143.015 Y90.804 E4.5551
G1 X143.031 Y90.804 E4.5563
G1 X143.038 Y90.805 E4.5567
G1 X143.323 Y90.823 E4.5759
G1 X143.336 Y90.825 E4.5768
G1 X143.369 Y90.829 E4.5790
G1 X143.382 Y90.831 E4.5799
G1 X143.678 Y90.890 E4.6002
G1 X143.697 Y90.895 E4.6015
G1 X143.744 Y90.909 E4.6048
G1 X143.763 Y90.916 E4.6061
G1 X144.298 Y91.137 E4.6451
G1 X144.322 Y91.149 E4.6468
G1 X144.378 Y91.182 E4.6512
G1 X144.400 Y91.196 E4.6530
G1 X144.866 Y91.554 E4.6925
G1 X144.886 Y91.571 E4.6942
G1 X144.932 Y91.618 E4.6986
G1 X144.950 Y91.637 E4.7004
G1 X145.307 Y92.103 E4.7399
G1 X145.322 Y92.125 E4.7416
G1 X145.355 Y92.182 E4.7460
G1 X145.366 Y92.206 E4.7478
G1 X145.588 Y92.741 E4.7867
G1 X145.595 Y92.759 E4.7880
G1 X145.609 Y92.806 E4.7913
G1 X145.614 Y92.825 E4.7927
G1 X145.674 Y93.130 E4.8135
G1 X145.677 Y93.149 E4.8148
G1 X145.682 Y93.197 E4.8181
G1 X145.683 Y93.217 E4.8194
G1 X145.700 Y102.057 E5.4133
G1 X145.640 Y102.204 E5.4240
G1 X145.351 Y102.493 E5.4515
G1 X145.204 Y102.554 E5.4622
G1 X136.920 Y102.554 E6.0187
G1 X136.920 Y103.080 E6.0541
G1 X144.424 Y103.080 E6.5582
G1 X144.571 Y103.141 E6.5689
G1 X144.859 Y103.429 E6.5963
G1 X144.920 Y103.576 E6.6070
G1 X144.920 Y116.424 E7.4702
G1 X144.859 Y116.571 E7.4808
G1 X144.571 Y116.859 E7.5082
G1 X144.424 Y116.920 E7.5189
G1 X136.920 Y116.920 E8.0231
G1 X136.920 Y117.446 E8.0584
G1 X145.204 Y117.446 E8.6150
G1 X145.351 Y117.507 E8.6257
G1 X145.640 Y117.796 E8.6531
G1 X145.700 Y117.943 E8.6638
G1 X145.683 Y126.783 E9.2577
G1 X145.682 Y126.803 E9.2590
G1 X145.677 Y126.851 E9.2623
G1 X145.674 Y126.870 E9.2636
G1 X145.614 Y127.175 E9.2845
G1 X145.609 Y127.194 E9.2858
G1 X145.595 Y127.241 E9.2891
G1 X145.588 Y127.259 E9.2904
G1 X145.366 Y127.794 E9.3293
G1 X145.355 Y127.818 E9.3311
G1 X145.322 Y127.875 E9.3355
G1 X145.307 Y127.896 E9.3373
G1 X144.950 Y128.363 E9.3767
G1 X144.932 Y128.382 E9.3785
G1 X144.886 Y128.429 E9.3829
G1 X144.866 Y128.446 E9.3847
G1 X144.407 Y128.799 E9.4236
G1 X144.391 Y128.810 E9.4249
G1 X144.349 Y128.836 E9.4282
G1 X144.332 Y128.845 E9.4295
G1 X144.053 Y128.983 E9.4504
G1 X144.035 Y128.991 E9.4517
G1 X143.989 Y129.008 E9.4550
G1 X143.970 Y129.014 E9.4563
G1 X143.418 Y129.162 E9.4947
G1 X143.399 Y129.166 E9.4960
G1 X143.351 Y129.174 E9.4993
G1 X143.331 Y129.176 E9.5007
G1 X143.038 Y129.195 E9.5204
G1 X143.031 Y129.196 E9.5209
G1 X143.015 Y129.196 E9.5220
G1 X143.008 Y129.196 E9.5224
G1 X76.992 Y129.196 E13.9577
G1 X76.985 Y129.196 E13.9582
G1 X76.969 Y129.196 E13.9593
G1 X76.962 Y129.195 E13.9597
G1 X76.669 Y129.176 E13.9795
G1 X76.649 Y129.174 E13.9808
G1 X76.601 Y129.166 E13.9841
G1 X76.581 Y129.162 E13.9854
G1 X76.022 Y129.012 E14.0244
G1 X75.997 Y129.003 E14.0261
G1 X75.937 Y128.978 E14.0305
G1 X75.913 Y128.967 E14.0323
G1 X75.411 Y128.677 E14.0712
G1 X75.395 Y128.666 E14.0725
G1 X75.355 Y128.638 E14.0758
G1 X75.339 Y128.626 E14.0772
G1 X75.106 Y128.421 E14.0980
G1 X75.092 Y128.407 E14.0994
G1 X75.058 Y128.371 E14.1027
G1 X75.045 Y128.356 E14.1040
G1 X74.693 Y127.897 E14.1429
G1 X74.678 Y127.875 E14.1447
G1 X74.645 Y127.818 E14.1491
G1 X74.634 Y127.794 E14.1508
G1 X74.412 Y127.259 E14.1898
G1 X74.405 Y127.241 E14.1911
G1 X74.391 Y127.194 E14.1944
G1 X74.386 Y127.175 E14.1957
G1 X74.326 Y126.870 E14.2166
G1 X74.323 Y126.851 E14.2179
G1 X74.318 Y126.802 E14.2211
G1 X74.317 Y126.783 E14.2224
G1 X74.300 Y117.943 E14.8164
G1 X74.360 Y117.796 E14.8271
G1 X74.649 Y117.507 E14.8545
G1 X74.796 Y117.446 E14.8652
G1 X83.080 Y117.446 E15.4218
G1 X83.080 Y116.920 E15.4571
G1 X75.576 Y116.920 E15.9612
G1 X75.429 Y116.859 E15.9719
G1 X75.141 Y116.571 E15.9993
G1 X75.080 Y116.424 E16.0100
G1 X75.080 Y103.576 E16.8732
G1 X75.141 Y103.429 E16.8839
G1 X75.429 Y103.141 E16.9113
G1 X75.576 Y103.080 E16.9220
G1 X83.080 Y103.080 E17.4261
G1 X83.080 Y102.554 E17.4614
G1 X74.796 Y102.554 E18.0180
G1 X74.649 Y102.493 E18.0287
G1 X74.360 Y102.204 E18.0561
G1 X74.300 Y102.057 E18.0668
G1 X74.317 Y93.209 E18.6613
G1 X74.319 Y93.183 E18.6631
G1 X74.327 Y93.118 E18.6674
G1 X74.333 Y93.093 E18.6692
G1 X74.482 Y92.533 E18.7081
G1 X74.488 Y92.515 E18.7094
G1 X74.506 Y92.469 E18.7127
G1 X74.514 Y92.451 E18.7140
G1 X74.651 Y92.172 E18.7349
G1 X74.661 Y92.155 E18.7362
G1 X74.686 Y92.113 E18.7395
G1 X74.698 Y92.097 E18.7408
G1 X75.045 Y91.644 E18.7792
G1 X75.058 Y91.629 E18.7805
G1 X75.092 Y91.593 E18.7838
G1 X75.106 Y91.579 E18.7852
G1 X75.339 Y91.374 E18.8060
G92 E0
G1 E-9.0000 F1988
; outer perimeter
G1 X76.027 Y92.235 F4800
G1 E0.0000 F1988
G92 E0
G1 X76.200 Y92.119 E0.0140 F902
G1 X76.388 Y92.026 E0.0281
G1 X76.586 Y91.959 E0.0422
G1 X76.791 Y91.918 E0.0562
G1 X77.013 Y91.904 E0.0711
G1 X142.987 Y91.904 E4.5036
G1 X143.209 Y91.918 E4.5186
G1 X143.414 Y91.959 E4.5326
G1 X143.612 Y92.026 E4.5467
G1 X143.800 Y92.119 E4.5607
G1 X143.973 Y92.235 E4.5748
G1 X144.131 Y92.373 E4.5888
G1 X144.269 Y92.530 E4.6029
G1 X144.385 Y92.704 E4.6169
G1 X144.477 Y92.892 E4.6310
G1 X144.545 Y93.090 E4.6450
G1 X144.585 Y93.295 E4.6591
G1 X144.600 Y93.517 E4.6740
G1 X144.600 Y101.454 E5.2073
G1 X136.200 Y101.454 E5.7717
G1 X136.200 Y97.754 E6.0203
G1 X118.700 Y97.754 E7.1961
G1 X118.700 Y101.454 E7.4447
G1 X101.300 Y101.454 E8.6137
G1 X101.300 Y97.754 E8.8624
G1 X83.800 Y97.754 E10.0381
G1 X83.800 Y101.454 E10.2868
G1 X75.400 Y101.454 E10.8511
G1 X75.400 Y93.517 E11.3844
G1 X75.415 Y93.295 E11.3994
G1 X75.455 Y93.090 E11.4134
G1 X75.523 Y92.892 E11.4275
G1 X75.615 Y92.704 E11.4415
G1 X75.731 Y92.530 E11.4556
G1 X75.869 Y92.373 E11.4696
G1 X76.027 Y92.235 E11.4837
G1 X78.316 Y96.578 F4800
G92 E0
G1 X77.965 Y96.865 E0.0304 F902
G1 X77.678 Y97.216 E0.0609
G1 X77.464 Y97.615 E0.0913
G1 X77.332 Y98.049 E0.1218
G1 X77.288 Y98.500 E0.1522
G1 X77.332 Y98.951 E0.1827
G1 X77.464 Y99.385 E0.2131
G1 X77.678 Y99.784 E0.2436
G1 X77.965 Y100.135 E0.2740
G1 X78.316 Y100.422 E0.3045
G1 X78.715 Y100.636 E0.3349
G1 X79.149 Y100.768 E0.3654
G1 X79.600 Y100.812 E0.3958
G1 X80.051 Y100.768 E0.4263
G1 X80.485 Y100.636 E0.4568
G1 X80.887 Y100.420 E0.4874
G1 X81.235 Y100.135 E0.5176
G1 X81.522 Y99.784 E0.5481
G1 X81.736 Y99.385 E0.5785
G1 X81.868 Y98.951 E0.6090
G1 X81.912 Y98.500 E0.6394
G1 X81.868 Y98.049 E0.6699
G1 X81.736 Y97.615 E0.7003
G1 X81.522 Y97.216 E0.7308
G1 X81.235 Y96.865 E0.7612
G1 X80.884 Y96.578 E0.7917
G1 X80.485 Y96.364 E0.8221
G1 X80.051 Y96.232 E0.8526
G1 X79.600 Y96.188 E0.8830
G1 X79.149 Y96.232 E0.9135
G1 X78.715 Y96.364 E0.9439
G1 X78.316 Y96.578 E0.9744
G92 E0
G1 E-9.0000 F1988
G1 X103.138 Y98.500 F4800
G1 E0.0000 F1988
G92 E0
G1 X103.182 Y98.951 E0.0304 F902
G1 X103.314 Y99.385 E0.0609
G1 X103.528 Y99.784 E0.0913
G1 X103.815 Y100.135 E0.1218
G1 X104.166 Y100.422 E0.1522
G1 X104.565 Y100.636 E0.1827
G1 X104.999 Y100.768 E0.2131
G1 X105.450 Y100.812 E0.2436
G1 X105.901 Y100.768 E0.2740
G1 X106.335 Y100.636 E0.3045
G1 X106.737 Y100.420 E0.3352
G1 X107.085 Y100.135 E0.3654
G1 X107.372 Y99.784 E0.3958
G1 X107.586 Y99.385 E0.4263
G1 X107.718 Y98.951 E0.4567
G1 X107.762 Y98.500 E0.4872
G1 X107.718 Y98.049 E0.5176
G1 X107.586 Y97.615 E0.5481
G1 X107.372 Y97.216 E0.5785
G1 X107.085 Y96.865 E0.6090
G1 X106.734 Y96.578 E0.6394
G1 X106.335 Y96.364 E0.6699
G1 X105.901 Y96.232 E0.7003
G1 X105.450 Y96.188 E0.7308
G1 X104.999 Y96.232 E0.7612
G1 X104.565 Y96.364 E0.7917
G1 X104.166 Y96.578 E0.8221
G1 X103.815 Y96.865 E0.8526
G1 X103.528 Y97.216 E0.8830
G1 X103.314 Y97.615 E0.9135
G1 X103.182 Y98.049 E0.9439
G1 X103.138 Y98.500 E0.9744
G92 E0
G1 E-9.0000 F1988
G1 X112.238 Y98.500 F4800
G1 E0.0000 F1988
G92 E0
G1 X112.282 Y98.951 E0.0304 F902
G1 X112.414 Y99.385 E0.0609
G1 X112.628 Y99.784 E0.0913
G1 X112.915 Y100.135 E0.1218
G1 X113.266 Y100.422 E0.1522
G1 X113.665 Y100.636 E0.1827
G1 X114.099 Y100.768 E0.2131
G1 X114.550 Y100.812 E0.2436
G1 X115.001 Y100.768 E0.2740
G1 X115.435 Y100.636 E0.3045
G1 X115.837 Y100.420 E0.3352
G1 X116.185 Y100.135 E0.3654
G1 X116.472 Y99.784 E0.3958
G1 X116.686 Y99.385 E0.4263
G1 X116.817 Y98.951 E0.4567
G1 X116.862 Y98.500 E0.4872
G1 X116.817 Y98.049 E0.5176
G1 X116.686 Y97.615 E0.5481
G1 X116.472 Y97.216 E0.5785
G1 X116.185 Y96.865 E0.6090
G1 X115.834 Y96.578 E0.6394
G1 X115.435 Y96.364 E0.6699
G1 X115.001 Y96.232 E0.7003
G1 X114.550 Y96.188 E0.7308
G1 X114.099 Y96.232 E0.7612
G1 X113.665 Y96.364 E0.7917
G1 X113.266 Y96.578 E0.8221
G1 X112.915 Y96.865 E0.8526
G1 X112.628 Y97.216 E0.8830
G1 X112.414 Y97.615 E0.9135
G1 X112.282 Y98.049 E0.9439
G1 X112.238 Y98.500 E0.9744
G92 E0
G1 E-9.0000 F1988
G1 X138.088 Y98.500 F4800
G1 E0.0000 F1988
G92 E0
G1 X138.132 Y98.951 E0.0305 F902
G1 X138.264 Y99.385 E0.0609
G1 X138.478 Y99.784 E0.0913
G1 X138.765 Y100.135 E0.1218
G1 X139.116 Y100.422 E0.1522
G1 X139.515 Y100.636 E0.1827
G1 X139.949 Y100.768 E0.2131
G1 X140.400 Y100.812 E0.2436
G1 X140.851 Y100.768 E0.2740
G1 X141.285 Y100.636 E0.3045
G1 X141.687 Y100.420 E0.3352
G1 X142.035 Y100.135 E0.3654
G1 X142.322 Y99.784 E0.3958
G1 X142.536 Y99.385 E0.4263
G1 X142.668 Y98.951 E0.4567
G1 X142.712 Y98.500 E0.4872
G1 X142.668 Y98.049 E0.5176
G1 X142.536 Y97.615 E0.5481
G1 X142.322 Y97.216 E0.5785
G1 X142.035 Y96.865 E0.6090
G1 X141.684 Y96.578 E0.6394
G1 X141.285 Y96.364 E0.6699
G1 X140.851 Y96.232 E0.7003
G1 X140.400 Y96.188 E0.7308
G1 X139.949 Y96.232 E0.7612
G1 X139.515 Y96.364 E0.7917
G1 X139.116 Y96.578 E0.8221
G1 X138.765 Y96.865 E0.8526
G1 X138.478 Y97.216 E0.8830
G1 X138.264 Y97.615 E0.9135
G1 X138.132 Y98.049 E0.9439
G1 X138.088 Y98.500 E0.9744
; solid layer
G1 X136.760 Y99.425 F4800
G92 E0
