; G-Code generated by Simplify3D(R) Version 4.0.0
; Mar 30, 2022 at 5:59:34 PM
; Settings Summary
;   processName,Process1
;   applyToModels,Boom_Support_Linkage_V4_2pc
;   profileName,Default (modified)
;   profileVersion,2017-03-01 08:00:00
;   baseProfile,
;   printMaterial,
;   printQuality,
;   printExtruders,
;   extruderName,Primary Extruder
;   extruderToolheadNumber,0
;   extruderDiameter,0.4
;   extruderAutoWidth,0
;   extruderWidth,0.8
;   extrusionMultiplier,1.01
;   extruderUseRetract,1
;   extruderRetractionDistance,9
;   extruderExtraRestartDistance,0
;   extruderRetractionZLift,0
;   extruderRetractionSpeed,1988
;   extruderUseCoasting,0
;   extruderCoastingDistance,0.2
;   extruderUseWipe,0
;   extruderWipeDistance,5
;   primaryExtruder,0
;   layerHeight,0.2
;   topSolidLayers,4
;   bottomSolidLayers,4
;   perimeterOutlines,1
;   printPerimetersInsideOut,1
;   startPointOption,2
;   startPointOriginX,0
;   startPointOriginY,0
;   sequentialIslands,0
;   spiralVaseMode,0
;   firstLayerHeightPercentage,90
;   firstLayerWidthPercentage,100
;   firstLayerUnderspeed,0.5
;   useRaft,0
;   raftExtruder,0
;   raftTopLayers,3
;   raftBaseLayers,2
;   raftOffset,3
;   raftSeparationDistance,0.14
;   raftTopInfill,100
;   aboveRaftSpeedMultiplier,0.3
;   useSkirt,1
;   skirtExtruder,0
;   skirtLayers,1
;   skirtOutlines,1
;   skirtOffset,0.3
;   usePrimePillar,0
;   primePillarExtruder,999
;   primePillarWidth,12
;   primePillarLocation,7
;   primePillarSpeedMultiplier,1
;   useOozeShield,0
;   oozeShieldExtruder,999
;   oozeShieldOffset,2
;   oozeShieldOutlines,1
;   oozeShieldSidewallShape,1
;   oozeShieldSidewallAngle,30
;   oozeShieldSpeedMultiplier,1
;   infillExtruder,0
;   internalInfillPattern,Rectilinear
;   externalInfillPattern,Rectilinear
;   infillPercentage,35
;   outlineOverlapPercentage,30
;   infillExtrusionWidthPercentage,100
;   minInfillLength,5
;   infillLayerInterval,1
;   internalInfillAngles,45,-45
;   overlapInternalInfillAngles,0
;   externalInfillAngles,45,-45
;   generateSupport,1
;   supportExtruder,0
;   supportInfillPercentage,30
;   supportExtraInflation,0
;   supportBaseLayers,0
;   denseSupportExtruder,0
;   denseSupportLayers,0
;   denseSupportInfillPercentage,70
;   supportLayerInterval,1
;   supportHorizontalPartOffset,0.3
;   supportUpperSeparationLayers,1
;   supportLowerSeparationLayers,1
;   supportType,0
;   supportGridSpacing,4
;   maxOverhangAngle,45
;   supportAngles,0
;   temperatureName,Primary Extruder,Bed
;   temperatureNumber,0,0
;   temperatureSetpointCount,1,1
;   temperatureSetpointLayers,1,1
;   temperatureSetpointTemperatures,205,60
;   temperatureStabilizeAtStartup,1,1
;   temperatureHeatedBed,0,1
;   temperatureRelayBetweenLayers,0,0
;   temperatureRelayBetweenLoops,0,0
;   fanLayers,1,2
;   fanSpeeds,0,100
;   blipFanToFullPower,0
;   adjustSpeedForCooling,1
;   minSpeedLayerTime,15
;   minCoolingSpeedSlowdown,20
;   increaseFanForCooling,0
;   minFanLayerTime,45
;   maxCoolingFanSpeed,100
;   increaseFanForBridging,0
;   bridgingFanSpeed,100
;   use5D,1
;   relativeEdistances,0
;   allowEaxisZeroing,1
;   independentExtruderAxes,0
;   includeM10123,0
;   stickySupport,1
;   applyToolheadOffsets,0
;   gcodeXoffset,0
;   gcodeYoffset,0
;   gcodeZoffset,0
;   overrideMachineDefinition,1
;   machineTypeOverride,0
;   strokeXoverride,220
;   strokeYoverride,220
;   strokeZoverride,220
;   originOffsetXoverride,0
;   originOffsetYoverride,0
;   originOffsetZoverride,0
;   homeXdirOverride,-1
;   homeYdirOverride,-1
;   homeZdirOverride,-1
;   flipXoverride,1
;   flipYoverride,-1
;   flipZoverride,1
;   toolheadOffsets,0,0|0,0|0,0|0,0|0,0|0,0
;   overrideFirmwareConfiguration,0
;   firmwareTypeOverride,RepRap (Marlin/Repetier/Sprinter)
;   GPXconfigOverride,r2
;   baudRateOverride,115200
;   overridePrinterModels,0
;   printerModelsOverride
;   startingGcode,G28 ; home all axes
;   layerChangeGcode,
;   retractionGcode,
;   toolChangeGcode,
;   endingGcode,M104 S0 ; turn off extruder,M140 S0 ; turn off bed,M84 ; disable motors,G28 ; home all axes
;   exportFileFormat,gcode
;   celebration,0
;   celebrationSong,Random Song
;   postProcessing,
;   defaultSpeed,2000
;   outlineUnderspeed,0.95
;   solidInfillUnderspeed,0.8
;   supportUnderspeed,0.8
;   rapidXYspeed,4800
;   rapidZspeed,1002
;   minBridgingArea,50
;   bridgingExtraInflation,0
;   bridgingExtrusionMultiplier,1
;   bridgingSpeedMultiplier,1
;   useFixedBridgingAngle,0
;   fixedBridgingAngle,0
;   applyBridgingToPerimeters,0
;   filamentDiameters,1.75|1.75|1.75|1.75|1.75|1.75
;   filamentPricesPerKg,46|46|46|46|46|46
;   filamentDensities,1.25|1.25|1.25|1.25|1.25|1.25
;   useMinPrintHeight,0
;   minPrintHeight,0
;   useMaxPrintHeight,0
;   maxPrintHeight,0
;   useDiaphragm,0
;   diaphragmLayerInterval,20
;   robustSlicing,1
;   mergeAllIntoSolid,0
;   onlyRetractWhenCrossingOutline,1
;   retractBetweenLayers,1
;   useRetractionMinTravel,0
;   retractionMinTravel,3
;   retractWhileWiping,0
;   onlyWipeOutlines,1
;   avoidCrossingOutline,0
;   maxMovementDetourFactor,3
;   toolChangeRetractionDistance,12
;   toolChangeExtraRestartDistance,-0.5
;   toolChangeRetractionSpeed,600
;   externalThinWallType,0
;   internalThinWallType,2
;   thinWallAllowedOverlapPercentage,10
;   singleExtrusionMinLength,1
;   singleExtrusionMinPrintingWidthPercentage,50
;   singleExtrusionMaxPrintingWidthPercentage,200
;   singleExtrusionEndpointExtension,0.2
;   horizontalSizeCompensation,0
G90
M82
M106 S0
M140 S60
M190 S60
M104 S205 T0
M109 S205 T0
G28 ; home all axes
G92 E0
G1 E-9.0000 F1988
G1 Z0.180 F1002
; process Process1
; layer 1, Z = 0.180
T0
; tool H0.200 W0.800
; skirt
G1 X88.104 Y95.573 F4800
G1 E0.0000 F596
G92 E0
G1 X88.119 Y95.560 E0.0013 F1000
G1 X88.460 Y95.280 E0.0310
G1 X88.476 Y95.269 E0.0323
G1 X88.516 Y95.241 E0.0356
G1 X88.533 Y95.231 E0.0369
G1 X88.922 Y95.023 E0.0665
G1 X88.940 Y95.015 E0.0679
G1 X88.986 Y94.996 E0.0712
G1 X89.004 Y94.990 E0.0725
G1 X89.426 Y94.861 E0.1021
G1 X89.445 Y94.857 E0.1034
G1 X89.493 Y94.847 E0.1067
G1 X89.513 Y94.844 E0.1081
G1 X89.940 Y94.802 E0.1369
G1 X89.949 Y94.801 E0.1375
G1 X89.974 Y94.800 E0.1392
G1 X89.984 Y94.800 E0.1398
G1 X96.008 Y94.800 E0.5446
G1 X96.018 Y94.800 E0.5453
G1 X96.043 Y94.801 E0.5469
G1 X96.052 Y94.802 E0.5476
G1 X96.479 Y94.844 E0.5764
G1 X96.499 Y94.847 E0.5777
G1 X96.547 Y94.857 E0.5810
G1 X96.566 Y94.861 E0.5823
G1 X96.988 Y94.990 E0.6120
G1 X97.007 Y94.996 E0.6133
G1 X97.052 Y95.015 E0.6166
G1 X97.070 Y95.023 E0.6179
G1 X97.459 Y95.231 E0.6475
G1 X97.476 Y95.241 E0.6489
G1 X97.516 Y95.269 E0.6522
G1 X97.532 Y95.280 E0.6535
G1 X97.873 Y95.560 E0.6831
G1 X97.888 Y95.573 E0.6844
G1 X97.922 Y95.608 E0.6877
G1 X97.936 Y95.623 E0.6891
G1 X98.216 Y95.964 E0.7187
G1 X98.227 Y95.979 E0.7200
G1 X98.255 Y96.020 E0.7233
G1 X98.265 Y96.037 E0.7246
G1 X98.473 Y96.426 E0.7543
G1 X98.481 Y96.444 E0.7556
G1 X98.500 Y96.489 E0.7589
G1 X98.506 Y96.508 E0.7602
G1 X98.635 Y96.930 E0.7899
G1 X98.639 Y96.949 E0.7912
G1 X98.649 Y96.997 E0.7945
G1 X98.652 Y97.017 E0.7958
G1 X98.694 Y97.444 E0.8246
G1 X98.695 Y97.453 E0.8253
G1 X98.696 Y97.478 E0.8269
G1 X98.696 Y97.488 E0.8276
G1 X98.696 Y102.208 E1.1447
G1 X98.635 Y102.355 E1.1554
G1 X98.347 Y102.644 E1.1828
G1 X98.200 Y102.704 E1.1935
G1 X87.792 Y102.704 E1.8928
G1 X87.645 Y102.644 E1.9034
G1 X87.357 Y102.355 E1.9308
G1 X87.296 Y102.208 E1.9415
G1 X87.296 Y97.488 E2.2587
G1 X87.296 Y97.478 E2.2593
G1 X87.297 Y97.453 E2.2610
G1 X87.298 Y97.444 E2.2616
G1 X87.340 Y97.017 E2.2905
G1 X87.343 Y96.997 E2.2918
G1 X87.353 Y96.949 E2.2951
G1 X87.357 Y96.930 E2.2964
G1 X87.486 Y96.508 E2.3260
G1 X87.492 Y96.489 E2.3274
G1 X87.511 Y96.444 E2.3307
G1 X87.519 Y96.426 E2.3320
G1 X87.727 Y96.037 E2.3616
G1 X87.737 Y96.020 E2.3629
G1 X87.765 Y95.980 E2.3662
G1 X87.776 Y95.964 E2.3676
G1 X88.056 Y95.623 E2.3972
G1 X88.069 Y95.608 E2.3985
G1 X88.104 Y95.573 E2.4018
G1 X87.576 Y103.080 F4800
G92 E0
G1 X96.424 Y103.080 E0.5944 F1000
G1 X96.571 Y103.141 E0.6051
G1 X96.859 Y103.429 E0.6325
G1 X96.920 Y103.576 E0.6432
G1 X96.920 Y116.424 E1.5064
G1 X96.859 Y116.571 E1.5171
G1 X96.571 Y116.859 E1.5445
G1 X96.424 Y116.920 E1.5552
G1 X87.576 Y116.920 E2.1496
G1 X87.429 Y116.859 E2.1603
G1 X87.141 Y116.571 E2.1877
G1 X87.080 Y116.424 E2.1984
G1 X87.080 Y103.576 E3.0615
G1 X87.141 Y103.429 E3.0722
G1 X87.429 Y103.141 E3.0996
G1 X87.576 Y103.080 E3.1103
G1 X101.304 Y102.197 F4800
G92 E0
G1 X101.304 Y96.736 E0.3669 F1000
G1 X101.365 Y96.589 E0.3776
G1 X101.653 Y96.301 E0.4050
G1 X101.800 Y96.240 E0.4157
G1 X112.208 Y96.240 E1.1149
G1 X112.355 Y96.301 E1.1256
G1 X112.643 Y96.589 E1.1530
G1 X112.704 Y96.736 E1.1637
G1 X112.704 Y101.800 E1.5039
G1 X125.020 Y101.800 E2.3313
G1 X125.031 Y101.800 E2.3321
G1 X125.061 Y101.802 E2.3341
G1 X125.073 Y101.803 E2.3349
G1 X125.840 Y101.895 E2.3869
G1 X125.850 Y101.896 E2.3875
G1 X125.875 Y101.901 E2.3892
G1 X125.884 Y101.903 E2.3899
G1 X126.643 Y102.071 E2.4421
G1 X126.653 Y102.073 E2.4427
G1 X126.677 Y102.080 E2.4444
G1 X126.687 Y102.083 E2.4451
G1 X127.425 Y102.326 E2.4973
G1 X127.434 Y102.329 E2.4980
G1 X127.458 Y102.339 E2.4997
G1 X127.467 Y102.342 E2.5004
G1 X128.177 Y102.658 E2.5526
G1 X128.186 Y102.663 E2.5533
G1 X128.209 Y102.674 E2.5549
G1 X128.217 Y102.679 E2.5556
G1 X128.893 Y103.064 E2.6078
G1 X128.901 Y103.069 E2.6085
G1 X128.922 Y103.083 E2.6102
G1 X128.931 Y103.088 E2.6109
G1 X129.564 Y103.539 E2.6631
G1 X129.572 Y103.545 E2.6638
G1 X129.591 Y103.561 E2.6654
G1 X129.599 Y103.567 E2.6661
G1 X130.184 Y104.079 E2.7184
G1 X130.191 Y104.086 E2.7190
G1 X130.209 Y104.103 E2.7207
G1 X130.216 Y104.110 E2.7214
G1 X130.747 Y104.678 E2.7736
G1 X130.754 Y104.686 E2.7743
G1 X130.770 Y104.705 E2.7760
G1 X130.776 Y104.713 E2.7766
G1 X131.248 Y105.331 E2.8289
G1 X131.254 Y105.339 E2.8295
G1 X131.268 Y105.359 E2.8312
G1 X131.273 Y105.368 E2.8319
G1 X131.681 Y106.030 E2.8841
G1 X131.686 Y106.039 E2.8848
G1 X131.698 Y106.061 E2.8865
G1 X131.702 Y106.070 E2.8871
G1 X132.042 Y106.769 E2.9394
G1 X132.046 Y106.778 E2.9401
G1 X132.056 Y106.801 E2.9417
G1 X132.059 Y106.811 E2.9424
G1 X132.327 Y107.540 E2.9946
G1 X132.330 Y107.550 E2.9953
G1 X132.337 Y107.574 E2.9970
G1 X132.340 Y107.583 E2.9977
G1 X132.533 Y108.336 E3.0499
G1 X132.535 Y108.346 E3.0505
G1 X132.540 Y108.370 E3.0522
G1 X132.542 Y108.380 E3.0529
G1 X132.659 Y109.149 E3.1051
G1 X132.661 Y109.159 E3.1058
G1 X132.663 Y109.184 E3.1075
G1 X132.664 Y109.194 E3.1082
G1 X132.703 Y109.970 E3.1604
G1 X132.704 Y109.980 E3.1611
G1 X132.704 Y110.005 E3.1627
G1 X132.703 Y110.015 E3.1634
G1 X132.665 Y110.792 E3.2156
G1 X132.665 Y110.802 E3.2163
G1 X132.662 Y110.826 E3.2180
G1 X132.661 Y110.836 E3.2187
G1 X132.545 Y111.605 E3.2709
G1 X132.543 Y111.615 E3.2716
G1 X132.538 Y111.640 E3.2733
G1 X132.536 Y111.649 E3.2739
G1 X132.344 Y112.403 E3.3262
G1 X132.342 Y112.412 E3.3268
G1 X132.334 Y112.436 E3.3285
G1 X132.331 Y112.446 E3.3292
G1 X132.065 Y113.176 E3.3814
G1 X132.061 Y113.185 E3.3821
G1 X132.052 Y113.208 E3.3837
G1 X132.047 Y113.217 E3.3844
G1 X131.710 Y113.918 E3.4367
G1 X131.705 Y113.926 E3.4373
G1 X131.693 Y113.948 E3.4390
G1 X131.688 Y113.957 E3.4397
G1 X131.282 Y114.620 E3.4919
G1 X131.276 Y114.628 E3.4926
G1 X131.262 Y114.649 E3.4943
G1 X131.256 Y114.657 E3.4949
G1 X130.786 Y115.276 E3.5472
G1 X130.780 Y115.284 E3.5478
G1 X130.764 Y115.303 E3.5495
G1 X130.757 Y115.311 E3.5502
G1 X130.227 Y115.879 E3.6024
G1 X130.220 Y115.886 E3.6031
G1 X130.202 Y115.904 E3.6048
G1 X130.195 Y115.911 E3.6054
G1 X129.611 Y116.424 E3.6577
G1 X129.603 Y116.430 E3.6584
G1 X129.583 Y116.446 E3.6600
G1 X129.575 Y116.452 E3.6607
G1 X128.943 Y116.904 E3.7129
G1 X128.935 Y116.909 E3.7136
G1 X128.914 Y116.923 E3.7153
G1 X128.905 Y116.928 E3.7160
G1 X128.231 Y117.315 E3.7682
G1 X128.222 Y117.319 E3.7689
G1 X128.200 Y117.331 E3.7705
G1 X128.190 Y117.335 E3.7712
G1 X127.481 Y117.652 E3.8234
G1 X127.472 Y117.656 E3.8241
G1 X127.448 Y117.665 E3.8258
G1 X127.439 Y117.669 E3.8265
G1 X126.701 Y117.913 E3.8787
G1 X126.691 Y117.916 E3.8794
G1 X126.667 Y117.923 E3.8810
G1 X126.658 Y117.925 E3.8817
G1 X125.899 Y118.095 E3.9340
G1 X125.889 Y118.097 E3.9346
G1 X125.864 Y118.101 E3.9363
G1 X125.855 Y118.103 E3.9370
G1 X125.080 Y118.196 E3.9894
G1 X125.068 Y118.197 E3.9902
G1 X125.038 Y118.199 E3.9922
G1 X125.026 Y118.199 E3.9930
G1 X112.704 Y118.200 E4.8209
G1 X112.704 Y123.264 E5.1611
G1 X112.643 Y123.411 E5.1718
G1 X112.355 Y123.699 E5.1992
G1 X112.208 Y123.760 E5.2099
G1 X101.800 Y123.760 E5.9091
G1 X101.653 Y123.699 E5.9198
G1 X101.365 Y123.411 E5.9472
G1 X101.304 Y123.264 E5.9579
G1 X101.304 Y117.803 E6.3248
G1 X101.361 Y117.660 E6.3351
G1 X101.633 Y117.375 E6.3616
G1 X101.773 Y117.311 E6.3720
G1 X102.713 Y117.264 E6.4352
G1 X103.422 Y117.160 E6.4833
G1 X104.117 Y116.986 E6.5315
G1 X104.791 Y116.746 E6.5796
G1 X105.439 Y116.440 E6.6277
G1 X106.054 Y116.072 E6.6758
G1 X106.629 Y115.646 E6.7239
G1 X107.160 Y115.166 E6.7721
G1 X107.642 Y114.635 E6.8202
G1 X108.069 Y114.060 E6.8683
G1 X108.438 Y113.446 E6.9164
G1 X108.745 Y112.799 E6.9646
G1 X108.987 Y112.125 E7.0127
G1 X109.161 Y111.430 E7.0608
G1 X109.267 Y110.722 E7.1089
G1 X109.303 Y110.006 E7.1571
G1 X109.268 Y109.291 E7.2052
G1 X109.164 Y108.582 E7.2533
G1 X108.990 Y107.887 E7.3014
G1 X108.750 Y107.213 E7.3495
G1 X108.444 Y106.565 E7.3977
G1 X108.076 Y105.950 E7.4458
G1 X107.650 Y105.375 E7.4939
G1 X107.170 Y104.844 E7.5420
G1 X106.639 Y104.362 E7.5902
G1 X106.064 Y103.935 E7.6383
G1 X105.450 Y103.566 E7.6864
G1 X104.803 Y103.259 E7.7345
G1 X104.129 Y103.017 E7.7826
G1 X103.434 Y102.843 E7.8308
G1 X102.726 Y102.737 E7.8789
G1 X101.772 Y102.689 E7.9430
G1 X101.633 Y102.625 E7.9534
G1 X101.361 Y102.340 E7.9798
G1 X101.304 Y102.197 E7.9902
G1 X98.200 Y117.296 F4800
G92 E0
G1 X98.347 Y117.356 E0.0107 F1000
G1 X98.635 Y117.645 E0.0381
G1 X98.696 Y117.792 E0.0488
G1 X98.696 Y122.512 E0.3659
G1 X98.696 Y122.522 E0.3666
G1 X98.695 Y122.547 E0.3682
G1 X98.694 Y122.556 E0.3689
G1 X98.652 Y122.981 E0.3975
G1 X98.649 Y123.000 E0.3989
G1 X98.640 Y123.048 E0.4021
G1 X98.635 Y123.067 E0.4034
G1 X98.507 Y123.489 E0.4331
G1 X98.501 Y123.508 E0.4344
G1 X98.482 Y123.553 E0.4377
G1 X98.474 Y123.571 E0.4390
G1 X98.266 Y123.960 E0.4686
G1 X98.256 Y123.977 E0.4700
G1 X98.229 Y124.018 E0.4733
G1 X98.217 Y124.034 E0.4746
G1 X97.938 Y124.375 E0.5042
G1 X97.925 Y124.389 E0.5055
G1 X97.890 Y124.424 E0.5088
G1 X97.875 Y124.437 E0.5102
G1 X97.535 Y124.718 E0.5398
G1 X97.519 Y124.729 E0.5411
G1 X97.478 Y124.757 E0.5444
G1 X97.461 Y124.767 E0.5457
G1 X97.073 Y124.975 E0.5754
G1 X97.055 Y124.984 E0.5767
G1 X97.009 Y125.002 E0.5800
G1 X96.991 Y125.009 E0.5813
G1 X96.569 Y125.138 E0.6110
G1 X96.550 Y125.142 E0.6123
G1 X96.502 Y125.152 E0.6156
G1 X96.482 Y125.155 E0.6169
G1 X96.055 Y125.198 E0.6457
G1 X96.045 Y125.198 E0.6464
G1 X96.021 Y125.200 E0.6481
G1 X96.011 Y125.200 E0.6487
G1 X89.984 Y125.200 E1.0536
G1 X89.974 Y125.200 E1.0543
G1 X89.949 Y125.199 E1.0560
G1 X89.940 Y125.198 E1.0566
G1 X89.515 Y125.156 E1.0853
G1 X89.496 Y125.153 E1.0866
G1 X89.448 Y125.144 E1.0899
G1 X89.429 Y125.139 E1.0912
G1 X89.007 Y125.011 E1.1208
G1 X88.988 Y125.005 E1.1221
G1 X88.943 Y124.986 E1.1254
G1 X88.925 Y124.978 E1.1267
G1 X88.536 Y124.770 E1.1564
G1 X88.519 Y124.760 E1.1577
G1 X88.478 Y124.733 E1.1610
G1 X88.462 Y124.721 E1.1623
G1 X88.121 Y124.442 E1.1919
G1 X88.107 Y124.429 E1.1933
G1 X88.072 Y124.394 E1.1966
G1 X88.059 Y124.379 E1.1979
G1 X87.778 Y124.039 E1.2275
G1 X87.767 Y124.023 E1.2288
