; G-Code generated by Simplify3D(R) Version 4.0.0
; Mar 30, 2022 at 5:39:49 PM
; Settings Summary
;   processName,Process1
;   applyToModels,Boom_Rod_Linkage_20Deg_R
;   profileName,Default (modified)
;   profileVersion,2017-03-01 08:00:00
;   baseProfile,
;   printMaterial,
;   printQuality,
;   printExtruders,
;   extruderName,Primary Extruder
;   extruderToolheadNumber,0
;   extruderDiameter,0.4
;   extruderAutoWidth,0
;   extruderWidth,0.8
;   extrusionMultiplier,1.01
;   extruderUseRetract,1
;   extruderRetractionDistance,9
;   extruderExtraRestartDistance,0
;   extruderRetractionZLift,0
;   extruderRetractionSpeed,1988
;   extruderUseCoasting,0
;   extruderCoastingDistance,0.2
;   extruderUseWipe,0
;   extruderWipeDistance,5
;   primaryExtruder,0
;   layerHeight,0.2
;   topSolidLayers,4
;   bottomSolidLayers,4
;   perimeterOutlines,1
;   printPerimetersInsideOut,1
;   startPointOption,2
;   startPointOriginX,0
;   startPointOriginY,0
;   sequentialIslands,0
;   spiralVaseMode,0
;   firstLayerHeightPercentage,90
;   firstLayerWidthPercentage,100
;   firstLayerUnderspeed,0.5
;   useRaft,0
;   raftExtruder,0
;   raftTopLayers,3
;   raftBaseLayers,2
;   raftOffset,3
;   raftSeparationDistance,0.14
;   raftTopInfill,100
;   aboveRaftSpeedMultiplier,0.3
;   useSkirt,1
;   skirtExtruder,0
;   skirtLayers,1
;   skirtOutlines,1
;   skirtOffset,0.3
;   usePrimePillar,0
;   primePillarExtruder,999
;   primePillarWidth,12
;   primePillarLocation,7
;   primePillarSpeedMultiplier,1
;   useOozeShield,0
;   oozeShieldExtruder,999
;   oozeShieldOffset,2
;   oozeShieldOutlines,1
;   oozeShieldSidewallShape,1
;   oozeShieldSidewallAngle,30
;   oozeShieldSpeedMultiplier,1
;   infillExtruder,0
;   internalInfillPattern,Rectilinear
;   externalInfillPattern,Rectilinear
;   infillPercentage,35
;   outlineOverlapPercentage,30
;   infillExtrusionWidthPercentage,100
;   minInfillLength,5
;   infillLayerInterval,1
;   internalInfillAngles,45,-45
;   overlapInternalInfillAngles,0
;   externalInfillAngles,45,-45
;   generateSupport,1
;   supportExtruder,0
;   supportInfillPercentage,30
;   supportExtraInflation,0
;   supportBaseLayers,0
;   denseSupportExtruder,0
;   denseSupportLayers,0
;   denseSupportInfillPercentage,70
;   supportLayerInterval,1
;   supportHorizontalPartOffset,0.3
;   supportUpperSeparationLayers,1
;   supportLowerSeparationLayers,1
;   supportType,0
;   supportGridSpacing,4
;   maxOverhangAngle,45
;   supportAngles,0
;   temperatureName,Primary Extruder,Bed
;   temperatureNumber,0,0
;   temperatureSetpointCount,1,1
;   temperatureSetpointLayers,1,1
;   temperatureSetpointTemperatures,205,60
;   temperatureStabilizeAtStartup,1,1
;   temperatureHeatedBed,0,1
;   temperatureRelayBetweenLayers,0,0
;   temperatureRelayBetweenLoops,0,0
;   fanLayers,1,2
;   fanSpeeds,0,100
;   blipFanToFullPower,0
;   adjustSpeedForCooling,1
;   minSpeedLayerTime,15
;   minCoolingSpeedSlowdown,20
;   increaseFanForCooling,0
;   minFanLayerTime,45
;   maxCoolingFanSpeed,100
;   increaseFanForBridging,0
;   bridgingFanSpeed,100
;   use5D,1
;   relativeEdistances,0
;   allowEaxisZeroing,1
;   independentExtruderAxes,0
;   includeM10123,0
;   stickySupport,1
;   applyToolheadOffsets,0
;   gcodeXoffset,0
;   gcodeYoffset,0
;   gcodeZoffset,0
;   overrideMachineDefinition,1
;   machineTypeOverride,0
;   strokeXoverride,220
;   strokeYoverride,220
;   strokeZoverride,220
;   originOffsetXoverride,0
;   originOffsetYoverride,0
;   originOffsetZoverride,0
;   homeXdirOverride,-1
;   homeYdirOverride,-1
;   homeZdirOverride,-1
;   flipXoverride,1
;   flipYoverride,-1
;   flipZoverride,1
;   toolheadOffsets,0,0|0,0|0,0|0,0|0,0|0,0
;   overrideFirmwareConfiguration,0
;   firmwareTypeOverride,RepRap (Marlin/Repetier/Sprinter)
;   GPXconfigOverride,r2
;   baudRateOverride,115200
;   overridePrinterModels,0
;   printerModelsOverride
;   startingGcode,G28 ; home all axes
;   layerChangeGcode,
;   retractionGcode,
;   toolChangeGcode,
;   endingGcode,M104 S0 ; turn off extruder,M140 S0 ; turn off bed,M84 ; disable motors,G28 ; home all axes
;   exportFileFormat,gcode
;   celebration,0
;   celebrationSong,Random Song
;   postProcessing,
;   defaultSpeed,1900
;   outlineUnderspeed,0.95
;   solidInfillUnderspeed,0.8
;   supportUnderspeed,0.8
;   rapidXYspeed,4800
;   rapidZspeed,1002
;   minBridgingArea,50
;   bridgingExtraInflation,0
;   bridgingExtrusionMultiplier,1
;   bridgingSpeedMultiplier,1
;   useFixedBridgingAngle,0
;   fixedBridgingAngle,0
;   applyBridgingToPerimeters,0
;   filamentDiameters,1.75|1.75|1.75|1.75|1.75|1.75
;   filamentPricesPerKg,46|46|46|46|46|46
;   filamentDensities,1.25|1.25|1.25|1.25|1.25|1.25
;   useMinPrintHeight,0
;   minPrintHeight,0
;   useMaxPrintHeight,0
;   maxPrintHeight,0
;   useDiaphragm,0
;   diaphragmLayerInterval,20
;   robustSlicing,1
;   mergeAllIntoSolid,0
;   onlyRetractWhenCrossingOutline,1
;   retractBetweenLayers,1
;   useRetractionMinTravel,0
;   retractionMinTravel,3
;   retractWhileWiping,0
;   onlyWipeOutlines,1
;   avoidCrossingOutline,0
;   maxMovementDetourFactor,3
;   toolChangeRetractionDistance,12
;   toolChangeExtraRestartDistance,-0.5
;   toolChangeRetractionSpeed,600
;   externalThinWallType,0
;   internalThinWallType,2
;   thinWallAllowedOverlapPercentage,10
;   singleExtrusionMinLength,1
;   singleExtrusionMinPrintingWidthPercentage,50
;   singleExtrusionMaxPrintingWidthPercentage,200
;   singleExtrusionEndpointExtension,0.2
;   horizontalSizeCompensation,0
G90
M82
M106 S0
M140 S60
M190 S60
M104 S205 T0
M109 S205 T0
G28 ; home all axes
G92 E0
G1 E-9.0000 F1988
G1 Z0.180 F1002
; process Process1
; layer 1, Z = 0.180
T0
; tool H0.200 W0.800
; skirt
G1 X101.230 Y112.502 F4800
G1 E0.0000 F596
G92 E0
G1 X101.348 Y112.413 E0.0099 F499
G1 X101.400 Y112.385 E0.0139
G1 X107.647 Y110.111 E0.4605
G1 X107.705 Y110.100 E0.4645
G1 X107.852 Y110.091 E0.4744
G1 X107.911 Y110.097 E0.4784
G1 X109.855 Y110.570 E0.6128
G1 X109.943 Y110.616 E0.6195
G1 X110.129 Y110.783 E0.6362
G1 X110.184 Y110.865 E0.6428
G1 X113.005 Y118.616 E1.1971
G1 X113.015 Y118.715 E1.2037
G1 X112.980 Y118.961 E1.2204
G1 X112.943 Y119.053 E1.2271
G1 X111.758 Y120.665 E1.3615
G1 X111.716 Y120.707 E1.3655
G1 X111.598 Y120.796 E1.3754
G1 X111.546 Y120.824 E1.3794
G1 X105.299 Y123.098 E1.8260
G1 X105.242 Y123.109 E1.8300
G1 X105.094 Y123.117 E1.8399
G1 X105.035 Y123.112 E1.8439
G1 X103.091 Y122.638 E1.9783
G1 X103.004 Y122.592 E1.9849
G1 X102.818 Y122.426 E2.0017
G1 X102.763 Y122.344 E2.0083
G1 X99.941 Y114.593 E2.5626
G1 X99.931 Y114.494 E2.5692
G1 X99.966 Y114.248 E2.5859
G1 X100.004 Y114.156 E2.5926
G1 X101.189 Y112.543 E2.7270
G1 X101.230 Y112.502 E2.7310
G92 E0
G1 E-9.0000 F1988
; outer perimeter
G1 X101.960 Y113.352 F4800
G1 E0.0000 F1988
G92 E0
G1 X107.840 Y111.212 E0.4204 F474
G1 X109.266 Y111.559 E0.5190
G1 X111.856 Y118.674 E1.0278
G1 X110.987 Y119.857 E1.1264
G1 X105.106 Y121.997 E1.5468
G1 X103.680 Y121.650 E1.6454
G1 X101.091 Y114.535 E2.1541
G1 X101.960 Y113.352 E2.2527
G1 X103.961 Y114.910 F4800
G92 E0
G1 X103.561 Y115.769 E0.0637 F474
G1 X103.445 Y116.710 E0.1274
G1 X103.626 Y117.641 E0.1911
G1 X104.086 Y118.470 E0.2548
G1 X104.779 Y119.116 E0.3185
G1 X105.638 Y119.517 E0.3821
G1 X106.579 Y119.633 E0.4458
G1 X107.510 Y119.452 E0.5095
G1 X108.339 Y118.992 E0.5732
G1 X108.985 Y118.299 E0.6369
G1 X109.386 Y117.440 E0.7006
G1 X109.501 Y116.499 E0.7643
G1 X109.321 Y115.568 E0.8280
G1 X108.861 Y114.739 E0.8917
G1 X108.168 Y114.092 E0.9554
G1 X107.308 Y113.692 E1.0191
G1 X106.368 Y113.576 E1.0827
G1 X105.437 Y113.757 E1.1464
G1 X104.608 Y114.217 E1.2101
G1 X103.961 Y114.910 E1.2738
; solid layer
G1 X108.463 Y111.940 F4800
G92 E0
G1 X109.006 Y112.483 E0.0516 F399
G1 X109.654 Y114.262 E0.1788
G1 X107.371 Y111.979 E0.3957
G1 X106.541 Y112.280 E0.4550
G1 X107.399 Y113.139 E0.5366
G1 X106.348 Y113.010 E0.6078
G1 X106.173 Y113.044 E0.6198
G1 X105.712 Y112.582 E0.6636
G1 X104.882 Y112.884 E0.7229
G1 X105.230 Y113.232 E0.7559
G1 X104.502 Y113.635 E0.8118
G1 X104.053 Y113.186 E0.8545
G1 X103.223 Y113.488 E0.9138
G1 X103.895 Y114.160 E0.9776
G1 X103.491 Y114.593 E1.0174
G1 X103.398 Y114.794 E1.0323
G1 X102.394 Y113.790 E1.1277
G1 X102.311 Y113.820 E1.1336
G1 X101.879 Y114.407 E1.1826
G1 X103.038 Y115.565 E1.2926
G1 X103.016 Y115.613 E1.2961
G1 X102.900 Y116.559 E1.3601
G1 X102.151 Y115.810 E1.4313
G1 X102.798 Y117.589 E1.5585
G1 X103.154 Y117.944 E1.5923
G1 X103.639 Y118.819 E1.6594
G1 X104.462 Y119.586 E1.7351
G1 X105.088 Y119.879 E1.7815
G1 X106.209 Y121.000 E1.8880
G1 X105.380 Y121.302 E1.9473
G1 X103.446 Y119.367 E2.1311
G1 X104.093 Y121.146 E2.2583
G1 X104.130 Y121.183 E2.2618
G1 X106.532 Y120.191 F4800
G92 E0
G1 X107.039 Y120.698 E0.0482 F399
G1 X107.868 Y120.396 E0.1075
G1 X107.497 Y120.025 E0.1427
G1 X107.703 Y119.984 E0.1569
G1 X108.273 Y119.669 E0.2006
G1 X108.698 Y120.094 E0.2410
G1 X109.527 Y119.792 E0.3003
G1 X108.922 Y119.187 E0.3578
G1 X109.455 Y118.616 E0.4103
G1 X109.464 Y118.597 E0.4116
G1 X110.357 Y119.490 E0.4965
G1 X110.636 Y119.389 E0.5164
G1 X110.954 Y118.956 E0.5525
G1 X109.824 Y117.826 E0.6599
G1 X109.931 Y117.596 E0.6769
G1 X110.018 Y116.889 E0.7248
G1 X110.949 Y117.819 E0.8133
G1 X110.301 Y116.041 E0.9404
G1 X109.906 Y115.645 E0.9780
G92 E0
G1 E-9.0000 F1988
; support
G1 X105.674 Y114.883 F4800
G1 E0.0000 F1988
G92 E0
G1 X107.261 Y114.883 E0.1066 F399
G1 X107.545 Y115.016 E0.1277
G1 X107.983 Y115.425 E0.1679
G1 X108.274 Y115.949 E0.2082
G1 X108.388 Y116.538 E0.2485
G1 X108.315 Y117.133 E0.2888
G1 X108.121 Y117.550 E0.3197
G1 X105.587 Y117.550 E0.4900
G92 E0
G1 E-9.0000 F1988
; layer 2, Z = 0.380
M106 S255
; outer perimeter
G1 X105.106 Y121.997 F4800
G1 Z0.380 F1002
G1 E0.0000 F1988
G92 E0
G1 X103.680 Y121.650 E0.0986 F462
G1 X101.091 Y114.535 E0.6073
G1 X101.960 Y113.352 E0.7059
G1 X107.840 Y111.212 E1.1264
G1 X109.266 Y111.559 E1.2250
G1 X111.856 Y118.674 E1.7337
G1 X110.987 Y119.857 E1.8323
G1 X105.106 Y121.997 E2.2527
G1 X105.638 Y119.517 F4800
G92 E0
G1 X106.579 Y119.633 E0.0637 F462
G1 X107.510 Y119.452 E0.1274
G1 X108.339 Y118.992 E0.1911
G1 X108.985 Y118.299 E0.2548
G1 X109.386 Y117.440 E0.3185
G1 X109.501 Y116.499 E0.3821
G1 X109.321 Y115.568 E0.4458
G1 X108.861 Y114.739 E0.5095
G1 X108.168 Y114.092 E0.5732
G1 X107.308 Y113.692 E0.6369
G1 X106.368 Y113.576 E0.7006
G1 X105.437 Y113.757 E0.7643
G1 X104.608 Y114.217 E0.8280
G1 X103.961 Y114.910 E0.8917
G1 X103.561 Y115.769 E0.9554
G1 X103.445 Y116.710 E1.0191
G1 X103.626 Y117.641 E1.0827
G1 X104.086 Y118.470 E1.1464
G1 X104.779 Y119.116 E1.2101
G1 X105.638 Y119.517 E1.2738
; solid layer
G1 X110.101 Y119.583 F4800
G92 E0
G1 X111.193 Y118.491 E0.1038 F389
G1 X110.891 Y117.662 E0.1631
G1 X108.322 Y120.231 E0.4072
G1 X106.543 Y120.878 E0.5344
G1 X107.373 Y120.049 E0.6132
G1 X106.599 Y120.199 E0.6661
G1 X106.146 Y120.144 E0.6968
G1 X104.916 Y121.374 E0.8137
G1 X104.104 Y121.177 E0.8698
G1 X104.072 Y121.087 E0.8762
G1 X105.219 Y119.940 E0.9853
G1 X104.462 Y119.586 E1.0414
G1 X104.451 Y119.576 E1.0424
G1 X103.770 Y120.258 E1.1071
G1 X103.468 Y119.428 E1.1664
G1 X103.866 Y119.030 E1.2042
G1 X103.639 Y118.819 E1.2251
G1 X103.392 Y118.373 E1.2593
G1 X103.166 Y118.599 E1.2808
G1 X102.864 Y117.769 E1.3401
G1 X103.045 Y117.588 E1.3573
G1 X102.878 Y116.730 E1.4160
G1 X102.893 Y116.609 E1.4242
G1 X102.562 Y116.940 E1.4557
G1 X102.260 Y116.110 E1.5150
G1 X103.241 Y115.129 E1.6082
G1 X103.491 Y114.593 E1.6480
G1 X104.259 Y113.770 E1.7236
G1 X105.026 Y113.345 E1.7825
G1 X105.832 Y112.539 E1.8591
G1 X104.053 Y113.186 E1.9863
G1 X101.958 Y115.281 E2.1853
G1 X106.476 Y113.025 F4800
G92 E0
G1 X107.611 Y111.891 E0.1078 F389
G1 X107.872 Y111.796 E0.1265
G1 X108.648 Y111.985 E0.1801
G1 X107.480 Y113.154 E0.2912
G1 X108.251 Y113.514 E0.3484
G1 X109.080 Y112.685 E0.4271
G1 X109.382 Y113.514 E0.4864
G1 X108.893 Y114.003 E0.5329
G1 X109.308 Y114.390 E0.5710
G1 X109.425 Y114.602 E0.5873
G1 X109.684 Y114.344 E0.6118
G1 X109.986 Y115.173 E0.6711
G1 X109.829 Y115.330 E0.6860
G1 X109.853 Y115.374 E0.6894
G1 X110.026 Y116.264 E0.7503
G1 X110.287 Y116.003 E0.7751
G1 X110.589 Y116.832 E0.8344
G1 X109.946 Y117.476 E0.8956
G92 E0
G1 E-9.0000 F1988
; support
G1 X105.587 Y117.550 F4800
G1 E0.0000 F1988
G92 E0
G1 X108.121 Y117.550 E0.1702 F389
G1 X108.315 Y117.133 E0.2012
G1 X108.388 Y116.538 E0.2415
G1 X108.274 Y115.949 E0.2817
G1 X107.983 Y115.425 E0.3220
G1 X107.545 Y115.016 E0.3623
G1 X107.261 Y114.883 E0.3834
G1 X105.674 Y114.883 E0.4900
G92 E0
G1 E-9.0000 F1988
; layer 3, Z = 0.580
; outer perimeter
G1 X101.960 Y113.352 F4800
G1 Z0.580 F1002
G1 E0.0000 F1988
G92 E0
G1 X107.840 Y111.212 E0.4204 F474
G1 X109.266 Y111.559 E0.5190
G1 X111.856 Y118.674 E1.0278
G1 X110.987 Y119.857 E1.1264
G1 X105.106 Y121.997 E1.5468
G1 X103.680 Y121.650 E1.6454
G1 X101.091 Y114.535 E2.1541
G1 X101.960 Y113.352 E2.2527
G1 X103.961 Y114.910 F4800
G92 E0
G1 X103.561 Y115.769 E0.0637 F474
G1 X103.445 Y116.710 E0.1274
G1 X103.626 Y117.641 E0.1911
G1 X104.086 Y118.470 E0.2548
G1 X104.779 Y119.116 E0.3185
G1 X105.638 Y119.517 E0.3821
G1 X106.579 Y119.633 E0.4458
G1 X107.510 Y119.452 E0.5095
G1 X108.339 Y118.992 E0.5732
G1 X108.985 Y118.299 E0.6369
G1 X109.386 Y117.440 E0.7006
G1 X109.501 Y116.499 E0.7643
G1 X109.321 Y115.568 E0.8280
G1 X108.861 Y114.739 E0.8917
G1 X108.168 Y114.092 E0.9554
G1 X107.308 Y113.692 E1.0191
G1 X106.368 Y113.576 E1.0827
G1 X105.437 Y113.757 E1.1464
G1 X104.608 Y114.217 E1.2101
G1 X103.961 Y114.910 E1.2738
; solid layer
G1 X108.463 Y111.940 F4800
G92 E0
G1 X109.006 Y112.483 E0.0516 F399
G1 X109.654 Y114.262 E0.1788
G1 X107.371 Y111.979 E0.3957
G1 X106.541 Y112.280 E0.4550
G1 X107.399 Y113.139 E0.5366
G1 X106.348 Y113.010 E0.6078
G1 X106.173 Y113.044 E0.6198
G1 X105.712 Y112.582 E0.6636
G1 X104.882 Y112.884 E0.7229
G1 X105.230 Y113.232 E0.7559
G1 X104.502 Y113.635 E0.8118
G1 X104.053 Y113.186 E0.8545
G1 X103.223 Y113.488 E0.9138
G1 X103.895 Y114.160 E0.9776
G1 X103.491 Y114.593 E1.0174
G1 X103.398 Y114.794 E1.0323
G1 X102.394 Y113.790 E1.1277
G1 X102.311 Y113.820 E1.1336
G1 X101.879 Y114.407 E1.1825
G1 X103.038 Y115.565 E1.2926
G1 X103.016 Y115.613 E1.2961
G1 X102.900 Y116.559 E1.3601
G1 X102.151 Y115.810 E1.4313
G1 X102.798 Y117.589 E1.5585
G1 X103.154 Y117.944 E1.5923
G1 X103.639 Y118.819 E1.6594
G1 X104.462 Y119.586 E1.7351
G1 X105.088 Y119.879 E1.7815
G1 X106.209 Y121.000 E1.8880
G1 X105.380 Y121.302 E1.9473
G1 X103.446 Y119.367 E2.1311
G1 X104.093 Y121.146 E2.2583
G1 X104.130 Y121.183 E2.2618
G1 X106.532 Y120.191 F4800
G92 E0
G1 X107.039 Y120.698 E0.0482 F399
G1 X107.868 Y120.396 E0.1075
G1 X107.497 Y120.025 E0.1427
G1 X107.703 Y119.984 E0.1569
G1 X108.273 Y119.669 E0.2006
G1 X108.698 Y120.094 E0.2410
G1 X109.527 Y119.792 E0.3003
G1 X108.922 Y119.187 E0.3578
G1 X109.455 Y118.616 E0.4103
G1 X109.464 Y118.597 E0.4116
G1 X110.357 Y119.490 E0.4965
G1 X110.636 Y119.389 E0.5164
G1 X110.954 Y118.956 E0.5525
G1 X109.824 Y117.826 E0.6599
G1 X109.931 Y117.596 E0.6769
G1 X110.018 Y116.889 E0.7248
G1 X110.949 Y117.819 E0.8133
G1 X110.301 Y116.041 E0.9404
G1 X109.906 Y115.645 E0.9780
G92 E0
G1 E-9.0000 F1988
; support
G1 X105.674 Y114.883 F4800
G1 E0.0000 F1988
G92 E0
G1 X107.261 Y114.883 E0.1066 F399
G1 X107.545 Y115.016 E0.1277
G1 X107.983 Y115.425 E0.1679
G1 X108.274 Y115.949 E0.2082
G1 X108.388 Y116.538 E0.2485
G1 X108.315 Y117.133 E0.2888
G1 X108.121 Y117.550 E0.3197
G1 X105.587 Y117.550 E0.4900
G92 E0
G1 E-9.0000 F1988
; layer 4, Z = 0.780
; outer perimeter
G1 X105.106 Y121.997 F4800
G1 Z0.780 F1002
