; G-Code generated by Simplify3D(R) Version 4.0.0
; Mar 30, 2022 at 5:39:08 PM
; Settings Summary
;   processName,Process1
;   applyToModels,Boom_Rod_Linkage_20Deg_L
;   profileName,Default (modified)
;   profileVersion,2017-03-01 08:00:00
;   baseProfile,
;   printMaterial,
;   printQuality,
;   printExtruders,
;   extruderName,Primary Extruder
;   extruderToolheadNumber,0
;   extruderDiameter,0.4
;   extruderAutoWidth,0
;   extruderWidth,0.8
;   extrusionMultiplier,1.01
;   extruderUseRetract,1
;   extruderRetractionDistance,9
;   extruderExtraRestartDistance,0
;   extruderRetractionZLift,0
;   extruderRetractionSpeed,1988
;   extruderUseCoasting,0
;   extruderCoastingDistance,0.2
;   extruderUseWipe,0
;   extruderWipeDistance,5
;   primaryExtruder,0
;   layerHeight,0.2
;   topSolidLayers,4
;   bottomSolidLayers,4
;   perimeterOutlines,1
;   printPerimetersInsideOut,1
;   startPointOption,2
;   startPointOriginX,0
;   startPointOriginY,0
;   sequentialIslands,0
;   spiralVaseMode,0
;   firstLayerHeightPercentage,90
;   firstLayerWidthPercentage,100
;   firstLayerUnderspeed,0.5
;   useRaft,0
;   raftExtruder,0
;   raftTopLayers,3
;   raftBaseLayers,2
;   raftOffset,3
;   raftSeparationDistance,0.14
;   raftTopInfill,100
;   aboveRaftSpeedMultiplier,0.3
;   useSkirt,1
;   skirtExtruder,0
;   skirtLayers,1
;   skirtOutlines,1
;   skirtOffset,0.3
;   usePrimePillar,0
;   primePillarExtruder,999
;   primePillarWidth,12
;   primePillarLocation,7
;   primePillarSpeedMultiplier,1
;   useOozeShield,0
;   oozeShieldExtruder,999
;   oozeShieldOffset,2
;   oozeShieldOutlines,1
;   oozeShieldSidewallShape,1
;   oozeShieldSidewallAngle,30
;   oozeShieldSpeedMultiplier,1
;   infillExtruder,0
;   internalInfillPattern,Rectilinear
;   externalInfillPattern,Rectilinear
;   infillPercentage,35
;   outlineOverlapPercentage,30
;   infillExtrusionWidthPercentage,100
;   minInfillLength,5
;   infillLayerInterval,1
;   internalInfillAngles,45,-45
;   overlapInternalInfillAngles,0
;   externalInfillAngles,45,-45
;   generateSupport,1
;   supportExtruder,0
;   supportInfillPercentage,30
;   supportExtraInflation,0
;   supportBaseLayers,0
;   denseSupportExtruder,0
;   denseSupportLayers,0
;   denseSupportInfillPercentage,70
;   supportLayerInterval,1
;   supportHorizontalPartOffset,0.3
;   supportUpperSeparationLayers,1
;   supportLowerSeparationLayers,1
;   supportType,0
;   supportGridSpacing,4
;   maxOverhangAngle,45
;   supportAngles,0
;   temperatureName,Primary Extruder,Bed
;   temperatureNumber,0,0
;   temperatureSetpointCount,1,1
;   temperatureSetpointLayers,1,1
;   temperatureSetpointTemperatures,205,60
;   temperatureStabilizeAtStartup,1,1
;   temperatureHeatedBed,0,1
;   temperatureRelayBetweenLayers,0,0
;   temperatureRelayBetweenLoops,0,0
;   fanLayers,1,2
;   fanSpeeds,0,100
;   blipFanToFullPower,0
;   adjustSpeedForCooling,1
;   minSpeedLayerTime,15
;   minCoolingSpeedSlowdown,20
;   increaseFanForCooling,0
;   minFanLayerTime,45
;   maxCoolingFanSpeed,100
;   increaseFanForBridging,0
;   bridgingFanSpeed,100
;   use5D,1
;   relativeEdistances,0
;   allowEaxisZeroing,1
;   independentExtruderAxes,0
;   includeM10123,0
;   stickySupport,1
;   applyToolheadOffsets,0
;   gcodeXoffset,0
;   gcodeYoffset,0
;   gcodeZoffset,0
;   overrideMachineDefinition,1
;   machineTypeOverride,0
;   strokeXoverride,220
;   strokeYoverride,220
;   strokeZoverride,220
;   originOffsetXoverride,0
;   originOffsetYoverride,0
;   originOffsetZoverride,0
;   homeXdirOverride,-1
;   homeYdirOverride,-1
;   homeZdirOverride,-1
;   flipXoverride,1
;   flipYoverride,-1
;   flipZoverride,1
;   toolheadOffsets,0,0|0,0|0,0|0,0|0,0|0,0
;   overrideFirmwareConfiguration,0
;   firmwareTypeOverride,RepRap (Marlin/Repetier/Sprinter)
;   GPXconfigOverride,r2
;   baudRateOverride,115200
;   overridePrinterModels,0
;   printerModelsOverride
;   startingGcode,G28 ; home all axes
;   layerChangeGcode,
;   retractionGcode,
;   toolChangeGcode,
;   endingGcode,M104 S0 ; turn off extruder,M140 S0 ; turn off bed,M84 ; disable motors,G28 ; home all axes
;   exportFileFormat,gcode
;   celebration,0
;   celebrationSong,Random Song
;   postProcessing,
;   defaultSpeed,1900
;   outlineUnderspeed,0.95
;   solidInfillUnderspeed,0.8
;   supportUnderspeed,0.8
;   rapidXYspeed,4800
;   rapidZspeed,1002
;   minBridgingArea,50
;   bridgingExtraInflation,0
;   bridgingExtrusionMultiplier,1
;   bridgingSpeedMultiplier,1
;   useFixedBridgingAngle,0
;   fixedBridgingAngle,0
;   applyBridgingToPerimeters,0
;   filamentDiameters,1.75|1.75|1.75|1.75|1.75|1.75
;   filamentPricesPerKg,46|46|46|46|46|46
;   filamentDensities,1.25|1.25|1.25|1.25|1.25|1.25
;   useMinPrintHeight,0
;   minPrintHeight,0
;   useMaxPrintHeight,0
;   maxPrintHeight,0
;   useDiaphragm,0
;   diaphragmLayerInterval,20
;   robustSlicing,1
;   mergeAllIntoSolid,0
;   onlyRetractWhenCrossingOutline,1
;   retractBetweenLayers,1
;   useRetractionMinTravel,0
;   retractionMinTravel,3
;   retractWhileWiping,0
;   onlyWipeOutlines,1
;   avoidCrossingOutline,0
;   maxMovementDetourFactor,3
;   toolChangeRetractionDistance,12
;   toolChangeExtraRestartDistance,-0.5
;   toolChangeRetractionSpeed,600
;   externalThinWallType,0
;   internalThinWallType,2
;   thinWallAllowedOverlapPercentage,10
;   singleExtrusionMinLength,1
;   singleExtrusionMinPrintingWidthPercentage,50
;   singleExtrusionMaxPrintingWidthPercentage,200
;   singleExtrusionEndpointExtension,0.2
;   horizontalSizeCompensation,0
G90
M82
M106 S0
M140 S60
M190 S60
M104 S205 T0
M109 S205 T0
G28 ; home all axes
G92 E0
G1 E-9.0000 F1988
G1 Z0.180 F1002
; process Process1
; layer 1, Z = 0.180
T0
; tool H0.200 W0.800
; skirt
G1 X109.871 Y110.783 F4800
G1 E0.0000 F596
G92 E0
G1 X110.057 Y110.617 E0.0167 F487
G1 X110.145 Y110.571 E0.0234
G1 X112.089 Y110.097 E0.1578
G1 X112.148 Y110.091 E0.1618
G1 X112.295 Y110.100 E0.1717
G1 X112.353 Y110.111 E0.1757
G1 X118.600 Y112.385 E0.6223
G1 X118.652 Y112.413 E0.6263
G1 X118.770 Y112.502 E0.6362
G1 X118.811 Y112.544 E0.6402
G1 X119.996 Y114.156 E0.7746
G1 X120.034 Y114.248 E0.7812
G1 X120.069 Y114.494 E0.7980
G1 X120.059 Y114.593 E0.8046
G1 X117.237 Y122.344 E1.3589
G1 X117.182 Y122.426 E1.3655
G1 X116.996 Y122.592 E1.3822
G1 X116.909 Y122.638 E1.3889
G1 X114.965 Y123.112 E1.5233
G1 X114.906 Y123.118 E1.5273
G1 X114.758 Y123.109 E1.5372
G1 X114.701 Y123.098 E1.5412
G1 X108.454 Y120.824 E1.9878
G1 X108.402 Y120.796 E1.9918
G1 X108.284 Y120.707 E2.0017
G1 X108.242 Y120.665 E2.0056
G1 X107.057 Y119.053 E2.1401
G1 X107.020 Y118.961 E2.1467
G1 X106.985 Y118.715 E2.1635
G1 X106.995 Y118.616 E2.1701
G1 X109.816 Y110.865 E2.7243
G1 X109.871 Y110.783 E2.7310
G92 E0
G1 E-9.0000 F1988
; outer perimeter
G1 X110.734 Y111.559 F4800
G1 E0.0000 F1988
G92 E0
G1 X112.160 Y111.212 E0.0986 F463
G1 X118.040 Y113.352 E0.5190
G1 X118.909 Y114.535 E0.6176
G1 X116.320 Y121.650 E1.1264
G1 X114.894 Y121.997 E1.2250
G1 X109.013 Y119.857 E1.6454
G1 X108.144 Y118.674 E1.7440
G1 X110.734 Y111.559 E2.2527
G1 X111.832 Y114.093 F4800
G92 E0
G1 X111.139 Y114.739 E0.0637 F463
G1 X110.679 Y115.568 E0.1274
G1 X110.499 Y116.499 E0.1911
G1 X110.614 Y117.440 E0.2548
G1 X111.015 Y118.299 E0.3185
G1 X111.661 Y118.992 E0.3821
G1 X112.490 Y119.452 E0.4458
G1 X113.421 Y119.633 E0.5095
G1 X114.362 Y119.517 E0.5732
G1 X115.221 Y119.116 E0.6369
G1 X115.914 Y118.470 E0.7006
G1 X116.374 Y117.641 E0.7643
G1 X116.555 Y116.710 E0.8280
G1 X116.439 Y115.769 E0.8917
G1 X116.039 Y114.910 E0.9554
G1 X115.392 Y114.217 E1.0191
G1 X114.563 Y113.757 E1.0827
G1 X113.632 Y113.576 E1.1464
G1 X112.692 Y113.692 E1.2101
G1 X111.832 Y114.093 E1.2738
; solid layer
G1 X115.947 Y113.186 F4800
G92 E0
G1 X118.042 Y115.281 E0.1990 F390
G1 X117.740 Y116.110 E0.2583
G1 X116.759 Y115.129 E0.3515
G1 X116.509 Y114.593 E0.3913
G1 X115.741 Y113.770 E0.4669
G1 X114.975 Y113.345 E0.5258
G1 X114.168 Y112.539 E0.6024
G1 X112.389 Y111.891 E0.7296
G1 X113.524 Y113.026 E0.8374
G1 X112.535 Y113.147 E0.9043
G1 X112.521 Y113.154 E0.9054
G1 X111.352 Y111.985 E1.0164
G1 X111.158 Y112.032 E1.0298
G1 X110.920 Y112.685 E1.0765
G1 X111.749 Y113.514 E1.1552
G1 X111.515 Y113.622 E1.1725
G1 X111.107 Y114.003 E1.2100
G1 X110.618 Y113.514 E1.2565
G1 X110.316 Y114.344 E1.3158
G1 X110.575 Y114.602 E1.3404
G1 X110.171 Y115.330 E1.3963
G1 X110.014 Y115.173 E1.4112
G1 X109.713 Y116.003 E1.4705
G1 X109.974 Y116.264 E1.4953
G1 X109.932 Y116.479 E1.5100
G1 X110.054 Y117.476 E1.5775
G1 X109.411 Y116.832 E1.6386
G1 X109.109 Y117.662 E1.6980
G1 X111.678 Y120.231 E1.9421
G1 X109.899 Y119.583 E2.0693
G1 X108.807 Y118.491 E2.1731
G1 X112.627 Y120.049 F4800
G92 E0
G1 X113.457 Y120.878 E0.0788 F390
G1 X114.926 Y121.413 E0.1838
G1 X115.084 Y121.374 E0.1948
G1 X113.854 Y120.144 E0.3117
G1 X114.518 Y120.062 E0.3567
G1 X114.781 Y119.940 E0.3762
G1 X115.928 Y121.087 E0.4852
G1 X116.230 Y120.258 E0.5445
G1 X115.549 Y119.576 E0.6093
G1 X116.134 Y119.030 E0.6630
G1 X116.532 Y119.428 E0.7008
G1 X116.834 Y118.599 E0.7601
G1 X116.608 Y118.373 E0.7816
G1 X116.907 Y117.835 E0.8229
G1 X116.955 Y117.588 E0.8398
G1 X117.136 Y117.769 E0.8570
G1 X117.438 Y116.940 E0.9163
G1 X117.107 Y116.608 E0.9478
G92 E0
G1 E-9.0000 F1988
; support
G1 X112.739 Y114.883 F4800
G1 E0.0000 F1988
G92 E0
G1 X114.326 Y114.883 E0.1066 F390
G1 X114.413 Y114.932 E0.1133
G1 X114.413 Y117.550 E0.2892
G1 X111.879 Y117.550 E0.4595
G92 E0
G1 E-9.0000 F1988
; layer 2, Z = 0.380
M106 S255
; outer perimeter
G1 X109.013 Y119.857 F4800
G1 Z0.380 F1002
G1 E0.0000 F1988
G92 E0
G1 X108.144 Y118.674 E0.0986 F471
G1 X110.734 Y111.559 E0.6073
G1 X112.160 Y111.212 E0.7059
G1 X118.040 Y113.352 E1.1264
G1 X118.909 Y114.535 E1.2250
G1 X116.320 Y121.650 E1.7337
G1 X114.894 Y121.997 E1.8323
G1 X109.013 Y119.857 E2.2527
G1 X111.015 Y118.299 F4800
G92 E0
G1 X111.661 Y118.992 E0.0637 F471
G1 X112.490 Y119.452 E0.1274
G1 X113.421 Y119.633 E0.1911
G1 X114.362 Y119.517 E0.2548
G1 X115.221 Y119.116 E0.3185
G1 X115.914 Y118.470 E0.3821
G1 X116.374 Y117.641 E0.4458
G1 X116.555 Y116.710 E0.5095
G1 X116.439 Y115.769 E0.5732
G1 X116.039 Y114.910 E0.6369
G1 X115.392 Y114.217 E0.7006
G1 X114.563 Y113.757 E0.7643
G1 X113.632 Y113.576 E0.8280
G1 X112.692 Y113.692 E0.8917
G1 X111.832 Y114.093 E0.9554
G1 X111.139 Y114.739 E1.0191
G1 X110.679 Y115.568 E1.0827
G1 X110.499 Y116.499 E1.1464
G1 X110.614 Y117.440 E1.2101
G1 X111.015 Y118.299 E1.2738
G92 E0
G1 E-9.0000 F1988
; solid layer
G1 X112.601 Y113.139 F4800
G1 E0.0000 F1988
G92 E0
G1 X113.459 Y112.281 E0.0816 F396
G1 X114.288 Y112.582 E0.1409
G1 X113.827 Y113.044 E0.1847
G1 X114.757 Y113.224 E0.2483
G1 X114.770 Y113.232 E0.2494
G1 X115.118 Y112.884 E0.2824
G1 X115.947 Y113.186 E0.3417
G1 X115.498 Y113.635 E0.3843
G1 X115.741 Y113.770 E0.4030
G1 X116.105 Y114.160 E0.4388
G1 X116.777 Y113.488 E0.5027
G1 X117.606 Y113.790 E0.5620
G1 X116.602 Y114.794 E0.6574
G1 X116.962 Y115.565 E0.7146
G1 X118.121 Y114.407 E0.8246
G1 X118.281 Y114.625 E0.8428
G1 X117.849 Y115.810 E0.9275
G1 X117.100 Y116.559 E0.9986
G1 X115.907 Y121.146 F4800
G92 E0
G1 X115.870 Y121.183 E0.0035 F396
G1 X114.926 Y121.413 E0.0688
G1 X114.620 Y121.302 E0.0907
G1 X116.554 Y119.367 E0.2744
G1 X117.202 Y117.589 E0.4016
G1 X116.846 Y117.944 E0.4354
G1 X116.361 Y118.819 E0.5026
G1 X115.538 Y119.587 E0.5782
G1 X114.912 Y119.879 E0.6247
G1 X113.791 Y121.000 E0.7312
G1 X112.961 Y120.698 E0.7905
G1 X113.468 Y120.191 E0.8386
G1 X113.401 Y120.199 E0.8432
G1 X112.503 Y120.025 E0.9046
G1 X112.132 Y120.396 E0.9399
G1 X111.302 Y120.094 E0.9992
G1 X111.727 Y119.669 E1.0396
G1 X111.312 Y119.439 E1.0715
G1 X111.078 Y119.187 E1.0946
G1 X110.473 Y119.792 E1.1521
G1 X109.643 Y119.490 E1.2114
G1 X110.536 Y118.597 E1.2962
G1 X110.176 Y117.826 E1.3534
G1 X109.046 Y118.956 E1.4608
G1 X108.773 Y118.584 E1.4918
G1 X109.051 Y117.819 E1.5465
G1 X109.982 Y116.889 E1.6349
G1 X109.932 Y116.479 E1.6627
G1 X110.094 Y115.645 E1.7197
G1 X109.699 Y116.041 E1.7573
G1 X110.346 Y114.262 E1.8844
G1 X112.629 Y111.979 E2.1014
G1 X112.128 Y111.796 E2.1373
G1 X111.537 Y111.940 E2.1781
G1 X110.994 Y112.483 E2.2297
G92 E0
G1 E-9.0000 F1988
; support
G1 X112.739 Y114.883 F4800
G1 E0.0000 F1988
G92 E0
G1 X114.326 Y114.883 E0.1066 F396
G1 X114.413 Y114.932 E0.1133
G1 X114.413 Y117.550 E0.2892
G1 X111.879 Y117.550 E0.4595
G92 E0
G1 E-9.0000 F1988
; layer 3, Z = 0.580
; outer perimeter
G1 X109.013 Y119.857 F4800
G1 Z0.580 F1002
G1 E0.0000 F1988
G92 E0
G1 X108.144 Y118.674 E0.0986 F463
G1 X110.734 Y111.559 E0.6073
G1 X112.160 Y111.212 E0.7059
G1 X118.040 Y113.352 E1.1264
G1 X118.909 Y114.535 E1.2250
G1 X116.320 Y121.650 E1.7337
G1 X114.894 Y121.997 E1.8323
G1 X109.013 Y119.857 E2.2527
G1 X111.015 Y118.299 F4800
G92 E0
G1 X111.661 Y118.992 E0.0637 F463
G1 X112.490 Y119.452 E0.1274
G1 X113.421 Y119.633 E0.1911
G1 X114.362 Y119.517 E0.2548
G1 X115.221 Y119.116 E0.3185
G1 X115.914 Y118.470 E0.3821
G1 X116.374 Y117.641 E0.4458
G1 X116.555 Y116.710 E0.5095
G1 X116.439 Y115.769 E0.5732
G1 X116.039 Y114.910 E0.6369
G1 X115.392 Y114.217 E0.7006
G1 X114.563 Y113.757 E0.7643
G1 X113.632 Y113.576 E0.8280
G1 X112.692 Y113.692 E0.8917
G1 X111.832 Y114.093 E0.9554
G1 X111.139 Y114.739 E1.0191
G1 X110.679 Y115.568 E1.0827
G1 X110.499 Y116.499 E1.1464
G1 X110.614 Y117.440 E1.2101
G1 X111.015 Y118.299 E1.2738
; solid layer
G1 X108.807 Y118.491 F4800
G92 E0
G1 X109.899 Y119.583 E0.1038 F390
G1 X111.678 Y120.231 E0.2310
G1 X109.109 Y117.662 E0.4751
G1 X109.411 Y116.832 E0.5344
G1 X110.054 Y117.476 E0.5956
G1 X109.932 Y116.479 E0.6630
G1 X109.974 Y116.264 E0.6778
G1 X109.713 Y116.003 E0.7026
G1 X110.014 Y115.173 E0.7619
G1 X110.171 Y115.330 E0.7768
G1 X110.575 Y114.602 E0.8327
G1 X110.316 Y114.344 E0.8572
G1 X110.618 Y113.514 E0.9166
G1 X111.107 Y114.003 E0.9630
G1 X111.515 Y113.622 E1.0005
G1 X111.749 Y113.514 E1.0178
G1 X110.920 Y112.685 E1.0966
G1 X111.158 Y112.032 E1.1432
G1 X111.352 Y111.985 E1.1566
G1 X112.521 Y113.154 E1.2677
G1 X112.535 Y113.147 E1.2688
G1 X113.524 Y113.026 E1.3357
G1 X112.389 Y111.891 E1.4435
G1 X114.168 Y112.539 E1.5706
G1 X114.975 Y113.345 E1.6473
G1 X115.741 Y113.770 E1.7061
G1 X116.509 Y114.593 E1.7818
G1 X116.759 Y115.129 E1.8215
G1 X117.740 Y116.110 E1.9147
G1 X118.042 Y115.281 E1.9740
G1 X115.947 Y113.186 E2.1731
G1 X117.107 Y116.608 F4800
G92 E0
G1 X117.438 Y116.940 E0.0315 F390
G1 X117.136 Y117.769 E0.0908
G1 X116.955 Y117.588 E0.1080
G1 X116.907 Y117.835 E0.1249
G1 X116.608 Y118.373 E0.1662
G1 X116.834 Y118.599 E0.1877
G1 X116.532 Y119.428 E0.2470
G1 X116.134 Y119.030 E0.2848
G1 X115.549 Y119.576 E0.3386
G1 X116.230 Y120.258 E0.4033
G1 X115.928 Y121.087 E0.4626
G1 X114.781 Y119.940 E0.5716
G1 X114.518 Y120.062 E0.5911
G1 X113.854 Y120.144 E0.6361
G1 X115.084 Y121.374 E0.7530
G1 X114.926 Y121.413 E0.7640
G1 X113.457 Y120.878 E0.8690
G1 X112.627 Y120.049 E0.9478
G92 E0
G1 E-9.0000 F1988
; support
G1 X111.879 Y117.550 F4800
G1 E0.0000 F1988
G92 E0
G1 X114.413 Y117.550 E0.1702 F390
G1 X114.413 Y114.932 E0.3461
G1 X114.326 Y114.883 E0.3529
G1 X112.739 Y114.883 E0.4595
G92 E0
G1 E-9.0000 F1988
; layer 4, Z = 0.780
; outer perimeter
G1 X112.160 Y111.212 F4800
G1 Z0.780 F1002
G1 E0.0000 F1988
G92 E0
G1 X118.040 Y113.352 E0.4204 F471
G1 X118.909 Y114.535 E0.5190
G1 X116.320 Y121.650 E1.0278
G1 X114.894 Y121.997 E1.1264
G1 X109.013 Y119.857 E1.5468
G1 X108.144 Y118.674 E1.6454
G1 X110.734 Y111.559 E2.1541
G1 X112.160 Y111.212 E2.2527
G1 X112.692 Y113.692 F4800
G92 E0
G1 X111.832 Y114.093 E0.0637 F471
G1 X111.139 Y114.739 E0.1274
G1 X110.679 Y115.568 E0.1911
