; G-Code generated by Simplify3D(R) Version 4.0.0
; Mar 30, 2022 at 6:06:49 PM
; Settings Summary
;   processName,Process1
;   applyToModels,Canopy_Tail_V1.5
;   profileName,Default (modified)
;   profileVersion,2017-03-01 08:00:00
;   baseProfile,
;   printMaterial,
;   printQuality,
;   printExtruders,
;   extruderName,Primary Extruder
;   extruderToolheadNumber,0
;   extruderDiameter,0.4
;   extruderAutoWidth,0
;   extruderWidth,0.8
;   extrusionMultiplier,1.01
;   extruderUseRetract,1
;   extruderRetractionDistance,9
;   extruderExtraRestartDistance,0
;   extruderRetractionZLift,0
;   extruderRetractionSpeed,1988
;   extruderUseCoasting,0
;   extruderCoastingDistance,0.2
;   extruderUseWipe,0
;   extruderWipeDistance,5
;   primaryExtruder,0
;   layerHeight,0.2
;   topSolidLayers,4
;   bottomSolidLayers,4
;   perimeterOutlines,1
;   printPerimetersInsideOut,1
;   startPointOption,2
;   startPointOriginX,0
;   startPointOriginY,0
;   sequentialIslands,0
;   spiralVaseMode,0
;   firstLayerHeightPercentage,90
;   firstLayerWidthPercentage,100
;   firstLayerUnderspeed,0.5
;   useRaft,0
;   raftExtruder,0
;   raftTopLayers,3
;   raftBaseLayers,2
;   raftOffset,3
;   raftSeparationDistance,0.14
;   raftTopInfill,100
;   aboveRaftSpeedMultiplier,0.3
;   useSkirt,1
;   skirtExtruder,0
;   skirtLayers,1
;   skirtOutlines,1
;   skirtOffset,0.3
;   usePrimePillar,0
;   primePillarExtruder,999
;   primePillarWidth,12
;   primePillarLocation,7
;   primePillarSpeedMultiplier,1
;   useOozeShield,0
;   oozeShieldExtruder,999
;   oozeShieldOffset,2
;   oozeShieldOutlines,1
;   oozeShieldSidewallShape,1
;   oozeShieldSidewallAngle,30
;   oozeShieldSpeedMultiplier,1
;   infillExtruder,0
;   internalInfillPattern,Rectilinear
;   externalInfillPattern,Rectilinear
;   infillPercentage,35
;   outlineOverlapPercentage,30
;   infillExtrusionWidthPercentage,100
;   minInfillLength,5
;   infillLayerInterval,1
;   internalInfillAngles,45,-45
;   overlapInternalInfillAngles,0
;   externalInfillAngles,45,-45
;   generateSupport,1
;   supportExtruder,0
;   supportInfillPercentage,30
;   supportExtraInflation,0
;   supportBaseLayers,0
;   denseSupportExtruder,0
;   denseSupportLayers,0
;   denseSupportInfillPercentage,70
;   supportLayerInterval,1
;   supportHorizontalPartOffset,0.3
;   supportUpperSeparationLayers,1
;   supportLowerSeparationLayers,1
;   supportType,0
;   supportGridSpacing,4
;   maxOverhangAngle,45
;   supportAngles,0
;   temperatureName,Primary Extruder,Bed
;   temperatureNumber,0,0
;   temperatureSetpointCount,1,1
;   temperatureSetpointLayers,1,1
;   temperatureSetpointTemperatures,205,60
;   temperatureStabilizeAtStartup,1,1
;   temperatureHeatedBed,0,1
;   temperatureRelayBetweenLayers,0,0
;   temperatureRelayBetweenLoops,0,0
;   fanLayers,1,2
;   fanSpeeds,0,100
;   blipFanToFullPower,0
;   adjustSpeedForCooling,1
;   minSpeedLayerTime,15
;   minCoolingSpeedSlowdown,20
;   increaseFanForCooling,0
;   minFanLayerTime,45
;   maxCoolingFanSpeed,100
;   increaseFanForBridging,0
;   bridgingFanSpeed,100
;   use5D,1
;   relativeEdistances,0
;   allowEaxisZeroing,1
;   independentExtruderAxes,0
;   includeM10123,0
;   stickySupport,1
;   applyToolheadOffsets,0
;   gcodeXoffset,0
;   gcodeYoffset,0
;   gcodeZoffset,0
;   overrideMachineDefinition,1
;   machineTypeOverride,0
;   strokeXoverride,220
;   strokeYoverride,220
;   strokeZoverride,220
;   originOffsetXoverride,0
;   originOffsetYoverride,0
;   originOffsetZoverride,0
;   homeXdirOverride,-1
;   homeYdirOverride,-1
;   homeZdirOverride,-1
;   flipXoverride,1
;   flipYoverride,-1
;   flipZoverride,1
;   toolheadOffsets,0,0|0,0|0,0|0,0|0,0|0,0
;   overrideFirmwareConfiguration,0
;   firmwareTypeOverride,RepRap (Marlin/Repetier/Sprinter)
;   GPXconfigOverride,r2
;   baudRateOverride,115200
;   overridePrinterModels,0
;   printerModelsOverride
;   startingGcode,G28 ; home all axes
;   layerChangeGcode,
;   retractionGcode,
;   toolChangeGcode,
;   endingGcode,M104 S0 ; turn off extruder,M140 S0 ; turn off bed,M84 ; disable motors,G28 ; home all axes
;   exportFileFormat,gcode
;   celebration,0
;   celebrationSong,Random Song
;   postProcessing,
;   defaultSpeed,2000
;   outlineUnderspeed,0.95
;   solidInfillUnderspeed,0.8
;   supportUnderspeed,0.8
;   rapidXYspeed,4800
;   rapidZspeed,1002
;   minBridgingArea,50
;   bridgingExtraInflation,0
;   bridgingExtrusionMultiplier,1
;   bridgingSpeedMultiplier,1
;   useFixedBridgingAngle,0
;   fixedBridgingAngle,0
;   applyBridgingToPerimeters,0
;   filamentDiameters,1.75|1.75|1.75|1.75|1.75|1.75
;   filamentPricesPerKg,46|46|46|46|46|46
;   filamentDensities,1.25|1.25|1.25|1.25|1.25|1.25
;   useMinPrintHeight,0
;   minPrintHeight,0
;   useMaxPrintHeight,0
;   maxPrintHeight,0
;   useDiaphragm,0
;   diaphragmLayerInterval,20
;   robustSlicing,1
;   mergeAllIntoSolid,0
;   onlyRetractWhenCrossingOutline,1
;   retractBetweenLayers,1
;   useRetractionMinTravel,0
;   retractionMinTravel,3
;   retractWhileWiping,0
;   onlyWipeOutlines,1
;   avoidCrossingOutline,0
;   maxMovementDetourFactor,3
;   toolChangeRetractionDistance,12
;   toolChangeExtraRestartDistance,-0.5
;   toolChangeRetractionSpeed,600
;   externalThinWallType,0
;   internalThinWallType,2
;   thinWallAllowedOverlapPercentage,10
;   singleExtrusionMinLength,1
;   singleExtrusionMinPrintingWidthPercentage,50
;   singleExtrusionMaxPrintingWidthPercentage,200
;   singleExtrusionEndpointExtension,0.2
;   horizontalSizeCompensation,0
G90
M82
M106 S0
M140 S60
M190 S60
M104 S205 T0
M109 S205 T0
G28 ; home all axes
G92 E0
G1 E-9.0000 F1988
G1 Z0.180 F1002
; process Process1
; layer 1, Z = 0.180
T0
; tool H0.200 W0.800
; skirt
G1 X80.361 Y49.649 F4800
G1 E0.0000 F596
G92 E0
G1 X80.649 Y49.361 E0.0274 F1000
G1 X80.796 Y49.300 E0.0381
G1 X96.790 Y49.300 E1.1126
G1 X96.949 Y49.141 E1.1278
G1 X97.096 Y49.080 E1.1384
G1 X122.904 Y49.080 E2.8723
G1 X123.051 Y49.141 E2.8830
G1 X123.210 Y49.300 E2.8982
G1 X139.204 Y49.300 E3.9727
G1 X139.351 Y49.361 E3.9834
G1 X139.639 Y49.649 E4.0108
G1 X139.700 Y49.796 E4.0215
G1 X139.700 Y69.080 E5.3171
G1 X140.424 Y69.080 E5.3657
G1 X140.571 Y69.141 E5.3764
G1 X140.859 Y69.429 E5.4038
G1 X140.920 Y69.576 E5.4145
G1 X140.920 Y94.424 E7.0839
G1 X140.859 Y94.571 E7.0946
G1 X140.571 Y94.859 E7.1220
G1 X140.486 Y94.894 E7.1281
G1 X140.544 Y95.013 E7.1370
G1 X140.903 Y95.595 E7.1829
G1 X141.319 Y96.137 E7.2289
G1 X141.788 Y96.635 E7.2748
G1 X142.304 Y97.084 E7.3207
G1 X143.245 Y97.745 E7.3980
G1 X143.253 Y97.752 E7.3988
G1 X143.274 Y97.768 E7.4006
G1 X143.283 Y97.775 E7.4013
G1 X143.762 Y98.196 E7.4441
G1 X143.772 Y98.205 E7.4450
G1 X143.795 Y98.228 E7.4472
G1 X143.804 Y98.238 E7.4481
G1 X144.227 Y98.720 E7.4912
G1 X144.235 Y98.730 E7.4920
G1 X144.255 Y98.755 E7.4942
G1 X144.263 Y98.766 E7.4951
G1 X144.619 Y99.299 E7.5382
G1 X144.626 Y99.310 E7.5391
G1 X144.642 Y99.339 E7.5413
G1 X144.648 Y99.350 E7.5422
G1 X144.932 Y99.925 E7.5852
G1 X144.937 Y99.937 E7.5861
G1 X144.950 Y99.967 E7.5883
G1 X144.954 Y99.980 E7.5892
G1 X145.160 Y100.587 E7.6323
G1 X145.164 Y100.599 E7.6331
G1 X145.173 Y100.631 E7.6353
G1 X145.176 Y100.644 E7.6362
G1 X145.301 Y101.272 E7.6793
G1 X145.303 Y101.285 E7.6802
G1 X145.307 Y101.318 E7.6824
G1 X145.308 Y101.331 E7.6832
G1 X145.350 Y101.971 E7.7263
G1 X145.351 Y101.984 E7.7272
G1 X145.351 Y102.016 E7.7294
G1 X145.350 Y102.029 E7.7303
G1 X145.308 Y102.669 E7.7734
G1 X145.307 Y102.682 E7.7742
G1 X145.303 Y102.715 E7.7764
G1 X145.301 Y102.728 E7.7773
G1 X145.176 Y103.356 E7.8204
G1 X145.173 Y103.369 E7.8213
G1 X145.164 Y103.401 E7.8235
G1 X145.160 Y103.413 E7.8243
G1 X144.954 Y104.020 E7.8674
G1 X144.950 Y104.033 E7.8683
G1 X144.937 Y104.063 E7.8705
G1 X144.932 Y104.075 E7.8714
G1 X144.648 Y104.650 E7.9144
G1 X144.642 Y104.661 E7.9153
G1 X144.626 Y104.690 E7.9175
G1 X144.619 Y104.701 E7.9184
G1 X144.263 Y105.234 E7.9615
G1 X144.255 Y105.245 E7.9624
G1 X144.235 Y105.270 E7.9646
G1 X144.227 Y105.280 E7.9654
G1 X143.804 Y105.762 E8.0085
G1 X143.795 Y105.772 E8.0094
G1 X143.772 Y105.795 E8.0116
G1 X143.762 Y105.805 E8.0125
G1 X143.276 Y106.230 E8.0559
G1 X143.268 Y106.236 E8.0566
G1 X143.247 Y106.253 E8.0584
G1 X143.238 Y106.259 E8.0591
G1 X142.304 Y106.916 E8.1359
G1 X141.788 Y107.365 E8.1818
G1 X141.319 Y107.863 E8.2277
G1 X140.903 Y108.405 E8.2737
G1 X140.544 Y108.987 E8.3196
G1 X140.244 Y109.602 E8.3656
G1 X140.008 Y110.244 E8.4115
G1 X139.838 Y110.907 E8.4575
G1 X139.735 Y111.583 E8.5034
G1 X139.700 Y112.284 E8.5506
G1 X139.700 Y159.273 E11.7076
G1 X139.730 Y159.946 E11.7528
G1 X139.820 Y160.600 E11.7972
G1 X139.966 Y161.240 E11.8413
G1 X140.170 Y161.865 E11.8855
G1 X140.431 Y162.471 E11.9298
G1 X141.064 Y163.651 E12.0198
G1 X141.069 Y163.661 E12.0205
G1 X141.080 Y163.686 E12.0223
G1 X141.085 Y163.696 E12.0231
G1 X141.332 Y164.310 E12.0675
G1 X141.335 Y164.320 E12.0683
G1 X141.344 Y164.345 E12.0700
G1 X141.347 Y164.355 E12.0707
G1 X141.528 Y164.991 E12.1151
G1 X141.530 Y165.001 E12.1158
G1 X141.536 Y165.027 E12.1176
G1 X141.538 Y165.037 E12.1183
G1 X141.650 Y165.689 E12.1628
G1 X141.652 Y165.700 E12.1635
G1 X141.655 Y165.726 E12.1653
G1 X141.656 Y165.736 E12.1660
G1 X141.699 Y166.395 E12.2104
G1 X141.699 Y166.406 E12.2111
G1 X141.700 Y166.433 E12.2129
G1 X141.700 Y166.443 E12.2136
G1 X141.673 Y167.104 E12.2580
G1 X141.672 Y167.114 E12.2587
G1 X141.669 Y167.140 E12.2605
G1 X141.668 Y167.151 E12.2612
G1 X141.571 Y167.805 E12.3056
G1 X141.570 Y167.815 E12.3063
G1 X141.564 Y167.841 E12.3081
G1 X141.562 Y167.852 E12.3088
G1 X141.397 Y168.492 E12.3532
G1 X141.394 Y168.502 E12.3539
G1 X141.386 Y168.527 E12.3557
G1 X141.383 Y168.537 E12.3564
G1 X141.151 Y169.156 E12.4008
G1 X141.147 Y169.166 E12.4015
G1 X141.136 Y169.190 E12.4033
G1 X141.132 Y169.200 E12.4040
G1 X140.836 Y169.791 E12.4484
G1 X140.831 Y169.800 E12.4491
G1 X140.818 Y169.823 E12.4509
G1 X140.812 Y169.832 E12.4516
G1 X140.394 Y170.485 E12.5037
G1 X140.321 Y170.553 E12.5104
G1 X140.098 Y170.675 E12.5275
G1 X140.000 Y170.700 E12.5343
G1 X135.731 Y170.700 E12.8211
G1 X135.509 Y170.515 E12.8405
G1 X135.366 Y169.738 E12.8936
G1 X135.509 Y169.485 E12.9131
G1 X136.236 Y169.210 E12.9653
G1 X136.610 Y169.005 E12.9939
G1 X136.950 Y168.751 E13.0225
G1 X137.251 Y168.450 E13.0510
G1 X137.505 Y168.110 E13.0796
G1 X137.709 Y167.737 E13.1081
G1 X137.858 Y167.339 E13.1367
G1 X137.948 Y166.924 E13.1652
G1 X137.978 Y166.501 E13.1937
G1 X137.947 Y166.070 E13.2228
G1 X137.858 Y165.661 E13.2509
G1 X137.709 Y165.263 E13.2794
G1 X137.505 Y164.890 E13.3080
G1 X137.251 Y164.550 E13.3365
G1 X136.950 Y164.249 E13.3651
G1 X136.610 Y163.995 E13.3936
G1 X136.237 Y163.791 E13.4222
G1 X135.839 Y163.642 E13.4507
G1 X135.424 Y163.552 E13.4793
G1 X135.000 Y163.522 E13.5078
G1 X134.576 Y163.552 E13.5364
G1 X134.161 Y163.642 E13.5649
G1 X133.763 Y163.791 E13.5935
G1 X133.390 Y163.995 E13.6220
G1 X133.050 Y164.249 E13.6506
G1 X132.749 Y164.550 E13.6791
G1 X132.495 Y164.890 E13.7077
G1 X132.291 Y165.263 E13.7362
G1 X132.142 Y165.661 E13.7648
G1 X132.052 Y166.076 E13.7933
G1 X132.022 Y166.499 E13.8218
G1 X132.053 Y166.930 E13.8508
G1 X132.142 Y167.339 E13.8790
G1 X132.291 Y167.737 E13.9075
G1 X132.495 Y168.110 E13.9361
G1 X132.749 Y168.450 E13.9646
G1 X133.050 Y168.751 E13.9931
G1 X133.390 Y169.005 E14.0217
G1 X133.764 Y169.210 E14.0504
G1 X134.491 Y169.485 E14.1026
G1 X134.633 Y169.738 E14.1220
G1 X134.491 Y170.515 E14.1751
G1 X134.269 Y170.700 E14.1946
G1 X85.731 Y170.700 E17.4556
G1 X85.509 Y170.515 E17.4750
G1 X85.366 Y169.738 E17.5281
G1 X85.509 Y169.485 E17.5476
G1 X86.236 Y169.210 E17.5998
G1 X86.610 Y169.005 E17.6285
G1 X86.950 Y168.751 E17.6570
G1 X87.251 Y168.450 E17.6856
G1 X87.505 Y168.110 E17.7141
G1 X87.709 Y167.737 E17.7427
G1 X87.858 Y167.339 E17.7712
G1 X87.948 Y166.924 E17.7998
G1 X87.978 Y166.501 E17.8283
G1 X87.947 Y166.070 E17.8573
G1 X87.858 Y165.661 E17.8854
G1 X87.709 Y165.263 E17.9140
G1 X87.505 Y164.890 E17.9425
G1 X87.251 Y164.550 E17.9710
G1 X86.950 Y164.249 E17.9996
G1 X86.610 Y163.995 E18.0281
G1 X86.237 Y163.791 E18.0567
G1 X85.839 Y163.642 E18.0852
G1 X85.424 Y163.552 E18.1138
G1 X85.000 Y163.522 E18.1423
G1 X84.576 Y163.552 E18.1709
G1 X84.161 Y163.642 E18.1994
G1 X83.763 Y163.791 E18.2280
G1 X83.390 Y163.995 E18.2565
G1 X83.050 Y164.249 E18.2851
G1 X82.749 Y164.550 E18.3136
G1 X82.494 Y164.890 E18.3422
G1 X82.291 Y165.263 E18.3707
G1 X82.142 Y165.661 E18.3993
G1 X82.052 Y166.076 E18.4278
G1 X82.022 Y166.499 E18.4563
G1 X82.053 Y166.930 E18.4853
G1 X82.142 Y167.339 E18.5135
G1 X82.291 Y167.737 E18.5420
G1 X82.495 Y168.110 E18.5706
G1 X82.749 Y168.450 E18.5991
G1 X83.050 Y168.751 E18.6277
G1 X83.390 Y169.005 E18.6562
G1 X83.764 Y169.210 E18.6849
G1 X84.491 Y169.485 E18.7371
G1 X84.634 Y169.738 E18.7566
G1 X84.491 Y170.515 E18.8096
G1 X84.269 Y170.700 E18.8291
G1 X80.000 Y170.700 E19.1159
G1 X79.902 Y170.675 E19.1227
G1 X79.679 Y170.553 E19.1397
G1 X79.606 Y170.485 E19.1465
G1 X79.188 Y169.832 E19.1985
G1 X79.182 Y169.823 E19.1993
G1 X79.169 Y169.800 E19.2010
G1 X79.164 Y169.791 E19.2017
G1 X78.868 Y169.200 E19.2462
G1 X78.864 Y169.190 E19.2469
G1 X78.853 Y169.166 E19.2486
G1 X78.849 Y169.156 E19.2494
G1 X78.617 Y168.537 E19.2938
G1 X78.614 Y168.527 E19.2945
G1 X78.606 Y168.502 E19.2963
G1 X78.603 Y168.492 E19.2970
G1 X78.438 Y167.852 E19.3414
G1 X78.436 Y167.841 E19.3421
G1 X78.430 Y167.815 E19.3439
G1 X78.429 Y167.805 E19.3446
G1 X78.332 Y167.151 E19.3890
G1 X78.331 Y167.140 E19.3897
G1 X78.328 Y167.114 E19.3915
G1 X78.327 Y167.104 E19.3922
G1 X78.300 Y166.443 E19.4366
G1 X78.300 Y166.433 E19.4373
G1 X78.301 Y166.406 E19.4391
G1 X78.301 Y166.396 E19.4398
G1 X78.344 Y165.736 E19.4842
G1 X78.345 Y165.725 E19.4849
G1 X78.348 Y165.699 E19.4867
G1 X78.350 Y165.689 E19.4874
G1 X78.462 Y165.037 E19.5318
G1 X78.464 Y165.027 E19.5325
G1 X78.470 Y165.001 E19.5343
G1 X78.472 Y164.991 E19.5350
G1 X78.653 Y164.355 E19.5794
G1 X78.656 Y164.345 E19.5801
G1 X78.665 Y164.320 E19.5819
G1 X78.668 Y164.310 E19.5826
G1 X78.915 Y163.696 E19.6271
G1 X78.920 Y163.686 E19.6278
G1 X78.931 Y163.661 E19.6297
G1 X78.936 Y163.651 E19.6304
G1 X79.569 Y162.471 E19.7204
G1 X79.829 Y161.866 E19.7646
G1 X80.036 Y161.229 E19.8096
G1 X80.181 Y160.598 E19.8531
G1 X80.270 Y159.946 E19.8973
G1 X80.300 Y159.273 E19.9426
G1 X80.300 Y112.284 E23.0996
G1 X80.265 Y111.583 E23.1467
G1 X80.162 Y110.907 E23.1927
G1 X79.991 Y110.244 E23.2387
G1 X79.756 Y109.602 E23.2846
G1 X79.456 Y108.987 E23.3305
G1 X79.097 Y108.406 E23.3765
G1 X78.681 Y107.863 E23.4224
G1 X78.212 Y107.365 E23.4684
G1 X77.696 Y106.916 E23.5143
G1 X76.755 Y106.255 E23.5916
G1 X76.747 Y106.248 E23.5923
G1 X76.726 Y106.232 E23.5941
G1 X76.717 Y106.225 E23.5948
G1 X76.238 Y105.804 E23.6377
G1 X76.228 Y105.795 E23.6386
G1 X76.205 Y105.772 E23.6408
G1 X76.196 Y105.762 E23.6417
G1 X75.773 Y105.280 E23.6847
G1 X75.765 Y105.270 E23.6856
G1 X75.745 Y105.244 E23.6878
G1 X75.737 Y105.234 E23.6887
G1 X75.381 Y104.701 E23.7318
G1 X75.374 Y104.690 E23.7326
G1 X75.358 Y104.661 E23.7348
G1 X75.352 Y104.650 E23.7357
G1 X75.068 Y104.075 E23.7788
G1 X75.063 Y104.063 E23.7797
G1 X75.050 Y104.033 E23.7819
G1 X75.046 Y104.020 E23.7828
G1 X74.840 Y103.413 E23.8258
G1 X74.836 Y103.400 E23.8267
G1 X74.827 Y103.369 E23.8289
G1 X74.824 Y103.356 E23.8298
G1 X74.699 Y102.728 E23.8729
G1 X74.697 Y102.715 E23.8737
G1 X74.693 Y102.682 E23.8759
G1 X74.692 Y102.669 E23.8768
G1 X74.650 Y102.029 E23.9199
G1 X74.649 Y102.016 E23.9208
G1 X74.649 Y101.984 E23.9230
G1 X74.650 Y101.971 E23.9238
G1 X74.692 Y101.331 E23.9669
