; G-Code generated by Simplify3D(R) Version 4.0.0
; Mar 30, 2022 at 6:07:50 PM
; Settings Summary
;   processName,Process1
;   applyToModels,Canopy_Top_V1.5_Split_B
;   profileName,Default (modified)
;   profileVersion,2017-03-01 08:00:00
;   baseProfile,
;   printMaterial,
;   printQuality,
;   printExtruders,
;   extruderName,Primary Extruder
;   extruderToolheadNumber,0
;   extruderDiameter,0.4
;   extruderAutoWidth,0
;   extruderWidth,0.8
;   extrusionMultiplier,1.01
;   extruderUseRetract,1
;   extruderRetractionDistance,9
;   extruderExtraRestartDistance,0
;   extruderRetractionZLift,0
;   extruderRetractionSpeed,1988
;   extruderUseCoasting,0
;   extruderCoastingDistance,0.2
;   extruderUseWipe,0
;   extruderWipeDistance,5
;   primaryExtruder,0
;   layerHeight,0.2
;   topSolidLayers,4
;   bottomSolidLayers,4
;   perimeterOutlines,1
;   printPerimetersInsideOut,1
;   startPointOption,2
;   startPointOriginX,0
;   startPointOriginY,0
;   sequentialIslands,0
;   spiralVaseMode,0
;   firstLayerHeightPercentage,90
;   firstLayerWidthPercentage,100
;   firstLayerUnderspeed,0.5
;   useRaft,0
;   raftExtruder,0
;   raftTopLayers,3
;   raftBaseLayers,2
;   raftOffset,3
;   raftSeparationDistance,0.14
;   raftTopInfill,100
;   aboveRaftSpeedMultiplier,0.3
;   useSkirt,1
;   skirtExtruder,0
;   skirtLayers,1
;   skirtOutlines,1
;   skirtOffset,0.3
;   usePrimePillar,0
;   primePillarExtruder,999
;   primePillarWidth,12
;   primePillarLocation,7
;   primePillarSpeedMultiplier,1
;   useOozeShield,0
;   oozeShieldExtruder,999
;   oozeShieldOffset,2
;   oozeShieldOutlines,1
;   oozeShieldSidewallShape,1
;   oozeShieldSidewallAngle,30
;   oozeShieldSpeedMultiplier,1
;   infillExtruder,0
;   internalInfillPattern,Rectilinear
;   externalInfillPattern,Rectilinear
;   infillPercentage,35
;   outlineOverlapPercentage,30
;   infillExtrusionWidthPercentage,100
;   minInfillLength,5
;   infillLayerInterval,1
;   internalInfillAngles,45,-45
;   overlapInternalInfillAngles,0
;   externalInfillAngles,45,-45
;   generateSupport,1
;   supportExtruder,0
;   supportInfillPercentage,30
;   supportExtraInflation,0
;   supportBaseLayers,0
;   denseSupportExtruder,0
;   denseSupportLayers,0
;   denseSupportInfillPercentage,70
;   supportLayerInterval,1
;   supportHorizontalPartOffset,0.3
;   supportUpperSeparationLayers,1
;   supportLowerSeparationLayers,1
;   supportType,0
;   supportGridSpacing,4
;   maxOverhangAngle,45
;   supportAngles,0
;   temperatureName,Primary Extruder,Bed
;   temperatureNumber,0,0
;   temperatureSetpointCount,1,1
;   temperatureSetpointLayers,1,1
;   temperatureSetpointTemperatures,205,60
;   temperatureStabilizeAtStartup,1,1
;   temperatureHeatedBed,0,1
;   temperatureRelayBetweenLayers,0,0
;   temperatureRelayBetweenLoops,0,0
;   fanLayers,1,2
;   fanSpeeds,0,100
;   blipFanToFullPower,0
;   adjustSpeedForCooling,1
;   minSpeedLayerTime,15
;   minCoolingSpeedSlowdown,20
;   increaseFanForCooling,0
;   minFanLayerTime,45
;   maxCoolingFanSpeed,100
;   increaseFanForBridging,0
;   bridgingFanSpeed,100
;   use5D,1
;   relativeEdistances,0
;   allowEaxisZeroing,1
;   independentExtruderAxes,0
;   includeM10123,0
;   stickySupport,1
;   applyToolheadOffsets,0
;   gcodeXoffset,0
;   gcodeYoffset,0
;   gcodeZoffset,0
;   overrideMachineDefinition,1
;   machineTypeOverride,0
;   strokeXoverride,220
;   strokeYoverride,220
;   strokeZoverride,220
;   originOffsetXoverride,0
;   originOffsetYoverride,0
;   originOffsetZoverride,0
;   homeXdirOverride,-1
;   homeYdirOverride,-1
;   homeZdirOverride,-1
;   flipXoverride,1
;   flipYoverride,-1
;   flipZoverride,1
;   toolheadOffsets,0,0|0,0|0,0|0,0|0,0|0,0
;   overrideFirmwareConfiguration,0
;   firmwareTypeOverride,RepRap (Marlin/Repetier/Sprinter)
;   GPXconfigOverride,r2
;   baudRateOverride,115200
;   overridePrinterModels,0
;   printerModelsOverride
;   startingGcode,G28 ; home all axes
;   layerChangeGcode,
;   retractionGcode,
;   toolChangeGcode,
;   endingGcode,M104 S0 ; turn off extruder,M140 S0 ; turn off bed,M84 ; disable motors,G28 ; home all axes
;   exportFileFormat,gcode
;   celebration,0
;   celebrationSong,Random Song
;   postProcessing,
;   defaultSpeed,2000
;   outlineUnderspeed,0.95
;   solidInfillUnderspeed,0.8
;   supportUnderspeed,0.8
;   rapidXYspeed,4800
;   rapidZspeed,1002
;   minBridgingArea,50
;   bridgingExtraInflation,0
;   bridgingExtrusionMultiplier,1
;   bridgingSpeedMultiplier,1
;   useFixedBridgingAngle,0
;   fixedBridgingAngle,0
;   applyBridgingToPerimeters,0
;   filamentDiameters,1.75|1.75|1.75|1.75|1.75|1.75
;   filamentPricesPerKg,46|46|46|46|46|46
;   filamentDensities,1.25|1.25|1.25|1.25|1.25|1.25
;   useMinPrintHeight,0
;   minPrintHeight,0
;   useMaxPrintHeight,0
;   maxPrintHeight,0
;   useDiaphragm,0
;   diaphragmLayerInterval,20
;   robustSlicing,1
;   mergeAllIntoSolid,0
;   onlyRetractWhenCrossingOutline,1
;   retractBetweenLayers,1
;   useRetractionMinTravel,0
;   retractionMinTravel,3
;   retractWhileWiping,0
;   onlyWipeOutlines,1
;   avoidCrossingOutline,0
;   maxMovementDetourFactor,3
;   toolChangeRetractionDistance,12
;   toolChangeExtraRestartDistance,-0.5
;   toolChangeRetractionSpeed,600
;   externalThinWallType,0
;   internalThinWallType,2
;   thinWallAllowedOverlapPercentage,10
;   singleExtrusionMinLength,1
;   singleExtrusionMinPrintingWidthPercentage,50
;   singleExtrusionMaxPrintingWidthPercentage,200
;   singleExtrusionEndpointExtension,0.2
;   horizontalSizeCompensation,0
G90
M82
M106 S0
M140 S60
M190 S60
M104 S205 T0
M109 S205 T0
G28 ; home all axes
G92 E0
G1 E-9.0000 F1988
G1 Z0.180 F1002
; process Process1
; layer 1, Z = 0.180
T0
; tool H0.200 W0.800
; skirt
G1 X71.126 Y89.031 F4800
G1 E0.0000 F596
G92 E0
G1 X71.152 Y89.011 E0.0022 F1000
G1 X71.163 Y89.003 E0.0031
G1 X71.625 Y88.695 E0.0404
G1 X71.636 Y88.688 E0.0413
G1 X71.665 Y88.671 E0.0435
G1 X71.676 Y88.665 E0.0444
G1 X72.175 Y88.419 E0.0817
G1 X72.187 Y88.414 E0.0826
G1 X72.217 Y88.401 E0.0848
G1 X72.229 Y88.397 E0.0857
G1 X72.756 Y88.218 E0.1231
G1 X72.768 Y88.214 E0.1239
G1 X72.800 Y88.206 E0.1261
G1 X72.812 Y88.203 E0.1270
G1 X73.358 Y88.094 E0.1643
G1 X73.371 Y88.092 E0.1652
G1 X73.403 Y88.088 E0.1675
G1 X73.417 Y88.087 E0.1684
G1 X73.976 Y88.051 E0.2060
G1 X73.982 Y88.051 E0.2064
G1 X73.998 Y88.050 E0.2075
G1 X74.005 Y88.050 E0.2079
G1 X146.009 Y88.050 E5.0455
G1 X146.015 Y88.050 E5.0460
G1 X146.031 Y88.051 E5.0471
G1 X146.038 Y88.051 E5.0475
G1 X146.584 Y88.087 E5.0843
G1 X146.597 Y88.088 E5.0852
G1 X146.630 Y88.092 E5.0874
G1 X146.643 Y88.094 E5.0883
G1 X147.188 Y88.203 E5.1256
G1 X147.201 Y88.206 E5.1265
G1 X147.232 Y88.214 E5.1287
G1 X147.245 Y88.218 E5.1296
G1 X147.771 Y88.397 E5.1669
G1 X147.783 Y88.401 E5.1678
G1 X147.814 Y88.414 E5.1700
G1 X147.826 Y88.419 E5.1709
G1 X148.324 Y88.665 E5.2082
G1 X148.336 Y88.671 E5.2091
G1 X148.364 Y88.688 E5.2113
G1 X148.375 Y88.695 E5.2122
G1 X148.838 Y89.004 E5.2496
G1 X148.848 Y89.011 E5.2504
G1 X148.874 Y89.031 E5.2526
G1 X148.884 Y89.040 E5.2535
G1 X149.302 Y89.406 E5.2909
G1 X149.312 Y89.415 E5.2917
G1 X149.335 Y89.438 E5.2939
G1 X149.344 Y89.448 E5.2948
G1 X149.711 Y89.866 E5.3322
G1 X149.719 Y89.876 E5.3330
G1 X149.739 Y89.902 E5.3352
G1 X149.746 Y89.913 E5.3361
G1 X150.055 Y90.375 E5.3735
G1 X150.062 Y90.386 E5.3744
G1 X150.079 Y90.414 E5.3766
G1 X150.085 Y90.426 E5.3774
G1 X150.331 Y90.925 E5.4148
G1 X150.336 Y90.937 E5.4157
G1 X150.349 Y90.967 E5.4179
G1 X150.353 Y90.979 E5.4188
G1 X150.532 Y91.506 E5.4561
G1 X150.536 Y91.518 E5.4570
G1 X150.544 Y91.550 E5.4592
G1 X150.547 Y91.563 E5.4601
G1 X150.656 Y92.108 E5.4974
G1 X150.658 Y92.121 E5.4983
G1 X150.662 Y92.153 E5.5005
G1 X150.663 Y92.166 E5.5014
G1 X150.699 Y92.712 E5.5382
G1 X150.699 Y92.719 E5.5386
G1 X150.700 Y92.735 E5.5397
G1 X150.700 Y92.742 E5.5401
G1 X150.700 Y129.764 E8.0275
G1 X150.700 Y129.775 E8.0283
G1 X150.698 Y129.803 E8.0301
G1 X150.697 Y129.814 E8.0309
G1 X150.655 Y130.190 E8.0563
G1 X150.651 Y130.212 E8.0578
G1 X150.639 Y130.267 E8.0616
G1 X150.632 Y130.288 E8.0631
G1 X150.503 Y130.658 E8.0894
G1 X150.494 Y130.679 E8.0909
G1 X150.470 Y130.730 E8.0947
G1 X150.459 Y130.749 E8.0962
G1 X150.251 Y131.081 E8.1225
G1 X150.238 Y131.100 E8.1240
G1 X150.203 Y131.144 E8.1278
G1 X150.188 Y131.160 E8.1293
G1 X149.910 Y131.438 E8.1557
G1 X149.894 Y131.453 E8.1572
G1 X149.850 Y131.488 E8.1610
G1 X149.831 Y131.501 E8.1625
G1 X149.499 Y131.709 E8.1888
G1 X149.480 Y131.720 E8.1903
G1 X149.429 Y131.744 E8.1941
G1 X149.408 Y131.753 E8.1956
G1 X149.038 Y131.882 E8.2219
G1 X149.016 Y131.889 E8.2235
G1 X148.961 Y131.901 E8.2273
G1 X148.939 Y131.905 E8.2288
G1 X148.556 Y131.947 E8.2546
G1 X148.545 Y131.948 E8.2554
G1 X148.518 Y131.950 E8.2572
G1 X148.507 Y131.950 E8.2580
G1 X146.796 Y131.950 E8.3729
G1 X146.649 Y131.889 E8.3836
G1 X146.361 Y131.601 E8.4110
G1 X146.300 Y131.454 E8.4217
G1 X146.300 Y92.796 E11.0189
G1 X146.284 Y92.674 E11.0272
G1 X146.255 Y92.603 E11.0324
G1 X146.208 Y92.542 E11.0375
G1 X146.147 Y92.495 E11.0427
G1 X146.076 Y92.466 E11.0478
G1 X145.954 Y92.450 E11.0561
G1 X74.046 Y92.450 E15.8873
G1 X73.924 Y92.466 E15.8955
G1 X73.853 Y92.495 E15.9007
G1 X73.792 Y92.542 E15.9059
G1 X73.745 Y92.603 E15.9110
G1 X73.716 Y92.674 E15.9162
G1 X73.700 Y92.796 E15.9244
G1 X73.700 Y131.454 E18.5217
G1 X73.639 Y131.601 E18.5324
G1 X73.351 Y131.889 E18.5598
G1 X73.204 Y131.950 E18.5705
G1 X71.484 Y131.950 E18.6860
G1 X71.473 Y131.949 E18.6868
G1 X71.444 Y131.948 E18.6887
G1 X71.433 Y131.947 E18.6894
G1 X71.058 Y131.904 E18.7148
G1 X71.036 Y131.900 E18.7163
G1 X70.981 Y131.888 E18.7201
G1 X70.959 Y131.882 E18.7216
G1 X70.590 Y131.752 E18.7479
G1 X70.569 Y131.743 E18.7494
G1 X70.518 Y131.719 E18.7532
G1 X70.499 Y131.708 E18.7547
G1 X70.167 Y131.499 E18.7811
G1 X70.149 Y131.486 E18.7826
G1 X70.105 Y131.451 E18.7863
G1 X70.088 Y131.436 E18.7878
G1 X69.811 Y131.159 E18.8142
G1 X69.796 Y131.142 E18.8157
G1 X69.761 Y131.098 E18.8195
G1 X69.748 Y131.080 E18.8210
G1 X69.540 Y130.747 E18.8473
G1 X69.529 Y130.728 E18.8488
G1 X69.505 Y130.677 E18.8526
G1 X69.496 Y130.656 E18.8541
G1 X69.367 Y130.286 E18.8804
G1 X69.361 Y130.265 E18.8819
G1 X69.349 Y130.210 E18.8857
G1 X69.345 Y130.188 E18.8872
G1 X69.303 Y129.814 E18.9125
G1 X69.302 Y129.803 E18.9132
G1 X69.300 Y129.775 E18.9151
G1 X69.300 Y129.764 E18.9159
G1 X69.300 Y92.742 E21.4032
G1 X69.300 Y92.735 E21.4036
G1 X69.301 Y92.719 E21.4047
G1 X69.301 Y92.712 E21.4052
G1 X69.337 Y92.166 E21.4420
G1 X69.338 Y92.153 E21.4429
G1 X69.342 Y92.120 E21.4451
G1 X69.344 Y92.107 E21.4459
G1 X69.453 Y91.562 E21.4833
G1 X69.456 Y91.549 E21.4842
G1 X69.464 Y91.518 E21.4864
G1 X69.468 Y91.505 E21.4873
G1 X69.647 Y90.978 E21.5246
G1 X69.652 Y90.966 E21.5255
G1 X69.664 Y90.936 E21.5277
G1 X69.670 Y90.924 E21.5286
G1 X69.916 Y90.425 E21.5659
G1 X69.922 Y90.414 E21.5668
G1 X69.938 Y90.386 E21.5690
G1 X69.945 Y90.374 E21.5699
G1 X70.254 Y89.912 E21.6073
G1 X70.262 Y89.902 E21.6081
G1 X70.281 Y89.876 E21.6103
G1 X70.290 Y89.865 E21.6112
G1 X70.656 Y89.448 E21.6486
G1 X70.665 Y89.438 E21.6494
G1 X70.688 Y89.415 E21.6516
G1 X70.698 Y89.406 E21.6525
G1 X71.116 Y89.039 E21.6899
G1 X71.126 Y89.031 E21.6908
G92 E0
G1 E-9.0000 F1988
; outer perimeter
G1 X71.809 Y89.894 F4800
G1 E0.0000 F1988
G92 E0
G1 X72.201 Y89.633 E0.0316 F950
G1 X72.623 Y89.425 E0.0633
G1 X73.069 Y89.273 E0.0949
G1 X73.530 Y89.182 E0.1265
G1 X74.025 Y89.150 E0.1598
G1 X145.987 Y89.150 E4.9946
G1 X146.470 Y89.182 E5.0271
G1 X146.932 Y89.273 E5.0587
G1 X147.377 Y89.425 E5.0904
G1 X147.800 Y89.633 E5.1220
G1 X148.191 Y89.895 E5.1536
G1 X148.545 Y90.205 E5.1853
G1 X148.855 Y90.559 E5.2169
G1 X149.117 Y90.951 E5.2485
G1 X149.325 Y91.373 E5.2802
G1 X149.477 Y91.819 E5.3118
G1 X149.568 Y92.281 E5.3434
G1 X149.600 Y92.763 E5.3759
G1 X149.600 Y129.728 E7.8594
G1 X149.570 Y129.994 E7.8774
G1 X149.489 Y130.226 E7.8939
G1 X149.358 Y130.434 E7.9105
G1 X149.184 Y130.608 E7.9270
G1 X148.976 Y130.739 E7.9435
G1 X148.745 Y130.820 E7.9600
G1 X148.471 Y130.850 E7.9784
G1 X147.400 Y130.850 E8.0504
G1 X147.400 Y92.724 E10.6119
G1 X147.356 Y92.387 E10.6348
G1 X147.215 Y92.048 E10.6594
G1 X146.992 Y91.758 E10.6840
G1 X146.702 Y91.535 E10.7086
G1 X146.363 Y91.394 E10.7332
G1 X146.026 Y91.350 E10.7561
G1 X73.974 Y91.350 E15.5970
G1 X73.636 Y91.394 E15.6198
G1 X73.298 Y91.535 E15.6444
G1 X73.007 Y91.758 E15.6690
G1 X72.785 Y92.048 E15.6936
G1 X72.644 Y92.387 E15.7183
G1 X72.600 Y92.724 E15.7411
G1 X72.600 Y130.850 E18.3026
G1 X71.521 Y130.850 E18.3751
G1 X71.255 Y130.820 E18.3931
G1 X71.023 Y130.738 E18.4096
G1 X70.815 Y130.607 E18.4261
G1 X70.641 Y130.433 E18.4426
G1 X70.511 Y130.225 E18.4591
G1 X70.430 Y129.993 E18.4757
G1 X70.400 Y129.728 E18.4936
G1 X70.400 Y92.763 E20.9771
G1 X70.432 Y92.280 E21.0096
G1 X70.523 Y91.819 E21.0412
G1 X70.675 Y91.372 E21.0729
G1 X70.883 Y90.950 E21.1045
G1 X71.145 Y90.559 E21.1361
G1 X71.455 Y90.205 E21.1678
G1 X71.809 Y89.894 E21.1994
; solid layer
G1 X71.446 Y130.278 F4800
G92 E0
G1 X70.972 Y129.803 E0.0451 F800
G1 X70.960 Y129.696 E0.0523
G1 X70.960 Y128.660 E0.1219
G1 X72.040 Y129.740 E0.2246
G1 X72.040 Y128.609 E0.3006
G1 X70.960 Y127.529 E0.4032
G1 X70.960 Y126.397 E0.4792
G1 X72.040 Y127.477 E0.5818
G1 X72.040 Y126.346 E0.6578
G1 X70.960 Y125.266 E0.7604
G1 X70.960 Y124.134 E0.8364
G1 X72.040 Y125.214 E0.9391
G1 X72.040 Y124.083 E1.0151
G1 X70.960 Y123.003 E1.1177
G1 X70.960 Y121.872 E1.1937
G1 X72.040 Y122.952 E1.2963
G1 X72.040 Y121.820 E1.3723
G1 X70.960 Y120.740 E1.4749
G1 X70.960 Y119.609 E1.5510
G1 X72.040 Y120.689 E1.6536
G1 X72.040 Y119.558 E1.7296
G1 X70.960 Y118.478 E1.8322
G1 X70.960 Y117.346 E1.9082
G1 X72.040 Y118.426 E2.0108
G1 X72.040 Y117.295 E2.0868
G1 X70.960 Y116.215 E2.1895
G1 X70.960 Y115.083 E2.2655
G1 X72.040 Y116.163 E2.3681
G1 X72.040 Y115.032 E2.4441
G1 X70.960 Y113.952 E2.5467
G1 X70.960 Y112.821 E2.6227
G1 X72.040 Y113.901 E2.7253
G1 X72.040 Y112.769 E2.8014
G1 X70.960 Y111.689 E2.9040
G1 X70.960 Y110.558 E2.9800
G1 X72.040 Y111.638 E3.0826
G1 X72.040 Y110.507 E3.1586
G1 X70.960 Y109.427 E3.2612
G1 X70.960 Y108.295 E3.3372
G1 X72.040 Y109.375 E3.4398
G1 X72.040 Y108.244 E3.5159
G1 X70.960 Y107.164 E3.6185
G1 X70.960 Y106.032 E3.6945
G1 X72.040 Y107.112 E3.7971
G1 X72.040 Y105.981 E3.8731
G1 X70.960 Y104.901 E3.9757
G1 X70.960 Y103.770 E4.0517
G1 X72.040 Y104.850 E4.1544
G1 X72.040 Y103.718 E4.2304
G1 X70.960 Y102.638 E4.3330
G1 X70.960 Y101.507 E4.4090
G1 X72.040 Y102.587 E4.5116
G1 X72.040 Y101.456 E4.5876
G1 X70.960 Y100.376 E4.6902
G1 X70.960 Y99.244 E4.7663
G1 X72.040 Y100.324 E4.8689
G1 X72.040 Y99.193 E4.9449
G1 X70.960 Y98.113 E5.0475
G1 X70.960 Y96.982 E5.1235
G1 X72.040 Y98.062 E5.2261
G1 X72.040 Y96.930 E5.3021
G1 X70.960 Y95.850 E5.4048
G1 X70.960 Y94.719 E5.4808
G1 X72.040 Y95.799 E5.5834
G1 X72.040 Y94.667 E5.6594
G1 X70.960 Y93.587 E5.7620
G1 X70.960 Y92.781 E5.8162
G1 X70.980 Y92.476 E5.8367
G1 X72.040 Y93.536 E5.9374
G1 X72.040 Y92.687 E5.9945
G1 X72.073 Y92.438 E6.0114
G1 X71.203 Y91.568 E6.0940
G1 X71.369 Y91.231 E6.1193
G1 X71.590 Y90.900 E6.1460
G1 X71.626 Y90.859 E6.1496
G1 X72.398 Y91.632 E6.2230
G1 X72.608 Y91.358 E6.2462
G1 X72.975 Y91.077 E6.2772
G1 X72.203 Y90.305 E6.3506
G1 X72.481 Y90.119 E6.3731
G1 X72.838 Y89.943 E6.3998
G1 X72.938 Y89.909 E6.4069
G1 X73.833 Y90.804 E6.4919
G1 X73.937 Y90.790 E6.4989
G1 X74.951 Y90.790 E6.5671
G1 X73.881 Y89.720 E6.6687
G1 X74.043 Y89.710 E6.6796
G1 X75.002 Y89.710 E6.7440
G1 X76.082 Y90.790 E6.8467
G1 X77.214 Y90.790 E6.9227
G1 X76.134 Y89.710 E7.0253
