; G-Code generated by Simplify3D(R) Version 4.0.0
; Mar 30, 2022 at 6:07:25 PM
; Settings Summary
;   processName,Process1
;   applyToModels,Canopy_Top_V1.5_Split_A
;   profileName,Default (modified)
;   profileVersion,2017-03-01 08:00:00
;   baseProfile,
;   printMaterial,
;   printQuality,
;   printExtruders,
;   extruderName,Primary Extruder
;   extruderToolheadNumber,0
;   extruderDiameter,0.4
;   extruderAutoWidth,0
;   extruderWidth,0.8
;   extrusionMultiplier,1.01
;   extruderUseRetract,1
;   extruderRetractionDistance,9
;   extruderExtraRestartDistance,0
;   extruderRetractionZLift,0
;   extruderRetractionSpeed,1988
;   extruderUseCoasting,0
;   extruderCoastingDistance,0.2
;   extruderUseWipe,0
;   extruderWipeDistance,5
;   primaryExtruder,0
;   layerHeight,0.2
;   topSolidLayers,4
;   bottomSolidLayers,4
;   perimeterOutlines,1
;   printPerimetersInsideOut,1
;   startPointOption,2
;   startPointOriginX,0
;   startPointOriginY,0
;   sequentialIslands,0
;   spiralVaseMode,0
;   firstLayerHeightPercentage,90
;   firstLayerWidthPercentage,100
;   firstLayerUnderspeed,0.5
;   useRaft,0
;   raftExtruder,0
;   raftTopLayers,3
;   raftBaseLayers,2
;   raftOffset,3
;   raftSeparationDistance,0.14
;   raftTopInfill,100
;   aboveRaftSpeedMultiplier,0.3
;   useSkirt,1
;   skirtExtruder,0
;   skirtLayers,1
;   skirtOutlines,1
;   skirtOffset,0.3
;   usePrimePillar,0
;   primePillarExtruder,999
;   primePillarWidth,12
;   primePillarLocation,7
;   primePillarSpeedMultiplier,1
;   useOozeShield,0
;   oozeShieldExtruder,999
;   oozeShieldOffset,2
;   oozeShieldOutlines,1
;   oozeShieldSidewallShape,1
;   oozeShieldSidewallAngle,30
;   oozeShieldSpeedMultiplier,1
;   infillExtruder,0
;   internalInfillPattern,Rectilinear
;   externalInfillPattern,Rectilinear
;   infillPercentage,35
;   outlineOverlapPercentage,30
;   infillExtrusionWidthPercentage,100
;   minInfillLength,5
;   infillLayerInterval,1
;   internalInfillAngles,45,-45
;   overlapInternalInfillAngles,0
;   externalInfillAngles,45,-45
;   generateSupport,1
;   supportExtruder,0
;   supportInfillPercentage,30
;   supportExtraInflation,0
;   supportBaseLayers,0
;   denseSupportExtruder,0
;   denseSupportLayers,0
;   denseSupportInfillPercentage,70
;   supportLayerInterval,1
;   supportHorizontalPartOffset,0.3
;   supportUpperSeparationLayers,1
;   supportLowerSeparationLayers,1
;   supportType,0
;   supportGridSpacing,4
;   maxOverhangAngle,45
;   supportAngles,0
;   temperatureName,Primary Extruder,Bed
;   temperatureNumber,0,0
;   temperatureSetpointCount,1,1
;   temperatureSetpointLayers,1,1
;   temperatureSetpointTemperatures,205,60
;   temperatureStabilizeAtStartup,1,1
;   temperatureHeatedBed,0,1
;   temperatureRelayBetweenLayers,0,0
;   temperatureRelayBetweenLoops,0,0
;   fanLayers,1,2
;   fanSpeeds,0,100
;   blipFanToFullPower,0
;   adjustSpeedForCooling,1
;   minSpeedLayerTime,15
;   minCoolingSpeedSlowdown,20
;   increaseFanForCooling,0
;   minFanLayerTime,45
;   maxCoolingFanSpeed,100
;   increaseFanForBridging,0
;   bridgingFanSpeed,100
;   use5D,1
;   relativeEdistances,0
;   allowEaxisZeroing,1
;   independentExtruderAxes,0
;   includeM10123,0
;   stickySupport,1
;   applyToolheadOffsets,0
;   gcodeXoffset,0
;   gcodeYoffset,0
;   gcodeZoffset,0
;   overrideMachineDefinition,1
;   machineTypeOverride,0
;   strokeXoverride,220
;   strokeYoverride,220
;   strokeZoverride,220
;   originOffsetXoverride,0
;   originOffsetYoverride,0
;   originOffsetZoverride,0
;   homeXdirOverride,-1
;   homeYdirOverride,-1
;   homeZdirOverride,-1
;   flipXoverride,1
;   flipYoverride,-1
;   flipZoverride,1
;   toolheadOffsets,0,0|0,0|0,0|0,0|0,0|0,0
;   overrideFirmwareConfiguration,0
;   firmwareTypeOverride,RepRap (Marlin/Repetier/Sprinter)
;   GPXconfigOverride,r2
;   baudRateOverride,115200
;   overridePrinterModels,0
;   printerModelsOverride
;   startingGcode,G28 ; home all axes
;   layerChangeGcode,
;   retractionGcode,
;   toolChangeGcode,
;   endingGcode,M104 S0 ; turn off extruder,M140 S0 ; turn off bed,M84 ; disable motors,G28 ; home all axes
;   exportFileFormat,gcode
;   celebration,0
;   celebrationSong,Random Song
;   postProcessing,
;   defaultSpeed,2000
;   outlineUnderspeed,0.95
;   solidInfillUnderspeed,0.8
;   supportUnderspeed,0.8
;   rapidXYspeed,4800
;   rapidZspeed,1002
;   minBridgingArea,50
;   bridgingExtraInflation,0
;   bridgingExtrusionMultiplier,1
;   bridgingSpeedMultiplier,1
;   useFixedBridgingAngle,0
;   fixedBridgingAngle,0
;   applyBridgingToPerimeters,0
;   filamentDiameters,1.75|1.75|1.75|1.75|1.75|1.75
;   filamentPricesPerKg,46|46|46|46|46|46
;   filamentDensities,1.25|1.25|1.25|1.25|1.25|1.25
;   useMinPrintHeight,0
;   minPrintHeight,0
;   useMaxPrintHeight,0
;   maxPrintHeight,0
;   useDiaphragm,0
;   diaphragmLayerInterval,20
;   robustSlicing,1
;   mergeAllIntoSolid,0
;   onlyRetractWhenCrossingOutline,1
;   retractBetweenLayers,1
;   useRetractionMinTravel,0
;   retractionMinTravel,3
;   retractWhileWiping,0
;   onlyWipeOutlines,1
;   avoidCrossingOutline,0
;   maxMovementDetourFactor,3
;   toolChangeRetractionDistance,12
;   toolChangeExtraRestartDistance,-0.5
;   toolChangeRetractionSpeed,600
;   externalThinWallType,0
;   internalThinWallType,2
;   thinWallAllowedOverlapPercentage,10
;   singleExtrusionMinLength,1
;   singleExtrusionMinPrintingWidthPercentage,50
;   singleExtrusionMaxPrintingWidthPercentage,200
;   singleExtrusionEndpointExtension,0.2
;   horizontalSizeCompensation,0
G90
M82
M106 S0
M140 S60
M190 S60
M104 S205 T0
M109 S205 T0
G28 ; home all axes
G92 E0
G1 E-9.0000 F1988
G1 Z0.180 F1002
; process Process1
; layer 1, Z = 0.180
T0
; tool H0.200 W0.800
; skirt
G1 X70.149 Y88.514 F4800
G1 E0.0000 F596
G92 E0
G1 X70.167 Y88.501 E0.0015 F1000
G1 X70.500 Y88.291 E0.0279
G1 X70.519 Y88.280 E0.0294
G1 X70.570 Y88.256 E0.0332
G1 X70.591 Y88.247 E0.0347
G1 X70.960 Y88.118 E0.0610
G1 X70.982 Y88.112 E0.0625
G1 X71.036 Y88.099 E0.0663
G1 X71.058 Y88.096 E0.0678
G1 X71.433 Y88.053 E0.0931
G1 X71.444 Y88.052 E0.0939
G1 X71.472 Y88.050 E0.0958
G1 X71.484 Y88.050 E0.0965
G1 X73.204 Y88.050 E0.2121
G1 X73.351 Y88.111 E0.2228
G1 X73.639 Y88.399 E0.2502
G1 X73.700 Y88.546 E0.2609
G1 X73.700 Y127.205 E2.8582
G1 X73.716 Y127.326 E2.8664
G1 X73.745 Y127.397 E2.8715
G1 X73.792 Y127.458 E2.8767
G1 X73.853 Y127.505 E2.8819
G1 X73.924 Y127.534 E2.8870
G1 X74.045 Y127.550 E2.8952
G1 X145.954 Y127.550 E7.7265
G1 X146.076 Y127.534 E7.7347
G1 X146.147 Y127.505 E7.7399
G1 X146.208 Y127.458 E7.7450
G1 X146.255 Y127.397 E7.7502
G1 X146.284 Y127.326 E7.7553
G1 X146.300 Y127.205 E7.7636
G1 X146.300 Y88.546 E10.3609
G1 X146.361 Y88.399 E10.3715
G1 X146.649 Y88.111 E10.3989
G1 X146.796 Y88.050 E10.4096
G1 X148.514 Y88.050 E10.5250
G1 X148.525 Y88.050 E10.5258
G1 X148.553 Y88.052 E10.5277
G1 X148.564 Y88.053 E10.5284
G1 X148.939 Y88.095 E10.5538
G1 X148.961 Y88.099 E10.5553
G1 X149.016 Y88.111 E10.5590
G1 X149.037 Y88.117 E10.5605
G1 X149.406 Y88.246 E10.5868
G1 X149.427 Y88.255 E10.5883
G1 X149.478 Y88.279 E10.5921
G1 X149.497 Y88.290 E10.5936
G1 X149.830 Y88.499 E10.6200
G1 X149.849 Y88.512 E10.6215
G1 X149.893 Y88.547 E10.6253
G1 X149.910 Y88.562 E10.6268
G1 X150.186 Y88.838 E10.6531
G1 X150.201 Y88.855 E10.6546
G1 X150.236 Y88.899 E10.6584
G1 X150.249 Y88.917 E10.6599
G1 X150.459 Y89.250 E10.6863
G1 X150.470 Y89.269 E10.6878
G1 X150.494 Y89.320 E10.6916
G1 X150.503 Y89.341 E10.6931
G1 X150.632 Y89.710 E10.7194
G1 X150.638 Y89.732 E10.7209
G1 X150.651 Y89.786 E10.7246
G1 X150.654 Y89.808 E10.7261
G1 X150.697 Y90.183 E10.7515
G1 X150.698 Y90.194 E10.7522
G1 X150.700 Y90.223 E10.7541
G1 X150.700 Y90.234 E10.7549
G1 X150.700 Y127.258 E13.2424
G1 X150.700 Y127.265 E13.2428
G1 X150.699 Y127.281 E13.2439
G1 X150.699 Y127.288 E13.2444
G1 X150.663 Y127.834 E13.2811
G1 X150.662 Y127.847 E13.2820
G1 X150.658 Y127.879 E13.2842
G1 X150.656 Y127.892 E13.2851
G1 X150.547 Y128.437 E13.3224
G1 X150.544 Y128.450 E13.3233
G1 X150.536 Y128.481 E13.3255
G1 X150.532 Y128.494 E13.3264
G1 X150.354 Y129.020 E13.3637
G1 X150.349 Y129.032 E13.3646
G1 X150.337 Y129.062 E13.3668
G1 X150.331 Y129.074 E13.3677
G1 X150.085 Y129.574 E13.4051
G1 X150.079 Y129.585 E13.4059
G1 X150.062 Y129.614 E13.4081
G1 X150.055 Y129.625 E13.4090
G1 X149.747 Y130.087 E13.4464
G1 X149.739 Y130.097 E13.4472
G1 X149.719 Y130.123 E13.4494
G1 X149.711 Y130.134 E13.4503
G1 X149.345 Y130.551 E13.4876
G1 X149.336 Y130.561 E13.4885
G1 X149.313 Y130.584 E13.4907
G1 X149.303 Y130.593 E13.4916
G1 X148.885 Y130.960 E13.5290
G1 X148.875 Y130.968 E13.5299
G1 X148.849 Y130.988 E13.5321
G1 X148.838 Y130.996 E13.5330
G1 X148.376 Y131.305 E13.5703
G1 X148.365 Y131.312 E13.5712
G1 X148.336 Y131.328 E13.5734
G1 X148.325 Y131.334 E13.5742
G1 X147.827 Y131.580 E13.6116
G1 X147.815 Y131.585 E13.6124
G1 X147.785 Y131.598 E13.6146
G1 X147.773 Y131.603 E13.6155
G1 X147.245 Y131.782 E13.6529
G1 X147.233 Y131.785 E13.6538
G1 X147.201 Y131.794 E13.6560
G1 X147.188 Y131.797 E13.6569
G1 X146.643 Y131.905 E13.6942
G1 X146.631 Y131.908 E13.6951
G1 X146.598 Y131.912 E13.6973
G1 X146.585 Y131.913 E13.6982
G1 X146.039 Y131.949 E13.7350
G1 X146.032 Y131.949 E13.7354
G1 X146.016 Y131.950 E13.7365
G1 X146.009 Y131.950 E13.7369
G1 X73.992 Y131.950 E18.5755
G1 X73.985 Y131.950 E18.5759
G1 X73.969 Y131.949 E18.5770
G1 X73.962 Y131.949 E18.5774
G1 X73.416 Y131.913 E18.6142
G1 X73.403 Y131.912 E18.6151
G1 X73.371 Y131.908 E18.6173
G1 X73.358 Y131.906 E18.6182
G1 X72.813 Y131.797 E18.6555
G1 X72.800 Y131.794 E18.6564
G1 X72.769 Y131.786 E18.6586
G1 X72.756 Y131.782 E18.6595
G1 X72.230 Y131.604 E18.6968
G1 X72.218 Y131.599 E18.6977
G1 X72.187 Y131.586 E18.6999
G1 X72.176 Y131.581 E18.7007
G1 X71.676 Y131.335 E18.7381
G1 X71.665 Y131.329 E18.7390
G1 X71.636 Y131.312 E18.7412
G1 X71.625 Y131.305 E18.7421
G1 X71.163 Y130.997 E18.7794
G1 X71.153 Y130.989 E18.7803
G1 X71.127 Y130.969 E18.7825
G1 X71.116 Y130.961 E18.7834
G1 X70.699 Y130.595 E18.8207
G1 X70.689 Y130.586 E18.8216
G1 X70.666 Y130.563 E18.8238
G1 X70.657 Y130.553 E18.8247
G1 X70.290 Y130.135 E18.8621
G1 X70.282 Y130.125 E18.8630
G1 X70.262 Y130.099 E18.8652
G1 X70.254 Y130.088 E18.8660
G1 X69.945 Y129.626 E18.9034
G1 X69.938 Y129.615 E18.9042
G1 X69.922 Y129.587 E18.9064
G1 X69.916 Y129.575 E18.9073
G1 X69.670 Y129.077 E18.9446
G1 X69.665 Y129.065 E18.9455
G1 X69.652 Y129.035 E18.9477
G1 X69.647 Y129.022 E18.9486
G1 X69.468 Y128.495 E18.9860
G1 X69.465 Y128.483 E18.9869
G1 X69.456 Y128.451 E18.9891
G1 X69.453 Y128.438 E18.9900
G1 X69.345 Y127.893 E19.0273
G1 X69.342 Y127.880 E19.0282
G1 X69.338 Y127.848 E19.0304
G1 X69.337 Y127.835 E19.0313
G1 X69.301 Y127.289 E19.0680
G1 X69.301 Y127.282 E19.0685
G1 X69.300 Y127.266 E19.0696
G1 X69.300 Y127.259 E19.0700
G1 X69.300 Y90.236 E21.5574
G1 X69.300 Y90.225 E21.5582
G1 X69.302 Y90.197 E21.5601
G1 X69.303 Y90.186 E21.5608
G1 X69.345 Y89.811 E21.5862
G1 X69.349 Y89.789 E21.5877
G1 X69.361 Y89.734 E21.5914
G1 X69.367 Y89.713 E21.5929
G1 X69.496 Y89.344 E21.6192
G1 X69.505 Y89.323 E21.6207
G1 X69.529 Y89.272 E21.6245
G1 X69.540 Y89.253 E21.6260
G1 X69.749 Y88.920 E21.6524
G1 X69.762 Y88.901 E21.6539
G1 X69.797 Y88.857 E21.6577
G1 X69.812 Y88.840 E21.6592
G1 X70.088 Y88.564 E21.6855
G1 X70.105 Y88.549 E21.6870
G1 X70.149 Y88.514 E21.6908
G92 E0
G1 E-9.0000 F1988
; outer perimeter
G1 X70.815 Y89.393 F4800
G1 E0.0000 F1988
G92 E0
G1 X71.024 Y89.261 E0.0166 F950
G1 X71.255 Y89.180 E0.0330
G1 X71.521 Y89.150 E0.0510
G1 X72.600 Y89.150 E0.1235
G1 X72.600 Y127.277 E2.6851
G1 X72.644 Y127.613 E2.7079
G1 X72.784 Y127.951 E2.7325
G1 X73.007 Y128.242 E2.7571
G1 X73.298 Y128.465 E2.7817
G1 X73.636 Y128.605 E2.8063
G1 X73.973 Y128.650 E2.8291
G1 X146.026 Y128.650 E7.6701
G1 X146.363 Y128.606 E7.6929
G1 X146.701 Y128.466 E7.7175
G1 X146.992 Y128.243 E7.7421
G1 X147.215 Y127.952 E7.7667
G1 X147.355 Y127.614 E7.7913
G1 X147.400 Y127.277 E7.8142
G1 X147.400 Y89.150 E10.3757
G1 X148.478 Y89.150 E10.4481
G1 X148.743 Y89.180 E10.4661
G1 X148.975 Y89.261 E10.4826
G1 X149.184 Y89.392 E10.4991
G1 X149.357 Y89.565 E10.5156
G1 X149.489 Y89.774 E10.5322
G1 X149.570 Y90.005 E10.5486
G1 X149.600 Y90.271 E10.5666
G1 X149.600 Y127.237 E13.0502
G1 X149.568 Y127.719 E13.0827
G1 X149.477 Y128.181 E13.1143
G1 X149.326 Y128.626 E13.1459
G1 X149.117 Y129.049 E13.1776
G1 X148.856 Y129.440 E13.2092
G1 X148.546 Y129.794 E13.2408
G1 X148.191 Y130.105 E13.2725
G1 X147.800 Y130.367 E13.3041
G1 X147.378 Y130.575 E13.3357
G1 X146.932 Y130.726 E13.3674
G1 X146.470 Y130.818 E13.3990
G1 X145.988 Y130.850 E13.4315
G1 X74.013 Y130.850 E18.2671
G1 X73.531 Y130.818 E18.2996
G1 X73.069 Y130.727 E18.3312
G1 X72.624 Y130.576 E18.3628
G1 X72.201 Y130.367 E18.3945
G1 X71.810 Y130.106 E18.4261
G1 X71.456 Y129.796 E18.4577
G1 X71.145 Y129.441 E18.4894
G1 X70.883 Y129.050 E18.5210
G1 X70.675 Y128.628 E18.5526
G1 X70.524 Y128.182 E18.5843
G1 X70.432 Y127.721 E18.6159
G1 X70.400 Y127.238 E18.6484
G1 X70.400 Y90.272 E21.1319
G1 X70.430 Y90.007 E21.1499
G1 X70.511 Y89.775 E21.1664
G1 X70.642 Y89.566 E21.1829
G1 X70.815 Y89.393 E21.1994
; solid layer
G1 X72.040 Y90.142 F4800
G92 E0
G1 X71.608 Y89.710 E0.0410 F800
G1 X71.552 Y89.710 E0.0448
G1 X71.381 Y89.730 E0.0564
G1 X71.269 Y89.769 E0.0644
G1 X71.166 Y89.833 E0.0725
G1 X71.083 Y89.917 E0.0804
G1 X71.019 Y90.019 E0.0885
G1 X70.979 Y90.132 E0.0965
G1 X70.971 Y90.204 E0.1015
G1 X72.040 Y91.273 E0.2030
G1 X72.040 Y92.405 E0.2790
G1 X70.960 Y91.325 E0.3816
G1 X70.960 Y92.456 E0.4577
G1 X72.040 Y93.536 E0.5603
G1 X72.040 Y94.667 E0.6363
G1 X70.960 Y93.587 E0.7389
G1 X70.960 Y94.719 E0.8149
G1 X72.040 Y95.799 E0.9175
G1 X72.040 Y96.930 E0.9935
G1 X70.960 Y95.850 E1.0962
G1 X70.960 Y96.982 E1.1722
G1 X72.040 Y98.062 E1.2748
G1 X72.040 Y99.193 E1.3508
G1 X70.960 Y98.113 E1.4534
G1 X70.960 Y99.244 E1.5294
G1 X72.040 Y100.324 E1.6320
G1 X72.040 Y101.456 E1.7081
G1 X70.960 Y100.376 E1.8107
G1 X70.960 Y101.507 E1.8867
G1 X72.040 Y102.587 E1.9893
G1 X72.040 Y103.718 E2.0653
G1 X70.960 Y102.638 E2.1679
G1 X70.960 Y103.770 E2.2439
G1 X72.040 Y104.850 E2.3466
G1 X72.040 Y105.981 E2.4226
G1 X70.960 Y104.901 E2.5252
G1 X70.960 Y106.033 E2.6012
G1 X72.040 Y107.113 E2.7038
G1 X72.040 Y108.244 E2.7798
G1 X70.960 Y107.164 E2.8824
G1 X70.960 Y108.295 E2.9584
G1 X72.040 Y109.375 E3.0611
G1 X72.040 Y110.507 E3.1371
G1 X70.960 Y109.427 E3.2397
G1 X70.960 Y110.558 E3.3157
G1 X72.040 Y111.638 E3.4183
G1 X72.040 Y112.769 E3.4943
G1 X70.960 Y111.689 E3.5969
G1 X70.960 Y112.821 E3.6730
G1 X72.040 Y113.901 E3.7756
G1 X72.040 Y115.032 E3.8516
G1 X70.960 Y113.952 E3.9542
G1 X70.960 Y115.083 E4.0302
G1 X72.040 Y116.163 E4.1328
G1 X72.040 Y117.295 E4.2088
G1 X70.960 Y116.215 E4.3115
G1 X70.960 Y117.346 E4.3875
G1 X72.040 Y118.426 E4.4901
G1 X72.040 Y119.558 E4.5661
G1 X70.960 Y118.478 E4.6687
G1 X70.960 Y119.609 E4.7447
G1 X72.040 Y120.689 E4.8473
G1 X72.040 Y121.820 E4.9234
G1 X70.960 Y120.740 E5.0260
G1 X70.960 Y121.872 E5.1020
G1 X72.040 Y122.952 E5.2046
G1 X72.040 Y124.083 E5.2806
G1 X70.960 Y123.003 E5.3832
G1 X70.960 Y124.134 E5.4592
G1 X72.040 Y125.214 E5.5619
G1 X72.040 Y126.346 E5.6379
G1 X70.960 Y125.266 E5.7405
G1 X70.960 Y126.397 E5.8165
G1 X72.065 Y127.502 E5.9215
G1 X72.099 Y127.759 E5.9389
G1 X72.295 Y128.234 E5.9734
G1 X72.608 Y128.641 E6.0079
G1 X73.015 Y128.954 E6.0424
G1 X73.490 Y129.151 E6.0769
G1 X73.748 Y129.185 E6.0944
G1 X74.853 Y130.290 E6.1994
G1 X75.984 Y130.290 E6.2754
G1 X74.904 Y129.210 E6.3780
G1 X76.036 Y129.210 E6.4541
G1 X77.116 Y130.290 E6.5567
G1 X78.247 Y130.290 E6.6327
