; G-Code generated by Simplify3D(R) Version 4.0.0
; Mar 30, 2022 at 6:11:08 PM
; Settings Summary
;   processName,Process1
;   applyToModels,Clamp_Angle_Guide
;   profileName,Default (modified)
;   profileVersion,2017-03-01 08:00:00
;   baseProfile,
;   printMaterial,
;   printQuality,
;   printExtruders,
;   extruderName,Primary Extruder
;   extruderToolheadNumber,0
;   extruderDiameter,0.4
;   extruderAutoWidth,0
;   extruderWidth,0.8
;   extrusionMultiplier,1.01
;   extruderUseRetract,1
;   extruderRetractionDistance,9
;   extruderExtraRestartDistance,0
;   extruderRetractionZLift,0
;   extruderRetractionSpeed,1988
;   extruderUseCoasting,0
;   extruderCoastingDistance,0.2
;   extruderUseWipe,0
;   extruderWipeDistance,5
;   primaryExtruder,0
;   layerHeight,0.2
;   topSolidLayers,4
;   bottomSolidLayers,4
;   perimeterOutlines,1
;   printPerimetersInsideOut,1
;   startPointOption,2
;   startPointOriginX,0
;   startPointOriginY,0
;   sequentialIslands,0
;   spiralVaseMode,0
;   firstLayerHeightPercentage,90
;   firstLayerWidthPercentage,100
;   firstLayerUnderspeed,0.5
;   useRaft,0
;   raftExtruder,0
;   raftTopLayers,3
;   raftBaseLayers,2
;   raftOffset,3
;   raftSeparationDistance,0.14
;   raftTopInfill,100
;   aboveRaftSpeedMultiplier,0.3
;   useSkirt,1
;   skirtExtruder,0
;   skirtLayers,1
;   skirtOutlines,1
;   skirtOffset,0.3
;   usePrimePillar,0
;   primePillarExtruder,999
;   primePillarWidth,12
;   primePillarLocation,7
;   primePillarSpeedMultiplier,1
;   useOozeShield,0
;   oozeShieldExtruder,999
;   oozeShieldOffset,2
;   oozeShieldOutlines,1
;   oozeShieldSidewallShape,1
;   oozeShieldSidewallAngle,30
;   oozeShieldSpeedMultiplier,1
;   infillExtruder,0
;   internalInfillPattern,Rectilinear
;   externalInfillPattern,Rectilinear
;   infillPercentage,35
;   outlineOverlapPercentage,30
;   infillExtrusionWidthPercentage,100
;   minInfillLength,5
;   infillLayerInterval,1
;   internalInfillAngles,45,-45
;   overlapInternalInfillAngles,0
;   externalInfillAngles,45,-45
;   generateSupport,1
;   supportExtruder,0
;   supportInfillPercentage,30
;   supportExtraInflation,0
;   supportBaseLayers,0
;   denseSupportExtruder,0
;   denseSupportLayers,0
;   denseSupportInfillPercentage,70
;   supportLayerInterval,1
;   supportHorizontalPartOffset,0.3
;   supportUpperSeparationLayers,1
;   supportLowerSeparationLayers,1
;   supportType,0
;   supportGridSpacing,4
;   maxOverhangAngle,45
;   supportAngles,0
;   temperatureName,Primary Extruder,Bed
;   temperatureNumber,0,0
;   temperatureSetpointCount,1,1
;   temperatureSetpointLayers,1,1
;   temperatureSetpointTemperatures,205,60
;   temperatureStabilizeAtStartup,1,1
;   temperatureHeatedBed,0,1
;   temperatureRelayBetweenLayers,0,0
;   temperatureRelayBetweenLoops,0,0
;   fanLayers,1,2
;   fanSpeeds,0,100
;   blipFanToFullPower,0
;   adjustSpeedForCooling,1
;   minSpeedLayerTime,15
;   minCoolingSpeedSlowdown,20
;   increaseFanForCooling,0
;   minFanLayerTime,45
;   maxCoolingFanSpeed,100
;   increaseFanForBridging,0
;   bridgingFanSpeed,100
;   use5D,1
;   relativeEdistances,0
;   allowEaxisZeroing,1
;   independentExtruderAxes,0
;   includeM10123,0
;   stickySupport,1
;   applyToolheadOffsets,0
;   gcodeXoffset,0
;   gcodeYoffset,0
;   gcodeZoffset,0
;   overrideMachineDefinition,1
;   machineTypeOverride,0
;   strokeXoverride,220
;   strokeYoverride,220
;   strokeZoverride,220
;   originOffsetXoverride,0
;   originOffsetYoverride,0
;   originOffsetZoverride,0
;   homeXdirOverride,-1
;   homeYdirOverride,-1
;   homeZdirOverride,-1
;   flipXoverride,1
;   flipYoverride,-1
;   flipZoverride,1
;   toolheadOffsets,0,0|0,0|0,0|0,0|0,0|0,0
;   overrideFirmwareConfiguration,0
;   firmwareTypeOverride,RepRap (Marlin/Repetier/Sprinter)
;   GPXconfigOverride,r2
;   baudRateOverride,115200
;   overridePrinterModels,0
;   printerModelsOverride
;   startingGcode,G28 ; home all axes
;   layerChangeGcode,
;   retractionGcode,
;   toolChangeGcode,
;   endingGcode,M104 S0 ; turn off extruder,M140 S0 ; turn off bed,M84 ; disable motors,G28 ; home all axes
;   exportFileFormat,gcode
;   celebration,0
;   celebrationSong,Random Song
;   postProcessing,
;   defaultSpeed,2000
;   outlineUnderspeed,0.95
;   solidInfillUnderspeed,0.8
;   supportUnderspeed,0.8
;   rapidXYspeed,4800
;   rapidZspeed,1002
;   minBridgingArea,50
;   bridgingExtraInflation,0
;   bridgingExtrusionMultiplier,1
;   bridgingSpeedMultiplier,1
;   useFixedBridgingAngle,0
;   fixedBridgingAngle,0
;   applyBridgingToPerimeters,0
;   filamentDiameters,1.75|1.75|1.75|1.75|1.75|1.75
;   filamentPricesPerKg,46|46|46|46|46|46
;   filamentDensities,1.25|1.25|1.25|1.25|1.25|1.25
;   useMinPrintHeight,0
;   minPrintHeight,0
;   useMaxPrintHeight,0
;   maxPrintHeight,0
;   useDiaphragm,0
;   diaphragmLayerInterval,20
;   robustSlicing,1
;   mergeAllIntoSolid,0
;   onlyRetractWhenCrossingOutline,1
;   retractBetweenLayers,1
;   useRetractionMinTravel,0
;   retractionMinTravel,3
;   retractWhileWiping,0
;   onlyWipeOutlines,1
;   avoidCrossingOutline,0
;   maxMovementDetourFactor,3
;   toolChangeRetractionDistance,12
;   toolChangeExtraRestartDistance,-0.5
;   toolChangeRetractionSpeed,600
;   externalThinWallType,0
;   internalThinWallType,2
;   thinWallAllowedOverlapPercentage,10
;   singleExtrusionMinLength,1
;   singleExtrusionMinPrintingWidthPercentage,50
;   singleExtrusionMaxPrintingWidthPercentage,200
;   singleExtrusionEndpointExtension,0.2
;   horizontalSizeCompensation,0
G90
M82
M106 S0
M140 S60
M190 S60
M104 S205 T0
M109 S205 T0
G28 ; home all axes
G92 E0
G1 E-9.0000 F1988
G1 Z0.180 F1002
; process Process1
; layer 1, Z = 0.180
T0
; tool H0.200 W0.800
; skirt
G1 X91.036 Y100.149 F4800
G1 E0.0000 F596
G92 E0
G1 X91.324 Y99.861 E0.0274 F1000
G1 X91.471 Y99.800 E0.0381
G1 X125.335 Y99.800 E2.3133
G1 X125.343 Y99.800 E2.3138
G1 X125.363 Y99.801 E2.3151
G1 X125.370 Y99.801 E2.3156
G1 X125.869 Y99.841 E2.3492
G1 X125.885 Y99.842 E2.3503
G1 X125.924 Y99.849 E2.3529
G1 X125.939 Y99.852 E2.3540
G1 X126.435 Y99.971 E2.3883
G1 X126.450 Y99.975 E2.3893
G1 X126.487 Y99.987 E2.3920
G1 X126.502 Y99.993 E2.3930
G1 X126.973 Y100.188 E2.4273
G1 X126.988 Y100.194 E2.4283
G1 X127.023 Y100.212 E2.4310
G1 X127.036 Y100.220 E2.4320
G1 X127.471 Y100.486 E2.4663
G1 X127.484 Y100.495 E2.4674
G1 X127.516 Y100.518 E2.4700
G1 X127.528 Y100.528 E2.4710
G1 X127.916 Y100.859 E2.5053
G1 X127.928 Y100.870 E2.5064
G1 X127.955 Y100.898 E2.5090
G1 X127.966 Y100.909 E2.5101
G1 X128.297 Y101.297 E2.5443
G1 X128.307 Y101.309 E2.5454
G1 X128.330 Y101.341 E2.5480
G1 X128.339 Y101.354 E2.5491
G1 X128.605 Y101.789 E2.5834
G1 X128.613 Y101.803 E2.5844
G1 X128.631 Y101.838 E2.5871
G1 X128.638 Y101.852 E2.5881
G1 X128.833 Y102.323 E2.6224
G1 X128.838 Y102.338 E2.6234
G1 X128.850 Y102.375 E2.6261
G1 X128.855 Y102.390 E2.6271
G1 X128.974 Y102.886 E2.6614
G1 X128.977 Y102.902 E2.6624
G1 X128.983 Y102.941 E2.6651
G1 X128.985 Y102.956 E2.6661
G1 X129.025 Y103.465 E2.7004
G1 X129.025 Y103.480 E2.7015
G1 X129.025 Y103.520 E2.7041
G1 X129.025 Y103.535 E2.7052
G1 X128.985 Y104.044 E2.7394
G1 X128.983 Y104.059 E2.7405
G1 X128.977 Y104.098 E2.7431
G1 X128.974 Y104.114 E2.7442
G1 X128.855 Y104.610 E2.7784
G1 X128.850 Y104.625 E2.7795
G1 X128.838 Y104.662 E2.7821
G1 X128.833 Y104.677 E2.7832
G1 X128.638 Y105.148 E2.8175
G1 X128.631 Y105.162 E2.8185
G1 X128.613 Y105.197 E2.8211
G1 X128.605 Y105.211 E2.8222
G1 X128.339 Y105.646 E2.8565
G1 X128.330 Y105.659 E2.8575
G1 X128.307 Y105.691 E2.8602
G1 X128.297 Y105.703 E2.8612
G1 X127.966 Y106.091 E2.8955
G1 X127.955 Y106.102 E2.8966
G1 X127.928 Y106.130 E2.8992
G1 X127.916 Y106.141 E2.9002
G1 X127.528 Y106.472 E2.9345
G1 X127.516 Y106.482 E2.9356
G1 X127.484 Y106.505 E2.9382
G1 X127.471 Y106.514 E2.9393
G1 X127.036 Y106.780 E2.9735
G1 X127.023 Y106.788 E2.9746
G1 X126.988 Y106.806 E2.9772
G1 X126.973 Y106.812 E2.9783
G1 X126.502 Y107.007 E3.0125
G1 X126.487 Y107.013 E3.0136
G1 X126.450 Y107.025 E3.0162
G1 X126.435 Y107.029 E3.0173
G1 X125.939 Y107.148 E3.0516
G1 X125.924 Y107.151 E3.0526
G1 X125.885 Y107.158 E3.0553
G1 X125.869 Y107.159 E3.0563
G1 X125.379 Y107.198 E3.0894
G1 X125.371 Y107.198 E3.0899
G1 X125.351 Y107.199 E3.0912
G1 X125.344 Y107.199 E3.0917
G1 X114.328 Y107.200 E3.8318
G1 X114.037 Y107.229 E3.8515
G1 X113.791 Y107.304 E3.8687
G1 X113.565 Y107.427 E3.8860
G1 X113.368 Y107.592 E3.9033
G1 X113.207 Y107.792 E3.9206
G1 X113.088 Y108.021 E3.9379
G1 X113.017 Y108.268 E3.9551
G1 X112.997 Y108.524 E3.9724
G1 X113.027 Y108.780 E3.9897
G1 X113.103 Y109.010 E4.0060
G1 X113.726 Y110.012 E4.0852
G1 X113.729 Y110.017 E4.0856
G1 X113.737 Y110.030 E4.0866
G1 X113.740 Y110.035 E4.0870
G1 X114.158 Y110.806 E4.1460
G1 X114.162 Y110.813 E4.1465
G1 X114.171 Y110.830 E4.1478
G1 X114.174 Y110.837 E4.1484
G1 X114.532 Y111.641 E4.2075
G1 X114.535 Y111.648 E4.2080
G1 X114.543 Y111.666 E4.2093
G1 X114.545 Y111.674 E4.2098
G1 X114.840 Y112.503 E4.2689
G1 X114.842 Y112.510 E4.2695
G1 X114.848 Y112.529 E4.2708
G1 X114.850 Y112.536 E4.2713
G1 X115.079 Y113.386 E4.3304
G1 X115.081 Y113.394 E4.3310
G1 X115.085 Y113.413 E4.3323
G1 X115.087 Y113.421 E4.3328
G1 X115.248 Y114.285 E4.3919
G1 X115.250 Y114.293 E4.3924
G1 X115.252 Y114.313 E4.3938
G1 X115.253 Y114.320 E4.3943
G1 X115.347 Y115.195 E4.4534
G1 X115.348 Y115.203 E4.4539
G1 X115.349 Y115.223 E4.4552
G1 X115.349 Y115.230 E4.4558
G1 X115.374 Y116.110 E4.5149
G1 X115.374 Y116.118 E4.5154
G1 X115.374 Y116.137 E4.5167
G1 X115.374 Y116.145 E4.5172
G1 X115.330 Y117.024 E4.5764
G1 X115.329 Y117.031 E4.5769
G1 X115.327 Y117.051 E4.5782
G1 X115.327 Y117.059 E4.5787
G1 X115.214 Y117.931 E4.6378
G1 X115.213 Y117.939 E4.6384
G1 X115.210 Y117.959 E4.6397
G1 X115.208 Y117.966 E4.6402
G1 X115.028 Y118.827 E4.6993
G1 X115.026 Y118.835 E4.6998
G1 X115.021 Y118.854 E4.7012
G1 X115.019 Y118.862 E4.7017
G1 X114.716 Y119.897 E4.7742
G1 X114.613 Y120.024 E4.7852
G1 X114.241 Y120.217 E4.8133
G1 X114.079 Y120.230 E4.8243
G1 X110.850 Y119.146 E5.0531
G1 X110.732 Y119.047 E5.0634
G1 X110.548 Y118.699 E5.0899
G1 X110.532 Y118.546 E5.1002
G1 X110.791 Y117.622 E5.1647
G1 X110.917 Y116.906 E5.2136
G1 X110.972 Y116.180 E5.2625
G1 X110.953 Y115.453 E5.3113
G1 X110.863 Y114.731 E5.3602
G1 X110.701 Y114.022 E5.4091
G1 X110.469 Y113.332 E5.4580
G1 X110.169 Y112.669 E5.5069
G1 X109.805 Y112.039 E5.5557
G1 X109.381 Y111.448 E5.6046
G1 X108.899 Y110.903 E5.6535
G1 X108.366 Y110.408 E5.7024
G1 X107.786 Y109.969 E5.7513
G1 X107.165 Y109.589 E5.8001
G1 X106.510 Y109.274 E5.8490
G1 X105.826 Y109.025 E5.8979
G1 X105.121 Y108.846 E5.9468
G1 X104.401 Y108.737 E5.9957
G1 X103.675 Y108.701 E6.0445
G1 X102.948 Y108.737 E6.0934
G1 X102.229 Y108.846 E6.1423
G1 X101.524 Y109.025 E6.1912
G1 X100.840 Y109.274 E6.2401
G1 X100.184 Y109.589 E6.2889
G1 X99.564 Y109.969 E6.3378
G1 X98.984 Y110.408 E6.3867
G1 X98.450 Y110.903 E6.4356
G1 X97.969 Y111.448 E6.4845
G1 X97.544 Y112.039 E6.5333
G1 X97.180 Y112.669 E6.5822
G1 X96.881 Y113.332 E6.6311
G1 X96.649 Y114.022 E6.6800
G1 X96.487 Y114.731 E6.7289
G1 X96.396 Y115.453 E6.7777
G1 X96.378 Y116.180 E6.8266
G1 X96.432 Y116.906 E6.8755
G1 X96.558 Y117.622 E6.9244
G1 X96.818 Y118.546 E6.9888
G1 X96.801 Y118.699 E6.9992
G1 X96.617 Y119.047 E7.0256
G1 X96.500 Y119.146 E7.0360
G1 X93.431 Y120.177 E7.2535
G1 X93.399 Y120.184 E7.2557
G1 X93.319 Y120.197 E7.2611
G1 X93.287 Y120.200 E7.2633
G1 X91.471 Y120.200 E7.3853
G1 X91.324 Y120.139 E7.3960
G1 X91.036 Y119.851 E7.4234
G1 X90.975 Y119.704 E7.4341
G1 X90.975 Y100.296 E8.7380
G1 X91.036 Y100.149 E8.7487
G92 E0
G1 E-9.0000 F1988
; outer perimeter
G1 X92.075 Y100.900 F4800
G1 E0.0000 F1988
G92 E0
G1 X125.310 Y100.900 E2.2329 F950
G1 X125.732 Y100.933 E2.2614
G1 X126.128 Y101.028 E2.2888
G1 X126.505 Y101.184 E2.3162
G1 X126.853 Y101.398 E2.3436
G1 X127.163 Y101.662 E2.3710
G1 X127.428 Y101.972 E2.3983
G1 X127.641 Y102.320 E2.4257
G1 X127.797 Y102.697 E2.4531
G1 X127.892 Y103.093 E2.4805
G1 X127.924 Y103.500 E2.5079
G1 X127.892 Y103.907 E2.5353
G1 X127.797 Y104.303 E2.5627
G1 X127.641 Y104.680 E2.5901
G1 X127.428 Y105.028 E2.6175
G1 X127.163 Y105.338 E2.6449
G1 X126.853 Y105.602 E2.6723
G1 X126.505 Y105.815 E2.6997
G1 X126.128 Y105.972 E2.7271
G1 X125.732 Y106.067 E2.7545
G1 X125.318 Y106.099 E2.7824
G1 X114.273 Y106.100 E3.5245
G1 X113.819 Y106.145 E3.5551
G1 X113.363 Y106.285 E3.5871
G1 X112.945 Y106.512 E3.6192
G1 X112.579 Y106.818 E3.6512
G1 X112.280 Y107.189 E3.6832
G1 X112.061 Y107.612 E3.7152
G1 X111.930 Y108.070 E3.7472
G1 X111.891 Y108.545 E3.7792
G1 X111.948 Y109.018 E3.8112
G1 X112.096 Y109.471 E3.8433
G1 X112.314 Y109.855 E3.8729
G1 X112.784 Y110.580 E3.9310
G1 X113.180 Y111.309 E3.9867
G1 X113.517 Y112.066 E4.0424
G1 X113.795 Y112.847 E4.0981
G1 X114.010 Y113.648 E4.1538
G1 X114.162 Y114.462 E4.2094
G1 X114.250 Y115.287 E4.2652
G1 X114.274 Y116.115 E4.3208
G1 X114.232 Y116.943 E4.3765
G1 X114.126 Y117.766 E4.4322
G1 X113.956 Y118.577 E4.4879
G1 X113.836 Y118.988 E4.5167
G1 X111.747 Y118.287 E4.6648
G1 X111.865 Y117.867 E4.6941
G1 X112.010 Y117.042 E4.7504
G1 X112.073 Y116.207 E4.8066
G1 X112.052 Y115.370 E4.8629
G1 X111.947 Y114.539 E4.9192
G1 X111.761 Y113.723 E4.9754
G1 X111.494 Y112.929 E5.0317
G1 X111.149 Y112.166 E5.0879
G1 X110.731 Y111.441 E5.1442
G1 X110.242 Y110.761 E5.2004
G1 X109.688 Y110.134 E5.2567
G1 X109.074 Y109.564 E5.3129
G1 X108.406 Y109.059 E5.3692
G1 X107.692 Y108.622 E5.4255
G1 X106.937 Y108.259 E5.4817
G1 X106.150 Y107.973 E5.5380
G1 X105.339 Y107.766 E5.5942
G1 X104.511 Y107.641 E5.6505
G1 X103.675 Y107.600 E5.7067
G1 X102.838 Y107.641 E5.7630
G1 X102.010 Y107.766 E5.8192
G1 X101.199 Y107.973 E5.8755
G1 X100.412 Y108.259 E5.9318
G1 X99.658 Y108.622 E5.9880
G1 X98.943 Y109.059 E6.0443
G1 X98.276 Y109.564 E6.1005
G1 X97.662 Y110.134 E6.1568
G1 X97.108 Y110.761 E6.2130
G1 X96.619 Y111.441 E6.2693
G1 X96.200 Y112.166 E6.3255
G1 X95.856 Y112.929 E6.3818
G1 X95.589 Y113.723 E6.4381
G1 X95.402 Y114.539 E6.4943
G1 X95.298 Y115.370 E6.5506
G1 X95.277 Y116.207 E6.6068
G1 X95.339 Y117.042 E6.6631
G1 X95.484 Y117.867 E6.7193
G1 X95.602 Y118.287 E6.7487
G1 X93.181 Y119.100 E6.9203
G1 X92.075 Y119.100 E6.9946
G1 X92.075 Y100.900 E8.2174
G1 X123.373 Y103.500 F4800
G92 E0
G1 X123.422 Y103.934 E0.0294 F950
G1 X123.566 Y104.347 E0.0588
G1 X123.799 Y104.717 E0.0881
G1 X124.108 Y105.027 E0.1175
G1 X124.478 Y105.259 E0.1469
G1 X124.891 Y105.404 E0.1763
G1 X125.325 Y105.453 E0.2056
G1 X125.760 Y105.404 E0.2350
G1 X126.172 Y105.259 E0.2644
G1 X126.543 Y105.027 E0.2938
G1 X126.852 Y104.717 E0.3231
G1 X127.084 Y104.347 E0.3525
G1 X127.229 Y103.934 E0.3819
G1 X127.278 Y103.500 E0.4113
G1 X127.229 Y103.066 E0.4406
G1 X127.084 Y102.653 E0.4700
G1 X126.852 Y102.283 E0.4994
G1 X126.543 Y101.973 E0.5288
G1 X126.172 Y101.741 E0.5581
G1 X125.760 Y101.596 E0.5875
G1 X125.325 Y101.547 E0.6169
G1 X124.891 Y101.596 E0.6463
G1 X124.478 Y101.741 E0.6756
G1 X124.108 Y101.973 E0.7050
G1 X123.799 Y102.283 E0.7344
G1 X123.566 Y102.653 E0.7638
G1 X123.422 Y103.066 E0.7931
G1 X123.373 Y103.500 E0.8225
; solid layer
G1 X122.956 Y101.460 F4800
G92 E0
G1 X123.393 Y101.897 E0.0415 F800
G1 X123.358 Y101.931 E0.0448
G1 X123.058 Y102.408 E0.0826
G1 X122.984 Y102.620 E0.0977
G1 X121.825 Y101.460 E0.2079
G1 X120.693 Y101.460 E0.2839
G1 X122.819 Y103.586 E0.4858
G1 X122.872 Y104.060 E0.5179
G1 X123.058 Y104.592 E0.5558
G1 X123.358 Y105.069 E0.5936
G1 X123.757 Y105.467 E0.6315
G1 X123.872 Y105.539 E0.6406
G1 X123.641 Y105.539 E0.6561
G1 X119.562 Y101.460 E1.0437
G1 X118.431 Y101.460 E1.1197
