; G-Code generated by Simplify3D(R) Version 4.0.0
; Mar 30, 2022 at 6:12:09 PM
; Settings Summary
;   processName,Process1
;   applyToModels,Drill_Guide_V1.5
;   profileName,Default (modified)
;   profileVersion,2017-03-01 08:00:00
;   baseProfile,
;   printMaterial,
;   printQuality,
;   printExtruders,
;   extruderName,Primary Extruder
;   extruderToolheadNumber,0
;   extruderDiameter,0.4
;   extruderAutoWidth,0
;   extruderWidth,0.8
;   extrusionMultiplier,1.01
;   extruderUseRetract,1
;   extruderRetractionDistance,9
;   extruderExtraRestartDistance,0
;   extruderRetractionZLift,0
;   extruderRetractionSpeed,1988
;   extruderUseCoasting,0
;   extruderCoastingDistance,0.2
;   extruderUseWipe,0
;   extruderWipeDistance,5
;   primaryExtruder,0
;   layerHeight,0.2
;   topSolidLayers,4
;   bottomSolidLayers,4
;   perimeterOutlines,1
;   printPerimetersInsideOut,1
;   startPointOption,2
;   startPointOriginX,0
;   startPointOriginY,0
;   sequentialIslands,0
;   spiralVaseMode,0
;   firstLayerHeightPercentage,90
;   firstLayerWidthPercentage,100
;   firstLayerUnderspeed,0.5
;   useRaft,0
;   raftExtruder,0
;   raftTopLayers,3
;   raftBaseLayers,2
;   raftOffset,3
;   raftSeparationDistance,0.14
;   raftTopInfill,100
;   aboveRaftSpeedMultiplier,0.3
;   useSkirt,1
;   skirtExtruder,0
;   skirtLayers,1
;   skirtOutlines,1
;   skirtOffset,0.3
;   usePrimePillar,0
;   primePillarExtruder,999
;   primePillarWidth,12
;   primePillarLocation,7
;   primePillarSpeedMultiplier,1
;   useOozeShield,0
;   oozeShieldExtruder,999
;   oozeShieldOffset,2
;   oozeShieldOutlines,1
;   oozeShieldSidewallShape,1
;   oozeShieldSidewallAngle,30
;   oozeShieldSpeedMultiplier,1
;   infillExtruder,0
;   internalInfillPattern,Rectilinear
;   externalInfillPattern,Rectilinear
;   infillPercentage,35
;   outlineOverlapPercentage,30
;   infillExtrusionWidthPercentage,100
;   minInfillLength,5
;   infillLayerInterval,1
;   internalInfillAngles,45,-45
;   overlapInternalInfillAngles,0
;   externalInfillAngles,45,-45
;   generateSupport,1
;   supportExtruder,0
;   supportInfillPercentage,30
;   supportExtraInflation,0
;   supportBaseLayers,0
;   denseSupportExtruder,0
;   denseSupportLayers,0
;   denseSupportInfillPercentage,70
;   supportLayerInterval,1
;   supportHorizontalPartOffset,0.3
;   supportUpperSeparationLayers,1
;   supportLowerSeparationLayers,1
;   supportType,0
;   supportGridSpacing,4
;   maxOverhangAngle,45
;   supportAngles,0
;   temperatureName,Primary Extruder,Bed
;   temperatureNumber,0,0
;   temperatureSetpointCount,1,1
;   temperatureSetpointLayers,1,1
;   temperatureSetpointTemperatures,205,60
;   temperatureStabilizeAtStartup,1,1
;   temperatureHeatedBed,0,1
;   temperatureRelayBetweenLayers,0,0
;   temperatureRelayBetweenLoops,0,0
;   fanLayers,1,2
;   fanSpeeds,0,100
;   blipFanToFullPower,0
;   adjustSpeedForCooling,1
;   minSpeedLayerTime,15
;   minCoolingSpeedSlowdown,20
;   increaseFanForCooling,0
;   minFanLayerTime,45
;   maxCoolingFanSpeed,100
;   increaseFanForBridging,0
;   bridgingFanSpeed,100
;   use5D,1
;   relativeEdistances,0
;   allowEaxisZeroing,1
;   independentExtruderAxes,0
;   includeM10123,0
;   stickySupport,1
;   applyToolheadOffsets,0
;   gcodeXoffset,0
;   gcodeYoffset,0
;   gcodeZoffset,0
;   overrideMachineDefinition,1
;   machineTypeOverride,0
;   strokeXoverride,220
;   strokeYoverride,220
;   strokeZoverride,220
;   originOffsetXoverride,0
;   originOffsetYoverride,0
;   originOffsetZoverride,0
;   homeXdirOverride,-1
;   homeYdirOverride,-1
;   homeZdirOverride,-1
;   flipXoverride,1
;   flipYoverride,-1
;   flipZoverride,1
;   toolheadOffsets,0,0|0,0|0,0|0,0|0,0|0,0
;   overrideFirmwareConfiguration,0
;   firmwareTypeOverride,RepRap (Marlin/Repetier/Sprinter)
;   GPXconfigOverride,r2
;   baudRateOverride,115200
;   overridePrinterModels,0
;   printerModelsOverride
;   startingGcode,G28 ; home all axes
;   layerChangeGcode,
;   retractionGcode,
;   toolChangeGcode,
;   endingGcode,M104 S0 ; turn off extruder,M140 S0 ; turn off bed,M84 ; disable motors,G28 ; home all axes
;   exportFileFormat,gcode
;   celebration,0
;   celebrationSong,Random Song
;   postProcessing,
;   defaultSpeed,2000
;   outlineUnderspeed,0.95
;   solidInfillUnderspeed,0.8
;   supportUnderspeed,0.8
;   rapidXYspeed,4800
;   rapidZspeed,1002
;   minBridgingArea,50
;   bridgingExtraInflation,0
;   bridgingExtrusionMultiplier,1
;   bridgingSpeedMultiplier,1
;   useFixedBridgingAngle,0
;   fixedBridgingAngle,0
;   applyBridgingToPerimeters,0
;   filamentDiameters,1.75|1.75|1.75|1.75|1.75|1.75
;   filamentPricesPerKg,46|46|46|46|46|46
;   filamentDensities,1.25|1.25|1.25|1.25|1.25|1.25
;   useMinPrintHeight,0
;   minPrintHeight,0
;   useMaxPrintHeight,0
;   maxPrintHeight,0
;   useDiaphragm,0
;   diaphragmLayerInterval,20
;   robustSlicing,1
;   mergeAllIntoSolid,0
;   onlyRetractWhenCrossingOutline,1
;   retractBetweenLayers,1
;   useRetractionMinTravel,0
;   retractionMinTravel,3
;   retractWhileWiping,0
;   onlyWipeOutlines,1
;   avoidCrossingOutline,0
;   maxMovementDetourFactor,3
;   toolChangeRetractionDistance,12
;   toolChangeExtraRestartDistance,-0.5
;   toolChangeRetractionSpeed,600
;   externalThinWallType,0
;   internalThinWallType,2
;   thinWallAllowedOverlapPercentage,10
;   singleExtrusionMinLength,1
;   singleExtrusionMinPrintingWidthPercentage,50
;   singleExtrusionMaxPrintingWidthPercentage,200
;   singleExtrusionEndpointExtension,0.2
;   horizontalSizeCompensation,0
G90
M82
M106 S0
M140 S60
M190 S60
M104 S205 T0
M109 S205 T0
G28 ; home all axes
G92 E0
G1 E-9.0000 F1988
G1 Z0.180 F1002
; process Process1
; layer 1, Z = 0.180
T0
; tool H0.200 W0.800
; skirt
G1 X96.741 Y84.649 F4800
G1 E0.0000 F596
G92 E0
G1 X97.029 Y84.361 E0.0274 F1000
G1 X97.176 Y84.300 E0.0381
G1 X122.584 Y84.300 E1.7451
G1 X122.731 Y84.361 E1.7558
G1 X123.019 Y84.649 E1.7832
G1 X123.080 Y84.796 E1.7939
G1 X123.080 Y86.300 E1.8949
G1 X135.084 Y86.300 E2.7014
G1 X135.231 Y86.361 E2.7121
G1 X135.519 Y86.649 E2.7395
G1 X135.580 Y86.796 E2.7502
G1 X135.580 Y97.204 E3.4494
G1 X135.519 Y97.351 E3.4601
G1 X135.231 Y97.639 E3.4875
G1 X135.084 Y97.700 E3.4982
G1 X123.080 Y97.700 E4.3047
G1 X123.080 Y107.363 E4.9539
G1 X126.013 Y115.422 E5.5301
G1 X135.700 Y118.017 E6.2038
G1 X135.827 Y118.114 E6.2145
G1 X136.030 Y118.467 E6.2419
G1 X136.051 Y118.625 E6.2526
G1 X133.358 Y128.678 E6.9519
G1 X133.261 Y128.804 E6.9626
G1 X132.908 Y129.008 E6.9899
G1 X132.750 Y129.029 E7.0006
G1 X123.080 Y126.438 E7.6732
G1 X123.080 Y135.204 E8.2622
G1 X123.019 Y135.351 E8.2728
G1 X122.731 Y135.639 E8.3002
G1 X122.584 Y135.700 E8.3109
G1 X97.176 Y135.700 E10.0180
G1 X97.029 Y135.639 E10.0286
G1 X96.741 Y135.351 E10.0560
G1 X96.680 Y135.204 E10.0667
G1 X96.680 Y131.235 E10.3334
G1 X93.518 Y129.021 E10.5927
G1 X88.146 Y130.976 E10.9768
G1 X87.987 Y130.970 E10.9875
G1 X87.617 Y130.797 E11.0149
G1 X87.510 Y130.680 E11.0256
G1 X83.950 Y120.900 E11.7248
G1 X83.957 Y120.741 E11.7355
G1 X84.129 Y120.371 E11.7629
G1 X84.247 Y120.264 E11.7736
G1 X94.818 Y116.416 E12.5294
G1 X96.680 Y109.467 E13.0128
G1 X96.680 Y84.796 E14.6703
G1 X96.741 Y84.649 E14.6810
G92 E0
G1 E-9.0000 F1988
; outer perimeter
G1 X97.780 Y85.400 F4800
G1 E0.0000 F1988
G92 E0
G1 X121.980 Y85.400 E1.6259 F950
G1 X121.980 Y87.400 E1.7603
G1 X134.480 Y87.400 E2.6001
G1 X134.480 Y96.600 E3.2182
G1 X121.980 Y96.600 E4.0580
G1 X121.980 Y107.557 E4.7942
G1 X125.175 Y116.336 E5.4218
G1 X134.832 Y118.924 E6.0935
G1 X132.451 Y127.810 E6.7116
G1 X121.980 Y125.004 E7.4400
G1 X121.980 Y134.600 E8.0846
G1 X97.780 Y134.600 E9.7105
G1 X97.780 Y130.662 E9.9751
G1 X93.680 Y127.792 E10.3114
G1 X88.337 Y129.736 E10.6934
G1 X85.190 Y121.091 E11.3115
G1 X95.732 Y117.254 E12.0652
G1 X97.780 Y109.611 E12.5968
G1 X97.780 Y85.400 E14.2235
G1 X108.393 Y92.814 F4800
G92 E0
G1 X108.166 Y93.175 E0.0286 F950
G1 X108.025 Y93.578 E0.0573
G1 X107.978 Y94.009 E0.0864
G1 X108.028 Y94.432 E0.1151
G1 X108.170 Y94.833 E0.1437
G1 X108.398 Y95.192 E0.1723
G1 X108.698 Y95.490 E0.2006
G1 X109.062 Y95.717 E0.2295
G1 X109.457 Y95.855 E0.2576
G1 X109.884 Y95.902 E0.2864
G1 X110.304 Y95.855 E0.3148
G1 X110.706 Y95.714 E0.3434
G1 X111.066 Y95.487 E0.3720
G1 X111.368 Y95.186 E0.4007
G1 X111.594 Y94.825 E0.4293
G1 X111.735 Y94.422 E0.4580
G1 X111.782 Y93.991 E0.4871
G1 X111.732 Y93.568 E0.5157
G1 X111.590 Y93.167 E0.5443
G1 X111.362 Y92.808 E0.5729
G1 X111.063 Y92.510 E0.6013
G1 X110.698 Y92.283 E0.6302
G1 X110.299 Y92.144 E0.6585
G1 X109.876 Y92.098 E0.6871
G1 X109.457 Y92.145 E0.7155
G1 X109.055 Y92.286 E0.7441
G1 X108.694 Y92.513 E0.7727
G1 X108.393 Y92.814 E0.8013
G92 E0
G1 E-9.0000 F1988
G1 X109.876 Y117.098 F4800
G1 E0.0000 F1988
G92 E0
G1 X109.457 Y117.145 E0.0284 F950
G1 X109.055 Y117.286 E0.0570
G1 X108.694 Y117.513 E0.0856
G1 X108.393 Y117.814 E0.1142
G1 X108.166 Y118.175 E0.1428
G1 X108.025 Y118.578 E0.1715
G1 X107.978 Y119.009 E0.2007
G1 X108.028 Y119.432 E0.2293
G1 X108.170 Y119.833 E0.2579
G1 X108.398 Y120.192 E0.2865
G1 X108.698 Y120.490 E0.3148
G1 X109.062 Y120.717 E0.3437
G1 X109.457 Y120.855 E0.3718
G1 X109.884 Y120.902 E0.4007
G1 X110.304 Y120.855 E0.4290
G1 X110.706 Y120.714 E0.4576
G1 X111.066 Y120.487 E0.4863
G1 X111.368 Y120.186 E0.5149
G1 X111.594 Y119.825 E0.5435
G1 X111.735 Y119.422 E0.5722
G1 X111.782 Y118.991 E0.6013
G1 X111.732 Y118.568 E0.6299
G1 X111.590 Y118.167 E0.6586
G1 X111.362 Y117.808 E0.6871
G1 X111.063 Y117.510 E0.7155
G1 X110.698 Y117.283 E0.7444
G1 X110.299 Y117.144 E0.7727
G1 X109.876 Y117.098 E0.8013
G92 E0
G1 E-9.0000 F1988
; solid layer
G1 X112.331 Y119.119 F4800
G1 E0.0000 F1988
G92 E0
G1 X121.420 Y128.208 E0.8636 F800
G1 X121.420 Y129.340 E0.9396
G1 X112.114 Y120.034 E1.8237
G1 X112.102 Y120.070 E1.8263
G1 X111.808 Y120.538 E1.8634
G1 X111.647 Y120.698 E1.8787
G1 X121.420 Y130.471 E2.8072
G1 X121.420 Y131.602 E2.8832
G1 X111.005 Y121.187 E3.8728
G1 X110.950 Y121.222 E3.8772
G1 X110.429 Y121.404 E3.9143
G1 X110.125 Y121.439 E3.9348
G1 X121.420 Y132.734 E5.0080
G1 X121.420 Y133.865 E5.0841
G1 X108.716 Y121.161 E6.2912
G1 X98.340 Y132.281 F4800
G92 E0
G1 X100.099 Y134.040 E0.1671 F800
G1 X98.968 Y134.040 E0.2431
G1 X98.340 Y133.413 E0.3027
G92 E0
G1 E-9.0000 F1988
G1 X88.243 Y127.841 F4800
G1 E0.0000 F1988
G92 E0
G1 X89.221 Y128.819 E0.0929 F800
G1 X90.050 Y128.517 E0.1522
G1 X87.596 Y126.062 E0.3854
G1 X86.948 Y124.283 E0.5126
G1 X90.880 Y128.215 E0.8861
G1 X91.709 Y127.913 E0.9454
G1 X86.301 Y122.505 E1.4593
G1 X85.908 Y121.426 E1.5364
G1 X86.235 Y121.307 E1.5598
G1 X92.539 Y127.611 E2.1588
G1 X93.368 Y127.309 E2.2181
G1 X87.064 Y121.005 E2.8170
G1 X87.893 Y120.703 E2.8763
G1 X95.741 Y128.551 E3.6220
G1 X98.340 Y130.371 E3.8352
G1 X98.340 Y131.150 E3.8875
G1 X101.230 Y134.040 E4.1621
G1 X102.362 Y134.040 E4.2381
G1 X88.723 Y120.401 E5.5340
G1 X89.552 Y120.099 E5.5933
G1 X103.493 Y134.040 E6.9179
G1 X104.624 Y134.040 E6.9939
G1 X90.382 Y119.797 E8.3471
G1 X91.211 Y119.496 E8.4064
G1 X105.756 Y134.040 E9.7883
G1 X106.887 Y134.040 E9.8644
G1 X92.041 Y119.194 E11.2750
G1 X92.870 Y118.892 E11.3343
G1 X108.018 Y134.040 E12.7736
G1 X109.150 Y134.040 E12.8496
G1 X93.700 Y118.590 E14.3176
G1 X94.529 Y118.288 E14.3769
G1 X110.281 Y134.040 E15.8736
G1 X111.413 Y134.040 E15.9496
G1 X95.359 Y117.986 E17.4749
G1 X96.188 Y117.684 E17.5342
G1 X112.544 Y134.040 E19.0883
G1 X113.675 Y134.040 E19.1643
G1 X96.434 Y116.799 E20.8025
G1 X96.673 Y115.906 E20.8645
G1 X114.807 Y134.040 E22.5875
G1 X115.938 Y134.040 E22.6635
G1 X96.912 Y115.014 E24.4712
G1 X97.151 Y114.122 E24.5333
G1 X117.069 Y134.040 E26.4258
G1 X118.201 Y134.040 E26.5018
G1 X97.390 Y113.230 E28.4791
G1 X97.629 Y112.337 E28.5412
G1 X119.332 Y134.040 E30.6033
G1 X120.464 Y134.040 E30.6793
G1 X97.869 Y111.445 E32.8261
G1 X98.108 Y110.553 E32.8882
G1 X107.714 Y120.159 E33.8010
G1 X107.664 Y120.080 E33.8073
G1 X107.479 Y119.560 E33.8444
G1 X107.415 Y119.011 E33.8815
G1 X107.442 Y118.756 E33.8987
G1 X98.340 Y109.654 E34.7636
G1 X98.340 Y108.522 E34.8396
G1 X107.693 Y117.875 E35.7282
G1 X107.952 Y117.462 E35.7610
G1 X108.182 Y117.233 E35.7828
G1 X98.340 Y107.391 E36.7179
G1 X98.340 Y106.260 E36.7939
G1 X108.846 Y116.766 E37.7921
G1 X109.331 Y116.596 E37.8267
G1 X109.759 Y116.547 E37.8556
G1 X98.340 Y105.128 E38.9406
G1 X98.340 Y103.997 E39.0166
G1 X111.408 Y117.065 E40.2583
G1 X111.413 Y117.068 E40.2586
G1 X111.801 Y117.455 E40.2955
G1 X111.806 Y117.463 E40.2961
G1 X121.420 Y127.077 E41.2096
G1 X121.420 Y125.946 E41.2856
G1 X98.340 Y102.866 E43.4785
G1 X98.340 Y101.734 E43.5545
G1 X121.420 Y124.814 E45.7474
G1 X121.420 Y124.275 E45.7837
G1 X122.229 Y124.491 E45.8399
G1 X98.340 Y100.603 E48.1097
G1 X98.340 Y99.471 E48.1857
G1 X123.774 Y124.905 E50.6023
G1 X125.319 Y125.319 E50.7098
G1 X98.340 Y98.340 E53.2732
G1 X98.340 Y97.209 E53.3492
G1 X126.865 Y125.734 E56.0595
G1 X128.410 Y126.148 E56.1670
G1 X98.340 Y96.077 E59.0241
G1 X98.340 Y94.946 E59.1001
G1 X129.956 Y126.562 E62.1041
G1 X131.501 Y126.976 E62.2116
G1 X98.340 Y93.815 E65.3624
G1 X98.340 Y92.683 E65.4384
G1 X132.209 Y126.552 E68.6564
G1 X132.448 Y125.660 E68.7185
G1 X98.340 Y91.552 E71.9592
G1 X98.340 Y90.420 E72.0353
G1 X132.687 Y124.767 E75.2987
G1 X132.926 Y123.875 E75.3608
G1 X126.257 Y117.206 E75.9945
G1 X124.749 Y116.802 E76.0993
G1 X124.117 Y115.066 E76.2234
G1 X98.340 Y89.289 E78.6726
G1 X98.340 Y88.158 E78.7486
G1 X123.470 Y113.288 E81.1363
G1 X122.823 Y111.509 E81.2635
G1 X98.340 Y87.026 E83.5897
G1 X98.340 Y85.960 E83.6613
G1 X98.405 Y85.960 E83.6657
G1 X107.905 Y95.460 E84.5684
G1 X107.664 Y95.080 E84.5986
G1 X107.479 Y94.560 E84.6357
G1 X107.415 Y94.011 E84.6728
G1 X107.432 Y93.855 E84.6834
G1 X99.536 Y85.960 E85.4335
G1 X100.668 Y85.960 E85.5095
G1 X107.653 Y92.945 E86.1732
G1 X107.658 Y92.930 E86.1743
G1 X107.952 Y92.462 E86.2114
G1 X108.127 Y92.288 E86.2280
G1 X101.799 Y85.960 E86.8292
G1 X102.931 Y85.960 E86.9052
G1 X108.772 Y91.802 E87.4603
G1 X108.810 Y91.778 E87.4633
G1 X109.331 Y91.596 E87.5004
G1 X109.660 Y91.559 E87.5226
G1 X104.062 Y85.960 E88.0546
G1 X105.193 Y85.960 E88.1306
G1 X111.119 Y91.885 E88.6936
G1 X111.413 Y92.068 E88.7168
G1 X111.801 Y92.455 E88.7537
G1 X111.997 Y92.764 E88.7782
G1 X121.420 Y102.187 E89.6736
G1 X121.420 Y101.055 E89.7496
G1 X106.325 Y85.960 E91.1839
G1 X107.456 Y85.960 E91.2599
G1 X121.420 Y99.924 E92.5867
G1 X121.420 Y98.793 E92.6627
G1 X108.587 Y85.960 E93.8820
G1 X109.719 Y85.960 E93.9580
G1 X121.420 Y97.661 E95.0698
G1 X121.420 Y96.530 E95.1458
G1 X110.850 Y85.960 E96.1501
G1 X111.982 Y85.960 E96.2261
G1 X122.062 Y96.040 E97.1838
G1 X123.193 Y96.040 E97.2599
G1 X113.113 Y85.960 E98.2176
G1 X114.244 Y85.960 E98.2936
G1 X124.324 Y96.040 E99.2514
G1 X125.456 Y96.040 E99.3274
G1 X115.376 Y85.960 E100.2851
G1 X116.507 Y85.960 E100.3611
G1 X126.587 Y96.040 E101.3189
G1 X127.718 Y96.040 E101.3949
G1 X117.638 Y85.960 E102.3526
G1 X121.033 Y85.960 F4800
G92 E0
G1 X121.420 Y86.348 E0.0368 F800
G1 X121.420 Y87.479 E0.1128
G1 X119.901 Y85.960 E0.2572
G1 X118.770 Y85.960 E0.3332
G1 X128.850 Y96.040 E1.2909
G1 X129.981 Y96.040 E1.3669
G1 X121.901 Y87.960 E2.1346
G1 X123.033 Y87.960 E2.2107
G1 X131.113 Y96.040 E2.9784
G1 X132.244 Y96.040 E3.0544
G1 X124.164 Y87.960 E3.8221
G1 X125.295 Y87.960 E3.8981
G1 X133.375 Y96.040 E4.6658
G1 X133.920 Y96.040 E4.7024
G1 X133.920 Y95.453 E4.7418
G1 X126.427 Y87.960 E5.4538
G1 X127.558 Y87.960 E5.5298
G1 X133.920 Y94.322 E6.1343
G1 X133.920 Y93.191 E6.2104
G1 X128.689 Y87.960 E6.7073
G1 X129.821 Y87.960 E6.7834
G1 X133.920 Y92.059 E7.1729
G1 X133.920 Y90.928 E7.2489
