; G-Code generated by Simplify3D(R) Version 4.0.0
; Mar 30, 2022 at 6:19:15 PM
; Settings Summary
;   processName,Process1
;   applyToModels,Frame_Top_V1.5
;   profileName,Default (modified)
;   profileVersion,2017-03-01 08:00:00
;   baseProfile,
;   printMaterial,
;   printQuality,
;   printExtruders,
;   extruderName,Primary Extruder
;   extruderToolheadNumber,0
;   extruderDiameter,0.4
;   extruderAutoWidth,0
;   extruderWidth,0.8
;   extrusionMultiplier,1.01
;   extruderUseRetract,1
;   extruderRetractionDistance,9
;   extruderExtraRestartDistance,0
;   extruderRetractionZLift,0
;   extruderRetractionSpeed,1988
;   extruderUseCoasting,0
;   extruderCoastingDistance,0.2
;   extruderUseWipe,0
;   extruderWipeDistance,5
;   primaryExtruder,0
;   layerHeight,0.2
;   topSolidLayers,4
;   bottomSolidLayers,4
;   perimeterOutlines,1
;   printPerimetersInsideOut,1
;   startPointOption,2
;   startPointOriginX,0
;   startPointOriginY,0
;   sequentialIslands,0
;   spiralVaseMode,0
;   firstLayerHeightPercentage,90
;   firstLayerWidthPercentage,100
;   firstLayerUnderspeed,0.5
;   useRaft,0
;   raftExtruder,0
;   raftTopLayers,3
;   raftBaseLayers,2
;   raftOffset,3
;   raftSeparationDistance,0.14
;   raftTopInfill,100
;   aboveRaftSpeedMultiplier,0.3
;   useSkirt,1
;   skirtExtruder,0
;   skirtLayers,1
;   skirtOutlines,1
;   skirtOffset,0.3
;   usePrimePillar,0
;   primePillarExtruder,999
;   primePillarWidth,12
;   primePillarLocation,7
;   primePillarSpeedMultiplier,1
;   useOozeShield,0
;   oozeShieldExtruder,999
;   oozeShieldOffset,2
;   oozeShieldOutlines,1
;   oozeShieldSidewallShape,1
;   oozeShieldSidewallAngle,30
;   oozeShieldSpeedMultiplier,1
;   infillExtruder,0
;   internalInfillPattern,Rectilinear
;   externalInfillPattern,Rectilinear
;   infillPercentage,35
;   outlineOverlapPercentage,30
;   infillExtrusionWidthPercentage,100
;   minInfillLength,5
;   infillLayerInterval,1
;   internalInfillAngles,45,-45
;   overlapInternalInfillAngles,0
;   externalInfillAngles,45,-45
;   generateSupport,1
;   supportExtruder,0
;   supportInfillPercentage,30
;   supportExtraInflation,0
;   supportBaseLayers,0
;   denseSupportExtruder,0
;   denseSupportLayers,0
;   denseSupportInfillPercentage,70
;   supportLayerInterval,1
;   supportHorizontalPartOffset,0.3
;   supportUpperSeparationLayers,1
;   supportLowerSeparationLayers,1
;   supportType,0
;   supportGridSpacing,4
;   maxOverhangAngle,45
;   supportAngles,0
;   temperatureName,Primary Extruder,Bed
;   temperatureNumber,0,0
;   temperatureSetpointCount,1,1
;   temperatureSetpointLayers,1,1
;   temperatureSetpointTemperatures,205,60
;   temperatureStabilizeAtStartup,1,1
;   temperatureHeatedBed,0,1
;   temperatureRelayBetweenLayers,0,0
;   temperatureRelayBetweenLoops,0,0
;   fanLayers,1,2
;   fanSpeeds,0,100
;   blipFanToFullPower,0
;   adjustSpeedForCooling,1
;   minSpeedLayerTime,15
;   minCoolingSpeedSlowdown,20
;   increaseFanForCooling,0
;   minFanLayerTime,45
;   maxCoolingFanSpeed,100
;   increaseFanForBridging,0
;   bridgingFanSpeed,100
;   use5D,1
;   relativeEdistances,0
;   allowEaxisZeroing,1
;   independentExtruderAxes,0
;   includeM10123,0
;   stickySupport,1
;   applyToolheadOffsets,0
;   gcodeXoffset,0
;   gcodeYoffset,0
;   gcodeZoffset,0
;   overrideMachineDefinition,1
;   machineTypeOverride,0
;   strokeXoverride,220
;   strokeYoverride,220
;   strokeZoverride,220
;   originOffsetXoverride,0
;   originOffsetYoverride,0
;   originOffsetZoverride,0
;   homeXdirOverride,-1
;   homeYdirOverride,-1
;   homeZdirOverride,-1
;   flipXoverride,1
;   flipYoverride,-1
;   flipZoverride,1
;   toolheadOffsets,0,0|0,0|0,0|0,0|0,0|0,0
;   overrideFirmwareConfiguration,0
;   firmwareTypeOverride,RepRap (Marlin/Repetier/Sprinter)
;   GPXconfigOverride,r2
;   baudRateOverride,115200
;   overridePrinterModels,0
;   printerModelsOverride
;   startingGcode,G28 ; home all axes
;   layerChangeGcode,
;   retractionGcode,
;   toolChangeGcode,
;   endingGcode,M104 S0 ; turn off extruder,M140 S0 ; turn off bed,M84 ; disable motors,G28 ; home all axes
;   exportFileFormat,gcode
;   celebration,0
;   celebrationSong,Random Song
;   postProcessing,
;   defaultSpeed,2000
;   outlineUnderspeed,0.95
;   solidInfillUnderspeed,0.8
;   supportUnderspeed,0.8
;   rapidXYspeed,4800
;   rapidZspeed,1002
;   minBridgingArea,50
;   bridgingExtraInflation,0
;   bridgingExtrusionMultiplier,1
;   bridgingSpeedMultiplier,1
;   useFixedBridgingAngle,0
;   fixedBridgingAngle,0
;   applyBridgingToPerimeters,0
;   filamentDiameters,1.75|1.75|1.75|1.75|1.75|1.75
;   filamentPricesPerKg,46|46|46|46|46|46
;   filamentDensities,1.25|1.25|1.25|1.25|1.25|1.25
;   useMinPrintHeight,0
;   minPrintHeight,0
;   useMaxPrintHeight,0
;   maxPrintHeight,0
;   useDiaphragm,0
;   diaphragmLayerInterval,20
;   robustSlicing,1
;   mergeAllIntoSolid,0
;   onlyRetractWhenCrossingOutline,1
;   retractBetweenLayers,1
;   useRetractionMinTravel,0
;   retractionMinTravel,3
;   retractWhileWiping,0
;   onlyWipeOutlines,1
;   avoidCrossingOutline,0
;   maxMovementDetourFactor,3
;   toolChangeRetractionDistance,12
;   toolChangeExtraRestartDistance,-0.5
;   toolChangeRetractionSpeed,600
;   externalThinWallType,0
;   internalThinWallType,2
;   thinWallAllowedOverlapPercentage,10
;   singleExtrusionMinLength,1
;   singleExtrusionMinPrintingWidthPercentage,50
;   singleExtrusionMaxPrintingWidthPercentage,200
;   singleExtrusionEndpointExtension,0.2
;   horizontalSizeCompensation,0
G90
M82
M106 S0
M140 S60
M190 S60
M104 S205 T0
M109 S205 T0
G28 ; home all axes
G92 E0
G1 E-9.0000 F1988
G1 Z0.180 F1002
; process Process1
; layer 1, Z = 0.180
T0
; tool H0.200 W0.800
; skirt
G1 X57.149 Y87.720 F4800
G1 E0.0000 F596
G92 E0
G1 X57.296 Y87.659 E0.0107 F1000
G1 X162.704 Y87.659 E7.0926
G1 X162.851 Y87.720 E7.1032
G1 X163.139 Y88.008 E7.1306
G1 X163.200 Y88.155 E7.1413
G1 X163.200 Y95.562 E7.6390
G1 X163.139 Y95.710 E7.6497
G1 X162.851 Y95.998 E7.6771
G1 X162.704 Y96.059 E7.6878
G1 X155.307 Y96.059 E8.1847
G1 X155.167 Y96.004 E8.1949
G1 X154.884 Y95.742 E8.2208
G1 X154.818 Y95.607 E8.2309
G1 X154.769 Y94.996 E8.2720
G1 X154.684 Y94.646 E8.2963
G1 X154.546 Y94.313 E8.3205
G1 X154.357 Y94.006 E8.3447
G1 X154.122 Y93.732 E8.3689
G1 X153.848 Y93.498 E8.3932
G1 X153.540 Y93.310 E8.4174
G1 X153.206 Y93.173 E8.4416
G1 X152.857 Y93.089 E8.4657
G1 X152.428 Y93.059 E8.4947
G1 X77.527 Y93.059 E13.5269
G1 X77.141 Y93.089 E13.5530
G1 X76.790 Y93.173 E13.5772
G1 X76.457 Y93.311 E13.6014
G1 X76.149 Y93.500 E13.6256
G1 X75.875 Y93.734 E13.6499
G1 X75.641 Y94.008 E13.6741
G1 X75.453 Y94.316 E13.6983
G1 X75.315 Y94.649 E13.7225
G1 X75.230 Y94.999 E13.7468
G1 X75.200 Y95.386 E13.7728
G1 X75.200 Y102.873 E14.2758
G1 X92.716 Y113.818 E15.6635
G1 X94.903 Y115.134 E15.8350
G1 X97.017 Y116.322 E15.9979
G1 X99.186 Y117.453 E16.1623
G1 X101.415 Y118.530 E16.3286
G1 X103.677 Y119.537 E16.4949
G1 X105.970 Y120.473 E16.6613
G1 X108.289 Y121.338 E16.8276
G1 X110.635 Y122.131 E16.9940
G1 X113.004 Y122.850 E17.1603
G1 X115.395 Y123.495 E17.3267
G1 X117.804 Y124.066 E17.4930
G1 X120.229 Y124.562 E17.6594
G1 X122.669 Y124.983 E17.8257
G1 X125.122 Y125.327 E17.9921
G1 X127.582 Y125.596 E18.1584
G1 X130.051 Y125.788 E18.3248
G1 X132.524 Y125.903 E18.4911
G1 X135.111 Y125.941 E18.6649
G1 X155.704 Y125.941 E20.0485
G1 X155.851 Y126.002 E20.0591
G1 X156.139 Y126.290 E20.0865
G1 X156.200 Y126.437 E20.0972
G1 X156.200 Y131.845 E20.4605
G1 X156.139 Y131.992 E20.4712
G1 X155.851 Y132.280 E20.4986
G1 X155.704 Y132.341 E20.5093
G1 X134.885 Y132.341 E21.9080
G1 X134.881 Y132.341 E21.9083
G1 X134.878 Y132.341 E21.9085
G1 X132.370 Y132.301 E22.0770
G1 X132.367 Y132.301 E22.0772
G1 X132.360 Y132.301 E22.0777
G1 X132.357 Y132.301 E22.0779
G1 X129.852 Y132.187 E22.2464
G1 X129.849 Y132.187 E22.2466
G1 X129.841 Y132.187 E22.2471
G1 X129.838 Y132.187 E22.2473
G1 X127.336 Y132.000 E22.4159
G1 X127.332 Y132.000 E22.4162
G1 X127.325 Y131.999 E22.4167
G1 X127.323 Y131.999 E22.4168
G1 X124.828 Y131.739 E22.5853
G1 X124.825 Y131.739 E22.5855
G1 X124.818 Y131.738 E22.5860
G1 X124.815 Y131.737 E22.5862
G1 X122.329 Y131.405 E22.7546
G1 X122.327 Y131.405 E22.7548
G1 X122.320 Y131.404 E22.7553
G1 X122.316 Y131.403 E22.7555
G1 X119.841 Y130.998 E22.9241
G1 X119.838 Y130.997 E22.9243
G1 X119.831 Y130.996 E22.9248
G1 X119.828 Y130.995 E22.9250
G1 X117.365 Y130.518 E23.0935
G1 X117.362 Y130.517 E23.0937
G1 X117.355 Y130.516 E23.0942
G1 X117.352 Y130.515 E23.0944
G1 X114.904 Y129.966 E23.2629
G1 X114.902 Y129.965 E23.2631
G1 X114.894 Y129.964 E23.2636
G1 X114.892 Y129.963 E23.2638
G1 X112.461 Y129.342 E23.4324
G1 X112.458 Y129.342 E23.4326
G1 X112.451 Y129.340 E23.4331
G1 X112.448 Y129.339 E23.4332
G1 X110.037 Y128.648 E23.6018
G1 X110.034 Y128.647 E23.6020
G1 X110.027 Y128.645 E23.6025
G1 X110.024 Y128.644 E23.6027
G1 X107.634 Y127.882 E23.7712
G1 X107.632 Y127.881 E23.7714
G1 X107.625 Y127.879 E23.7719
G1 X107.622 Y127.878 E23.7721
G1 X105.255 Y127.047 E23.9406
G1 X105.252 Y127.046 E23.9408
G1 X105.246 Y127.043 E23.9413
G1 X105.243 Y127.042 E23.9415
G1 X102.901 Y126.142 E24.1100
G1 X102.899 Y126.141 E24.1102
G1 X102.892 Y126.138 E24.1107
G1 X102.889 Y126.137 E24.1109
G1 X100.575 Y125.169 E24.2795
G1 X100.572 Y125.168 E24.2797
G1 X100.565 Y125.165 E24.2801
G1 X100.563 Y125.164 E24.2803
G1 X98.278 Y124.128 E24.4489
G1 X98.275 Y124.127 E24.4491
G1 X98.269 Y124.124 E24.4496
G1 X98.266 Y124.122 E24.4498
G1 X95.963 Y122.995 E24.6220
G1 X95.961 Y122.994 E24.6222
G1 X95.954 Y122.990 E24.6227
G1 X95.951 Y122.989 E24.6229
G1 X93.779 Y121.847 E24.7878
G1 X93.777 Y121.845 E24.7880
G1 X93.770 Y121.842 E24.7885
G1 X93.768 Y121.840 E24.7887
G1 X91.583 Y120.609 E24.9571
G1 X91.581 Y120.608 E24.9573
G1 X91.575 Y120.604 E24.9578
G1 X91.572 Y120.602 E24.9580
G1 X89.424 Y119.307 E25.1266
G1 X89.419 Y119.304 E25.1268
G1 X89.418 Y119.303 E25.1269
G1 X57.020 Y99.059 E27.6936
G1 X56.950 Y98.985 E27.7004
G1 X56.825 Y98.761 E27.7177
G1 X56.800 Y98.662 E27.7245
G1 X56.800 Y88.155 E28.4305
G1 X56.861 Y88.008 E28.4412
G1 X57.149 Y87.720 E28.4686
G92 E0
G1 E-9.0000 F1988
; outer perimeter
G1 X57.900 Y88.759 F4800
G1 E0.0000 F1988
G92 E0
G1 X162.100 Y88.759 E7.0007 F950
G1 X162.100 Y94.959 E7.4173
G1 X155.869 Y94.959 E7.8359
G1 X155.858 Y94.822 E7.8451
G1 X155.733 Y94.303 E7.8810
G1 X155.528 Y93.810 E7.9168
G1 X155.248 Y93.356 E7.9527
G1 X154.901 Y92.950 E7.9885
G1 X154.495 Y92.604 E8.0244
G1 X154.039 Y92.326 E8.0603
G1 X153.546 Y92.123 E8.0961
G1 X153.025 Y91.999 E8.1321
G1 X152.467 Y91.959 E8.1697
G1 X77.484 Y91.959 E13.2074
G1 X76.968 Y91.999 E13.2422
G1 X76.449 Y92.124 E13.2781
G1 X75.956 Y92.328 E13.3139
G1 X75.501 Y92.607 E13.3498
G1 X75.095 Y92.954 E13.3857
G1 X74.748 Y93.360 E13.4216
G1 X74.469 Y93.815 E13.4574
G1 X74.265 Y94.308 E13.4932
G1 X74.141 Y94.827 E13.5291
G1 X74.100 Y95.343 E13.5639
G1 X74.100 Y103.482 E14.1107
G1 X92.141 Y114.755 E15.5400
G1 X94.350 Y116.085 E15.7132
G1 X96.494 Y117.289 E15.8784
G1 X98.692 Y118.436 E16.0450
G1 X100.952 Y119.528 E16.2137
G1 X103.245 Y120.549 E16.3823
G1 X105.569 Y121.498 E16.5509
G1 X107.921 Y122.375 E16.7196
G1 X110.299 Y123.178 E16.8882
G1 X112.701 Y123.907 E17.0569
G1 X115.124 Y124.562 E17.2255
G1 X117.567 Y125.141 E17.3941
G1 X120.026 Y125.643 E17.5628
G1 X122.499 Y126.070 E17.7314
G1 X124.985 Y126.419 E17.9001
G1 X127.480 Y126.691 E18.0687
G1 X129.983 Y126.886 E18.2373
G1 X132.490 Y127.002 E18.4060
G1 X135.103 Y127.041 E18.5815
G1 X155.100 Y127.041 E19.9251
G1 X155.100 Y131.241 E20.2072
G1 X134.890 Y131.241 E21.5651
G1 X132.398 Y131.201 E21.7325
G1 X129.911 Y131.089 E21.8998
G1 X127.428 Y130.904 E22.0670
G1 X124.952 Y130.646 E22.2343
G1 X122.484 Y130.316 E22.4016
G1 X120.028 Y129.914 E22.5688
G1 X117.583 Y129.440 E22.7361
G1 X115.155 Y128.895 E22.9033
G1 X112.742 Y128.279 E23.0706
G1 X110.349 Y127.593 E23.2378
G1 X107.977 Y126.837 E23.4051
G1 X105.628 Y126.012 E23.5724
G1 X103.305 Y125.119 E23.7396
G1 X101.008 Y124.158 E23.9069
G1 X98.741 Y123.130 E24.0741
G1 X96.455 Y122.011 E24.2451
G1 X94.300 Y120.878 E24.4087
G1 X92.132 Y119.656 E24.5759
G1 X89.996 Y118.368 E24.7435
G1 X57.900 Y98.312 E27.2863
G1 X57.900 Y88.759 E27.9281
; solid layer
G1 X58.460 Y96.927 F4800
G92 E0
G1 X61.325 Y99.792 E0.2723 F800
G1 X64.341 Y101.677 E0.5112
G1 X58.460 Y95.795 E1.0700
G1 X58.460 Y94.664 E1.1460
G1 X67.357 Y103.561 E1.9914
G1 X70.373 Y105.446 E2.2303
G1 X58.460 Y93.532 E3.3623
G1 X58.460 Y92.401 E3.4383
G1 X73.389 Y107.330 E4.8568
G1 X76.405 Y109.215 E5.0957
G1 X58.460 Y91.270 E6.8008
G1 X58.460 Y90.138 E6.8768
G1 X79.421 Y111.099 E8.8684
G1 X82.437 Y112.984 E9.1073
G1 X58.772 Y89.319 E11.3558
G1 X59.903 Y89.319 E11.4319
G1 X73.540 Y102.956 E12.7276
G1 X73.540 Y101.824 E12.8036
G1 X61.034 Y89.319 E13.9918
G1 X62.166 Y89.319 E14.0678
G1 X73.540 Y100.693 E15.1485
G1 X73.540 Y99.562 E15.2245
G1 X63.297 Y89.319 E16.1977
G1 X64.429 Y89.319 E16.2738
G1 X73.540 Y98.430 E17.1395
G1 X73.540 Y97.299 E17.2155
G1 X65.560 Y89.319 E17.9737
G1 X66.691 Y89.319 E18.0497
G1 X73.540 Y96.167 E18.7005
G1 X73.540 Y95.321 E18.7573
G1 X73.561 Y95.057 E18.7751
G1 X67.823 Y89.319 E19.3203
G1 X68.954 Y89.319 E19.3963
G1 X73.742 Y94.107 E19.8513
G1 X73.969 Y93.560 E19.8911
G1 X74.105 Y93.338 E19.9086
G1 X70.085 Y89.319 E20.2905
G1 X71.217 Y89.319 E20.3665
G1 X74.586 Y92.688 E20.6866
G1 X74.698 Y92.556 E20.6982
G1 X75.171 Y92.153 E20.7399
G1 X75.178 Y92.148 E20.7405
G1 X72.348 Y89.319 E21.0093
G1 X73.480 Y89.319 E21.0854
G1 X75.904 Y91.743 E21.3157
G1 X76.275 Y91.590 E21.3427
G1 X76.764 Y91.472 E21.3765
G1 X74.611 Y89.319 E21.5811
G1 X75.742 Y89.319 E21.6572
G1 X77.822 Y91.399 E21.8548
G1 X78.954 Y91.399 E21.9308
G1 X76.874 Y89.319 E22.1284
G1 X78.005 Y89.319 E22.2044
G1 X80.085 Y91.399 E22.4021
G1 X81.216 Y91.399 E22.4781
G1 X79.136 Y89.319 E22.6757
G1 X80.268 Y89.319 E22.7517
G1 X82.348 Y91.399 E22.9494
G1 X83.479 Y91.399 E23.0254
G1 X81.399 Y89.319 E23.2230
G1 X82.530 Y89.319 E23.2990
G1 X84.610 Y91.399 E23.4966
G1 X85.742 Y91.399 E23.5726
G1 X83.662 Y89.319 E23.7703
G1 X84.793 Y89.319 E23.8463
G1 X86.873 Y91.399 E24.0439
G1 X88.005 Y91.399 E24.1199
G1 X85.925 Y89.319 E24.3176
G1 X87.056 Y89.319 E24.3936
G1 X89.136 Y91.399 E24.5912
G1 X90.267 Y91.399 E24.6672
G1 X88.187 Y89.319 E24.8648
G1 X89.319 Y89.319 E24.9409
G1 X91.399 Y91.399 E25.1385
G1 X92.530 Y91.399 E25.2145
G1 X90.450 Y89.319 E25.4121
G1 X91.581 Y89.319 E25.4881
G1 X93.661 Y91.399 E25.6858
G1 X94.793 Y91.399 E25.7618
G1 X92.713 Y89.319 E25.9594
G1 X93.844 Y89.319 E26.0354
G1 X95.924 Y91.399 E26.2331
G1 X97.056 Y91.399 E26.3091
G1 X94.976 Y89.319 E26.5067
G1 X96.107 Y89.319 E26.5827
G1 X98.187 Y91.399 E26.7803
G1 X99.318 Y91.399 E26.8564
G1 X97.238 Y89.319 E27.0540
G1 X98.370 Y89.319 E27.1300
G1 X100.450 Y91.399 E27.3276
G1 X101.581 Y91.399 E27.4036
G1 X99.501 Y89.319 E27.6013
G1 X100.632 Y89.319 E27.6773
G1 X102.712 Y91.399 E27.8749
G1 X103.844 Y91.399 E27.9509
G1 X101.764 Y89.319 E28.1486
G1 X102.895 Y89.319 E28.2246
G1 X104.975 Y91.399 E28.4222
G1 X106.107 Y91.399 E28.4982
G1 X104.027 Y89.319 E28.6958
G1 X105.158 Y89.319 E28.7718
G1 X107.238 Y91.399 E28.9695
G1 X108.369 Y91.399 E29.0455
G1 X106.289 Y89.319 E29.2431
G1 X107.421 Y89.319 E29.3191
G1 X109.501 Y91.399 E29.5168
G1 X110.632 Y91.399 E29.5928
G1 X108.552 Y89.319 E29.7904
G1 X109.683 Y89.319 E29.8664
G1 X111.763 Y91.399 E30.0640
G1 X112.895 Y91.399 E30.1401
G1 X110.815 Y89.319 E30.3377
G1 X111.946 Y89.319 E30.4137
G1 X114.026 Y91.399 E30.6113
G1 X115.157 Y91.399 E30.6873
G1 X113.077 Y89.319 E30.8850
