; G-Code generated by Simplify3D(R) Version 4.0.0
; Mar 30, 2022 at 6:14:55 PM
; Settings Summary
;   processName,Process1
;   applyToModels,Frame_Bushing_Holder_Rear_V1.5
;   profileName,Default (modified)
;   profileVersion,2017-03-01 08:00:00
;   baseProfile,
;   printMaterial,
;   printQuality,
;   printExtruders,
;   extruderName,Primary Extruder
;   extruderToolheadNumber,0
;   extruderDiameter,0.4
;   extruderAutoWidth,0
;   extruderWidth,0.8
;   extrusionMultiplier,1.01
;   extruderUseRetract,1
;   extruderRetractionDistance,9
;   extruderExtraRestartDistance,0
;   extruderRetractionZLift,0
;   extruderRetractionSpeed,1988
;   extruderUseCoasting,0
;   extruderCoastingDistance,0.2
;   extruderUseWipe,0
;   extruderWipeDistance,5
;   primaryExtruder,0
;   layerHeight,0.2
;   topSolidLayers,4
;   bottomSolidLayers,4
;   perimeterOutlines,1
;   printPerimetersInsideOut,1
;   startPointOption,2
;   startPointOriginX,0
;   startPointOriginY,0
;   sequentialIslands,0
;   spiralVaseMode,0
;   firstLayerHeightPercentage,90
;   firstLayerWidthPercentage,100
;   firstLayerUnderspeed,0.5
;   useRaft,0
;   raftExtruder,0
;   raftTopLayers,3
;   raftBaseLayers,2
;   raftOffset,3
;   raftSeparationDistance,0.14
;   raftTopInfill,100
;   aboveRaftSpeedMultiplier,0.3
;   useSkirt,1
;   skirtExtruder,0
;   skirtLayers,1
;   skirtOutlines,1
;   skirtOffset,0.3
;   usePrimePillar,0
;   primePillarExtruder,999
;   primePillarWidth,12
;   primePillarLocation,7
;   primePillarSpeedMultiplier,1
;   useOozeShield,0
;   oozeShieldExtruder,999
;   oozeShieldOffset,2
;   oozeShieldOutlines,1
;   oozeShieldSidewallShape,1
;   oozeShieldSidewallAngle,30
;   oozeShieldSpeedMultiplier,1
;   infillExtruder,0
;   internalInfillPattern,Rectilinear
;   externalInfillPattern,Rectilinear
;   infillPercentage,35
;   outlineOverlapPercentage,30
;   infillExtrusionWidthPercentage,100
;   minInfillLength,5
;   infillLayerInterval,1
;   internalInfillAngles,45,-45
;   overlapInternalInfillAngles,0
;   externalInfillAngles,45,-45
;   generateSupport,1
;   supportExtruder,0
;   supportInfillPercentage,30
;   supportExtraInflation,0
;   supportBaseLayers,0
;   denseSupportExtruder,0
;   denseSupportLayers,0
;   denseSupportInfillPercentage,70
;   supportLayerInterval,1
;   supportHorizontalPartOffset,0.3
;   supportUpperSeparationLayers,1
;   supportLowerSeparationLayers,1
;   supportType,0
;   supportGridSpacing,4
;   maxOverhangAngle,45
;   supportAngles,0
;   temperatureName,Primary Extruder,Bed
;   temperatureNumber,0,0
;   temperatureSetpointCount,1,1
;   temperatureSetpointLayers,1,1
;   temperatureSetpointTemperatures,205,60
;   temperatureStabilizeAtStartup,1,1
;   temperatureHeatedBed,0,1
;   temperatureRelayBetweenLayers,0,0
;   temperatureRelayBetweenLoops,0,0
;   fanLayers,1,2
;   fanSpeeds,0,100
;   blipFanToFullPower,0
;   adjustSpeedForCooling,1
;   minSpeedLayerTime,15
;   minCoolingSpeedSlowdown,20
;   increaseFanForCooling,0
;   minFanLayerTime,45
;   maxCoolingFanSpeed,100
;   increaseFanForBridging,0
;   bridgingFanSpeed,100
;   use5D,1
;   relativeEdistances,0
;   allowEaxisZeroing,1
;   independentExtruderAxes,0
;   includeM10123,0
;   stickySupport,1
;   applyToolheadOffsets,0
;   gcodeXoffset,0
;   gcodeYoffset,0
;   gcodeZoffset,0
;   overrideMachineDefinition,1
;   machineTypeOverride,0
;   strokeXoverride,220
;   strokeYoverride,220
;   strokeZoverride,220
;   originOffsetXoverride,0
;   originOffsetYoverride,0
;   originOffsetZoverride,0
;   homeXdirOverride,-1
;   homeYdirOverride,-1
;   homeZdirOverride,-1
;   flipXoverride,1
;   flipYoverride,-1
;   flipZoverride,1
;   toolheadOffsets,0,0|0,0|0,0|0,0|0,0|0,0
;   overrideFirmwareConfiguration,0
;   firmwareTypeOverride,RepRap (Marlin/Repetier/Sprinter)
;   GPXconfigOverride,r2
;   baudRateOverride,115200
;   overridePrinterModels,0
;   printerModelsOverride
;   startingGcode,G28 ; home all axes
;   layerChangeGcode,
;   retractionGcode,
;   toolChangeGcode,
;   endingGcode,M104 S0 ; turn off extruder,M140 S0 ; turn off bed,M84 ; disable motors,G28 ; home all axes
;   exportFileFormat,gcode
;   celebration,0
;   celebrationSong,Random Song
;   postProcessing,
;   defaultSpeed,2000
;   outlineUnderspeed,0.95
;   solidInfillUnderspeed,0.8
;   supportUnderspeed,0.8
;   rapidXYspeed,4800
;   rapidZspeed,1002
;   minBridgingArea,50
;   bridgingExtraInflation,0
;   bridgingExtrusionMultiplier,1
;   bridgingSpeedMultiplier,1
;   useFixedBridgingAngle,0
;   fixedBridgingAngle,0
;   applyBridgingToPerimeters,0
;   filamentDiameters,1.75|1.75|1.75|1.75|1.75|1.75
;   filamentPricesPerKg,46|46|46|46|46|46
;   filamentDensities,1.25|1.25|1.25|1.25|1.25|1.25
;   useMinPrintHeight,0
;   minPrintHeight,0
;   useMaxPrintHeight,0
;   maxPrintHeight,0
;   useDiaphragm,0
;   diaphragmLayerInterval,20
;   robustSlicing,1
;   mergeAllIntoSolid,0
;   onlyRetractWhenCrossingOutline,1
;   retractBetweenLayers,1
;   useRetractionMinTravel,0
;   retractionMinTravel,3
;   retractWhileWiping,0
;   onlyWipeOutlines,1
;   avoidCrossingOutline,0
;   maxMovementDetourFactor,3
;   toolChangeRetractionDistance,12
;   toolChangeExtraRestartDistance,-0.5
;   toolChangeRetractionSpeed,600
;   externalThinWallType,0
;   internalThinWallType,2
;   thinWallAllowedOverlapPercentage,10
;   singleExtrusionMinLength,1
;   singleExtrusionMinPrintingWidthPercentage,50
;   singleExtrusionMaxPrintingWidthPercentage,200
;   singleExtrusionEndpointExtension,0.2
;   horizontalSizeCompensation,0
G90
M82
M106 S0
M140 S60
M190 S60
M104 S205 T0
M109 S205 T0
G28 ; home all axes
G92 E0
G1 E-9.0000 F1988
G1 Z0.180 F1002
; process Process1
; layer 1, Z = 0.180
T0
; tool H0.200 W0.800
; skirt
G1 X91.251 Y84.475 F4800
G1 E0.0000 F596
G92 E0
G1 X101.249 Y84.475 E0.6717 F1000
G1 X101.396 Y84.536 E0.6824
G1 X101.684 Y84.824 E0.7098
G1 X101.745 Y84.971 E0.7205
G1 X101.745 Y111.159 E2.4799
G1 X101.778 Y111.905 E2.5301
G1 X101.875 Y112.631 E2.5793
G1 X102.036 Y113.344 E2.6284
G1 X102.260 Y114.041 E2.6776
G1 X102.544 Y114.715 E2.7267
G1 X102.887 Y115.361 E2.7759
G1 X103.278 Y115.965 E2.8242
G1 X103.727 Y116.540 E2.8733
G1 X104.226 Y117.073 E2.9223
G1 X104.770 Y117.560 E2.9714
G1 X105.354 Y117.997 E3.0204
G1 X105.975 Y118.381 E3.0694
G1 X106.629 Y118.709 E3.1186
G1 X107.080 Y118.890 E3.1512
G1 X107.080 Y117.576 E3.2395
G1 X107.141 Y117.429 E3.2502
G1 X107.429 Y117.141 E3.2776
G1 X107.576 Y117.080 E3.2883
G1 X112.424 Y117.080 E3.6140
G1 X112.571 Y117.141 E3.6247
G1 X112.859 Y117.429 E3.6520
G1 X112.920 Y117.576 E3.6627
G1 X112.920 Y118.890 E3.7510
G1 X113.371 Y118.709 E3.7837
G1 X114.025 Y118.381 E3.8328
G1 X114.646 Y117.998 E3.8818
G1 X115.233 Y117.558 E3.9311
G1 X115.777 Y117.070 E3.9802
G1 X116.277 Y116.535 E4.0294
G1 X116.726 Y115.958 E4.0785
G1 X117.124 Y115.343 E4.1277
G1 X117.460 Y114.707 E4.1760
G1 X117.743 Y114.035 E4.2251
G1 X117.965 Y113.339 E4.2741
G1 X118.125 Y112.627 E4.3232
G1 X118.222 Y111.904 E4.3722
G1 X118.255 Y111.159 E4.4223
G1 X118.255 Y84.971 E6.1817
G1 X118.316 Y84.824 E6.1924
G1 X118.604 Y84.536 E6.2198
G1 X118.751 Y84.475 E6.2305
G1 X128.749 Y84.475 E6.9022
G1 X128.896 Y84.536 E6.9129
G1 X129.184 Y84.824 E6.9403
G1 X129.245 Y84.971 E6.9510
G1 X129.245 Y96.961 E7.7566
G1 X129.948 Y96.930 E7.8039
G1 X129.956 Y96.930 E7.8044
G1 X129.977 Y96.930 E7.8058
G1 X129.985 Y96.930 E7.8064
G1 X130.797 Y96.961 E7.8609
G1 X130.805 Y96.961 E7.8615
G1 X130.826 Y96.963 E7.8629
G1 X130.834 Y96.964 E7.8634
G1 X131.639 Y97.062 E7.9179
G1 X131.648 Y97.063 E7.9185
G1 X131.668 Y97.066 E7.9199
G1 X131.676 Y97.068 E7.9204
G1 X132.471 Y97.232 E7.9750
G1 X132.479 Y97.234 E7.9755
G1 X132.499 Y97.239 E7.9769
G1 X132.507 Y97.241 E7.9775
G1 X133.285 Y97.471 E8.0320
G1 X133.293 Y97.473 E8.0325
G1 X133.313 Y97.480 E8.0339
G1 X133.320 Y97.483 E8.0345
G1 X134.076 Y97.776 E8.0890
G1 X134.084 Y97.779 E8.0895
G1 X134.103 Y97.787 E8.0909
G1 X134.111 Y97.791 E8.0915
G1 X134.840 Y98.145 E8.1460
G1 X134.848 Y98.149 E8.1465
G1 X134.866 Y98.159 E8.1479
G1 X134.873 Y98.163 E8.1485
G1 X135.571 Y98.577 E8.2030
G1 X135.578 Y98.581 E8.2035
G1 X135.595 Y98.592 E8.2049
G1 X135.602 Y98.597 E8.2055
G1 X136.263 Y99.067 E8.2600
G1 X136.270 Y99.072 E8.2605
G1 X136.286 Y99.085 E8.2619
G1 X136.292 Y99.090 E8.2625
G1 X136.912 Y99.613 E8.3170
G1 X136.919 Y99.619 E8.3175
G1 X136.934 Y99.633 E8.3189
G1 X136.940 Y99.638 E8.3195
G1 X137.514 Y100.211 E8.3740
G1 X137.520 Y100.217 E8.3745
G1 X137.534 Y100.232 E8.3759
G1 X137.540 Y100.239 E8.3765
G1 X138.065 Y100.857 E8.4310
G1 X138.070 Y100.863 E8.4315
G1 X138.083 Y100.880 E8.4329
G1 X138.088 Y100.886 E8.4335
G1 X138.560 Y101.546 E8.4880
G1 X138.565 Y101.553 E8.4885
G1 X138.576 Y101.570 E8.4899
G1 X138.580 Y101.577 E8.4905
G1 X138.996 Y102.273 E8.5450
G1 X139.001 Y102.281 E8.5456
G1 X139.010 Y102.299 E8.5470
G1 X139.014 Y102.306 E8.5475
G1 X139.371 Y103.035 E8.6020
G1 X139.375 Y103.042 E8.6025
G1 X139.383 Y103.061 E8.6039
G1 X139.386 Y103.069 E8.6045
G1 X139.681 Y103.824 E8.6590
G1 X139.684 Y103.832 E8.6596
G1 X139.691 Y103.852 E8.6609
G1 X139.694 Y103.859 E8.6615
G1 X139.925 Y104.637 E8.7160
G1 X139.928 Y104.645 E8.7166
G1 X139.933 Y104.665 E8.7180
G1 X139.935 Y104.673 E8.7185
G1 X140.101 Y105.467 E8.7730
G1 X140.103 Y105.475 E8.7736
G1 X140.106 Y105.495 E8.7750
G1 X140.108 Y105.504 E8.7755
G1 X140.208 Y106.308 E8.8300
G1 X140.209 Y106.317 E8.8306
G1 X140.211 Y106.337 E8.8320
G1 X140.211 Y106.346 E8.8325
G1 X140.245 Y107.151 E8.8867
G1 X140.245 Y107.155 E8.8869
G1 X140.245 Y107.165 E8.8876
G1 X140.245 Y107.169 E8.8879
G1 X140.245 Y119.153 E9.6930
G1 X146.214 Y125.121 E10.2601
G1 X146.218 Y125.125 E10.2605
G1 X146.227 Y125.136 E10.2614
G1 X146.231 Y125.140 E10.2618
G1 X146.585 Y125.536 E10.2975
G1 X146.592 Y125.544 E10.2982
G1 X146.609 Y125.566 E10.3001
G1 X146.616 Y125.575 E10.3009
G1 X146.927 Y126.014 E10.3370
G1 X146.934 Y126.023 E10.3378
G1 X146.948 Y126.047 E10.3396
G1 X146.954 Y126.056 E10.3404
G1 X147.214 Y126.527 E10.3765
G1 X147.219 Y126.537 E10.3773
G1 X147.232 Y126.562 E10.3792
G1 X147.236 Y126.572 E10.3799
G1 X147.442 Y127.069 E10.4161
G1 X147.446 Y127.080 E10.4168
G1 X147.455 Y127.106 E10.4187
G1 X147.459 Y127.117 E10.4194
G1 X147.608 Y127.634 E10.4556
G1 X147.610 Y127.644 E10.4563
G1 X147.617 Y127.672 E10.4582
G1 X147.619 Y127.683 E10.4590
G1 X147.709 Y128.213 E10.4951
G1 X147.710 Y128.224 E10.4958
G1 X147.714 Y128.252 E10.4977
G1 X147.715 Y128.263 E10.4985
G1 X147.744 Y128.793 E10.5341
G1 X147.745 Y128.799 E10.5345
G1 X147.745 Y128.813 E10.5355
G1 X147.745 Y128.818 E10.5358
G1 X147.745 Y130.333 E10.6376
G1 X147.745 Y130.340 E10.6381
G1 X147.744 Y130.356 E10.6392
G1 X147.744 Y130.363 E10.6396
G1 X147.716 Y130.785 E10.6680
G1 X147.715 Y130.798 E10.6689
G1 X147.711 Y130.830 E10.6711
G1 X147.709 Y130.843 E10.6720
G1 X147.625 Y131.266 E10.7009
G1 X147.622 Y131.279 E10.7018
G1 X147.613 Y131.310 E10.7040
G1 X147.609 Y131.323 E10.7049
G1 X147.471 Y131.731 E10.7339
G1 X147.466 Y131.743 E10.7347
G1 X147.454 Y131.774 E10.7369
G1 X147.448 Y131.786 E10.7378
G1 X147.258 Y132.172 E10.7668
G1 X147.251 Y132.184 E10.7677
G1 X147.235 Y132.212 E10.7699
G1 X147.228 Y132.223 E10.7707
G1 X146.989 Y132.581 E10.7997
G1 X146.981 Y132.592 E10.8006
G1 X146.961 Y132.618 E10.8028
G1 X146.953 Y132.628 E10.8037
G1 X146.669 Y132.952 E10.8326
G1 X146.660 Y132.962 E10.8335
G1 X146.637 Y132.985 E10.8357
G1 X146.627 Y132.994 E10.8366
G1 X146.303 Y133.278 E10.8655
G1 X146.293 Y133.286 E10.8664
G1 X146.267 Y133.306 E10.8686
G1 X146.256 Y133.314 E10.8695
G1 X145.898 Y133.553 E10.8984
G1 X145.887 Y133.560 E10.8993
G1 X145.858 Y133.577 E10.9015
G1 X145.847 Y133.583 E10.9024
G1 X145.460 Y133.774 E10.9314
G1 X145.448 Y133.779 E10.9323
G1 X145.418 Y133.792 E10.9345
G1 X145.406 Y133.796 E10.9353
G1 X144.998 Y133.935 E10.9643
G1 X144.985 Y133.938 E10.9652
G1 X144.953 Y133.947 E10.9674
G1 X144.941 Y133.950 E10.9682
G1 X144.518 Y134.034 E10.9972
G1 X144.505 Y134.036 E10.9981
G1 X144.473 Y134.040 E11.0003
G1 X144.460 Y134.042 E11.0012
G1 X144.038 Y134.069 E11.0296
G1 X144.031 Y134.070 E11.0300
G1 X144.015 Y134.070 E11.0311
G1 X144.008 Y134.070 E11.0315
G1 X137.796 Y134.070 E11.4489
G1 X137.649 Y134.009 E11.4596
G1 X137.361 Y133.721 E11.4870
G1 X137.300 Y133.574 E11.4977
G1 X137.300 Y127.875 E11.8806
G1 X112.796 Y127.875 E13.5269
G1 X112.649 Y127.814 E13.5376
G1 X112.361 Y127.526 E13.5650
G1 X112.300 Y127.379 E13.5757
G1 X112.300 Y126.920 E13.6065
G1 X107.700 Y126.920 E13.9155
G1 X107.700 Y127.379 E13.9463
G1 X107.639 Y127.526 E13.9570
G1 X107.351 Y127.814 E13.9844
G1 X107.204 Y127.875 E13.9951
G1 X82.700 Y127.875 E15.6414
G1 X82.700 Y133.574 E16.0243
G1 X82.639 Y133.721 E16.0350
G1 X82.351 Y134.009 E16.0624
G1 X82.204 Y134.070 E16.0731
G1 X75.992 Y134.070 E16.4905
G1 X75.985 Y134.070 E16.4909
G1 X75.969 Y134.070 E16.4920
G1 X75.962 Y134.069 E16.4924
G1 X75.540 Y134.042 E16.5208
G1 X75.527 Y134.040 E16.5217
G1 X75.495 Y134.036 E16.5239
G1 X75.482 Y134.034 E16.5248
G1 X75.059 Y133.950 E16.5538
G1 X75.047 Y133.947 E16.5546
G1 X75.015 Y133.938 E16.5568
G1 X75.002 Y133.935 E16.5577
G1 X74.594 Y133.796 E16.5867
G1 X74.582 Y133.792 E16.5875
G1 X74.552 Y133.779 E16.5897
G1 X74.540 Y133.774 E16.5906
G1 X74.153 Y133.583 E16.6196
G1 X74.142 Y133.577 E16.6205
G1 X74.113 Y133.560 E16.6227
G1 X74.102 Y133.553 E16.6236
G1 X73.744 Y133.314 E16.6525
G1 X73.733 Y133.306 E16.6534
G1 X73.707 Y133.286 E16.6556
G1 X73.697 Y133.278 E16.6565
G1 X73.373 Y132.994 E16.6854
G1 X73.363 Y132.985 E16.6863
G1 X73.340 Y132.962 E16.6885
G1 X73.331 Y132.952 E16.6894
G1 X73.047 Y132.628 E16.7183
G1 X73.039 Y132.618 E16.7192
G1 X73.019 Y132.592 E16.7214
G1 X73.011 Y132.581 E16.7223
G1 X72.772 Y132.223 E16.7513
G1 X72.765 Y132.212 E16.7522
G1 X72.749 Y132.184 E16.7543
G1 X72.742 Y132.172 E16.7552
G1 X72.552 Y131.786 E16.7842
G1 X72.546 Y131.774 E16.7851
G1 X72.534 Y131.743 E16.7873
G1 X72.529 Y131.731 E16.7881
G1 X72.391 Y131.323 E16.8171
G1 X72.387 Y131.310 E16.8180
G1 X72.378 Y131.279 E16.8202
G1 X72.375 Y131.266 E16.8211
G1 X72.291 Y130.843 E16.8500
G1 X72.289 Y130.830 E16.8509
G1 X72.285 Y130.798 E16.8531
G1 X72.284 Y130.785 E16.8540
G1 X72.256 Y130.363 E16.8824
G1 X72.256 Y130.357 E16.8828
G1 X72.255 Y130.340 E16.8839
G1 X72.255 Y130.334 E16.8844
G1 X72.255 Y128.818 E16.9862
G1 X72.255 Y128.812 E16.9866
G1 X72.255 Y128.798 E16.9875
G1 X72.256 Y128.793 E16.9879
G1 X72.285 Y128.263 E17.0235
G1 X72.286 Y128.252 E17.0243
G1 X72.290 Y128.224 E17.0261
G1 X72.291 Y128.213 E17.0269
G1 X72.381 Y127.683 E17.0630
G1 X72.383 Y127.672 E17.0638
G1 X72.390 Y127.645 E17.0657
G1 X72.392 Y127.634 E17.0664
G1 X72.541 Y127.117 E17.1026
G1 X72.545 Y127.106 E17.1033
G1 X72.554 Y127.080 E17.1052
G1 X72.558 Y127.069 E17.1060
G1 X72.764 Y126.573 E17.1421
G1 X72.768 Y126.562 E17.1428
G1 X72.780 Y126.537 E17.1447
G1 X72.786 Y126.527 E17.1455
G1 X73.046 Y126.056 E17.1816
G1 X73.051 Y126.047 E17.1823
G1 X73.066 Y126.023 E17.1842
G1 X73.073 Y126.014 E17.1850
G1 X73.384 Y125.575 E17.2211
G1 X73.391 Y125.566 E17.2219
G1 X73.408 Y125.544 E17.2238
G1 X73.415 Y125.536 E17.2245
G1 X73.769 Y125.140 E17.2602
G1 X73.773 Y125.136 E17.2605
G1 X73.782 Y125.126 E17.2615
G1 X73.786 Y125.122 E17.2619
G1 X79.755 Y119.153 E17.8290
G1 X79.755 Y107.169 E18.6341
G1 X79.755 Y107.165 E18.6344
G1 X79.755 Y107.155 E18.6351
G1 X79.755 Y107.151 E18.6353
G1 X79.789 Y106.345 E18.6895
G1 X79.789 Y106.337 E18.6900
G1 X79.791 Y106.317 E18.6914
G1 X79.792 Y106.308 E18.6920
G1 X79.892 Y105.503 E18.7465
G1 X79.894 Y105.495 E18.7471
G1 X79.897 Y105.475 E18.7484
G1 X79.899 Y105.467 E18.7490
