; G-Code generated by Simplify3D(R) Version 4.0.0
; Mar 30, 2022 at 6:16:58 PM
; Settings Summary
;   processName,Process1
;   applyToModels,Frame_Motor_Foot_1_V1.5
;   profileName,Default (modified)
;   profileVersion,2017-03-01 08:00:00
;   baseProfile,
;   printMaterial,
;   printQuality,
;   printExtruders,
;   extruderName,Primary Extruder
;   extruderToolheadNumber,0
;   extruderDiameter,0.4
;   extruderAutoWidth,0
;   extruderWidth,0.8
;   extrusionMultiplier,1.01
;   extruderUseRetract,1
;   extruderRetractionDistance,9
;   extruderExtraRestartDistance,0
;   extruderRetractionZLift,0
;   extruderRetractionSpeed,1988
;   extruderUseCoasting,0
;   extruderCoastingDistance,0.2
;   extruderUseWipe,0
;   extruderWipeDistance,5
;   primaryExtruder,0
;   layerHeight,0.2
;   topSolidLayers,4
;   bottomSolidLayers,4
;   perimeterOutlines,1
;   printPerimetersInsideOut,1
;   startPointOption,2
;   startPointOriginX,0
;   startPointOriginY,0
;   sequentialIslands,0
;   spiralVaseMode,0
;   firstLayerHeightPercentage,90
;   firstLayerWidthPercentage,100
;   firstLayerUnderspeed,0.5
;   useRaft,0
;   raftExtruder,0
;   raftTopLayers,3
;   raftBaseLayers,2
;   raftOffset,3
;   raftSeparationDistance,0.14
;   raftTopInfill,100
;   aboveRaftSpeedMultiplier,0.3
;   useSkirt,1
;   skirtExtruder,0
;   skirtLayers,1
;   skirtOutlines,1
;   skirtOffset,0.3
;   usePrimePillar,0
;   primePillarExtruder,999
;   primePillarWidth,12
;   primePillarLocation,7
;   primePillarSpeedMultiplier,1
;   useOozeShield,0
;   oozeShieldExtruder,999
;   oozeShieldOffset,2
;   oozeShieldOutlines,1
;   oozeShieldSidewallShape,1
;   oozeShieldSidewallAngle,30
;   oozeShieldSpeedMultiplier,1
;   infillExtruder,0
;   internalInfillPattern,Rectilinear
;   externalInfillPattern,Rectilinear
;   infillPercentage,35
;   outlineOverlapPercentage,30
;   infillExtrusionWidthPercentage,100
;   minInfillLength,5
;   infillLayerInterval,1
;   internalInfillAngles,45,-45
;   overlapInternalInfillAngles,0
;   externalInfillAngles,45,-45
;   generateSupport,1
;   supportExtruder,0
;   supportInfillPercentage,30
;   supportExtraInflation,0
;   supportBaseLayers,0
;   denseSupportExtruder,0
;   denseSupportLayers,0
;   denseSupportInfillPercentage,70
;   supportLayerInterval,1
;   supportHorizontalPartOffset,0.3
;   supportUpperSeparationLayers,1
;   supportLowerSeparationLayers,1
;   supportType,0
;   supportGridSpacing,4
;   maxOverhangAngle,45
;   supportAngles,0
;   temperatureName,Primary Extruder,Bed
;   temperatureNumber,0,0
;   temperatureSetpointCount,1,1
;   temperatureSetpointLayers,1,1
;   temperatureSetpointTemperatures,205,60
;   temperatureStabilizeAtStartup,1,1
;   temperatureHeatedBed,0,1
;   temperatureRelayBetweenLayers,0,0
;   temperatureRelayBetweenLoops,0,0
;   fanLayers,1,2
;   fanSpeeds,0,100
;   blipFanToFullPower,0
;   adjustSpeedForCooling,1
;   minSpeedLayerTime,15
;   minCoolingSpeedSlowdown,20
;   increaseFanForCooling,0
;   minFanLayerTime,45
;   maxCoolingFanSpeed,100
;   increaseFanForBridging,0
;   bridgingFanSpeed,100
;   use5D,1
;   relativeEdistances,0
;   allowEaxisZeroing,1
;   independentExtruderAxes,0
;   includeM10123,0
;   stickySupport,1
;   applyToolheadOffsets,0
;   gcodeXoffset,0
;   gcodeYoffset,0
;   gcodeZoffset,0
;   overrideMachineDefinition,1
;   machineTypeOverride,0
;   strokeXoverride,220
;   strokeYoverride,220
;   strokeZoverride,220
;   originOffsetXoverride,0
;   originOffsetYoverride,0
;   originOffsetZoverride,0
;   homeXdirOverride,-1
;   homeYdirOverride,-1
;   homeZdirOverride,-1
;   flipXoverride,1
;   flipYoverride,-1
;   flipZoverride,1
;   toolheadOffsets,0,0|0,0|0,0|0,0|0,0|0,0
;   overrideFirmwareConfiguration,0
;   firmwareTypeOverride,RepRap (Marlin/Repetier/Sprinter)
;   GPXconfigOverride,r2
;   baudRateOverride,115200
;   overridePrinterModels,0
;   printerModelsOverride
;   startingGcode,G28 ; home all axes
;   layerChangeGcode,
;   retractionGcode,
;   toolChangeGcode,
;   endingGcode,M104 S0 ; turn off extruder,M140 S0 ; turn off bed,M84 ; disable motors,G28 ; home all axes
;   exportFileFormat,gcode
;   celebration,0
;   celebrationSong,Random Song
;   postProcessing,
;   defaultSpeed,2000
;   outlineUnderspeed,0.95
;   solidInfillUnderspeed,0.8
;   supportUnderspeed,0.8
;   rapidXYspeed,4800
;   rapidZspeed,1002
;   minBridgingArea,50
;   bridgingExtraInflation,0
;   bridgingExtrusionMultiplier,1
;   bridgingSpeedMultiplier,1
;   useFixedBridgingAngle,0
;   fixedBridgingAngle,0
;   applyBridgingToPerimeters,0
;   filamentDiameters,1.75|1.75|1.75|1.75|1.75|1.75
;   filamentPricesPerKg,46|46|46|46|46|46
;   filamentDensities,1.25|1.25|1.25|1.25|1.25|1.25
;   useMinPrintHeight,0
;   minPrintHeight,0
;   useMaxPrintHeight,0
;   maxPrintHeight,0
;   useDiaphragm,0
;   diaphragmLayerInterval,20
;   robustSlicing,1
;   mergeAllIntoSolid,0
;   onlyRetractWhenCrossingOutline,1
;   retractBetweenLayers,1
;   useRetractionMinTravel,0
;   retractionMinTravel,3
;   retractWhileWiping,0
;   onlyWipeOutlines,1
;   avoidCrossingOutline,0
;   maxMovementDetourFactor,3
;   toolChangeRetractionDistance,12
;   toolChangeExtraRestartDistance,-0.5
;   toolChangeRetractionSpeed,600
;   externalThinWallType,0
;   internalThinWallType,2
;   thinWallAllowedOverlapPercentage,10
;   singleExtrusionMinLength,1
;   singleExtrusionMinPrintingWidthPercentage,50
;   singleExtrusionMaxPrintingWidthPercentage,200
;   singleExtrusionEndpointExtension,0.2
;   horizontalSizeCompensation,0
G90
M82
M106 S0
M140 S60
M190 S60
M104 S205 T0
M109 S205 T0
G28 ; home all axes
G92 E0
G1 E-9.0000 F1988
G1 Z0.180 F1002
; process Process1
; layer 1, Z = 0.180
T0
; tool H0.200 W0.800
; skirt
G1 X89.977 Y72.503 F4800
G1 E0.0000 F596
G92 E0
G1 X90.012 Y72.466 E0.0034 F1000
G1 X90.026 Y72.452 E0.0048
G1 X90.294 Y72.223 E0.0284
G1 X90.310 Y72.210 E0.0298
G1 X90.351 Y72.181 E0.0332
G1 X90.368 Y72.171 E0.0345
G1 X90.676 Y71.999 E0.0582
G1 X90.694 Y71.991 E0.0595
G1 X90.740 Y71.971 E0.0629
G1 X90.759 Y71.964 E0.0643
G1 X91.098 Y71.856 E0.0882
G1 X91.118 Y71.851 E0.0895
G1 X91.168 Y71.841 E0.0930
G1 X91.188 Y71.837 E0.0943
G1 X91.526 Y71.803 E0.1172
G1 X91.536 Y71.802 E0.1179
G1 X91.562 Y71.800 E0.1196
G1 X91.572 Y71.800 E0.1203
G1 X110.061 Y71.800 E1.3624
G1 X110.072 Y71.800 E1.3632
G1 X110.099 Y71.802 E1.3650
G1 X110.110 Y71.803 E1.3657
G1 X110.475 Y71.843 E1.3904
G1 X110.497 Y71.846 E1.3919
G1 X110.550 Y71.858 E1.3956
G1 X110.571 Y71.864 E1.3970
G1 X110.932 Y71.986 E1.4226
G1 X110.952 Y71.995 E1.4241
G1 X111.002 Y72.018 E1.4278
G1 X111.021 Y72.028 E1.4292
G1 X111.347 Y72.226 E1.4549
G1 X111.365 Y72.238 E1.4563
G1 X111.408 Y72.271 E1.4600
G1 X111.425 Y72.285 E1.4615
G1 X111.700 Y72.549 E1.4871
G1 X111.715 Y72.565 E1.4885
G1 X111.750 Y72.607 E1.4922
G1 X111.763 Y72.624 E1.4937
G1 X111.964 Y72.925 E1.5180
G1 X111.970 Y72.935 E1.5187
G1 X111.984 Y72.958 E1.5206
G1 X111.989 Y72.968 E1.5213
G1 X150.747 Y147.420 E7.1606
G1 X150.740 Y147.629 E7.1747
G1 X150.456 Y148.097 E7.2114
G1 X150.274 Y148.200 E7.2255
G1 X82.044 Y148.200 E11.8095
G1 X81.857 Y148.090 E11.8241
G1 X81.579 Y147.594 E11.8624
G1 X81.583 Y147.377 E11.8769
G1 X81.863 Y146.920 E11.9129
G1 X73.576 Y146.920 E12.4697
G1 X73.567 Y146.916 E12.4704
G1 X72.917 Y147.976 E12.5539
G1 X72.843 Y148.047 E12.5608
G1 X72.617 Y148.174 E12.5783
G1 X72.517 Y148.200 E12.5851
G1 X69.796 Y148.200 E12.7680
G1 X69.649 Y148.139 E12.7787
G1 X69.361 Y147.851 E12.8061
G1 X69.300 Y147.704 E12.8167
G1 X69.300 Y143.484 E13.1002
G1 X69.300 Y143.473 E13.1010
G1 X69.302 Y143.445 E13.1029
G1 X69.303 Y143.433 E13.1037
G1 X69.345 Y143.058 E13.1290
G1 X69.349 Y143.036 E13.1305
G1 X69.362 Y142.981 E13.1343
G1 X69.368 Y142.960 E13.1358
G1 X69.498 Y142.589 E13.1622
G1 X69.507 Y142.568 E13.1637
G1 X69.531 Y142.518 E13.1675
G1 X69.542 Y142.498 E13.1690
G1 X69.751 Y142.167 E13.1953
G1 X69.764 Y142.149 E13.1968
G1 X69.799 Y142.105 E13.2006
G1 X69.814 Y142.088 E13.2021
G1 X70.092 Y141.810 E13.2285
G1 X70.109 Y141.796 E13.2300
G1 X70.153 Y141.761 E13.2337
G1 X70.171 Y141.748 E13.2352
G1 X70.503 Y141.540 E13.2616
G1 X70.524 Y141.528 E13.2632
G1 X70.580 Y141.502 E13.2674
G1 X70.602 Y141.493 E13.2690
G1 X71.285 Y141.269 E13.3173
G1 X71.670 Y141.082 E13.3460
G1 X71.952 Y140.881 E13.3693
G1 X72.290 Y140.530 E13.4020
G1 X78.343 Y130.709 E14.1771
G1 X78.354 Y130.693 E14.1784
G1 X78.383 Y130.654 E14.1817
G1 X78.395 Y130.639 E14.1830
G1 X78.629 Y130.387 E14.2061
G1 X78.643 Y130.373 E14.2074
G1 X78.681 Y130.340 E14.2108
G1 X78.696 Y130.327 E14.2121
G1 X78.980 Y130.123 E14.2356
G1 X78.999 Y130.111 E14.2371
G1 X79.048 Y130.083 E14.2409
G1 X79.068 Y130.073 E14.2424
G1 X79.470 Y129.904 E14.2717
G1 X79.492 Y129.896 E14.2733
G1 X79.547 Y129.880 E14.2772
G1 X79.570 Y129.875 E14.2787
G1 X79.941 Y129.812 E14.3040
G1 X79.961 Y129.810 E14.3053
G1 X80.013 Y129.807 E14.3088
G1 X80.034 Y129.806 E14.3102
G1 X80.370 Y129.820 E14.3328
G1 X80.386 Y129.821 E14.3339
G1 X80.425 Y129.826 E14.3366
G1 X80.441 Y129.829 E14.3377
G1 X80.684 Y129.878 E14.3543
G1 X80.703 Y129.883 E14.3556
G1 X80.749 Y129.897 E14.3588
G1 X80.767 Y129.903 E14.3601
G1 X81.141 Y130.058 E14.3874
G1 X81.156 Y130.065 E14.3884
G1 X81.190 Y130.083 E14.3910
G1 X81.204 Y130.090 E14.3921
G1 X82.728 Y131.022 E14.5121
G1 X82.821 Y131.151 E14.5228
G1 X82.917 Y131.547 E14.5502
G1 X82.892 Y131.704 E14.5609
G1 X82.049 Y133.080 E14.6693
G1 X86.424 Y133.080 E14.9632
G1 X86.571 Y133.141 E14.9739
G1 X86.859 Y133.429 E15.0013
G1 X86.920 Y133.576 E15.0120
G1 X86.920 Y138.664 E15.3538
G1 X88.920 Y135.398 E15.6111
G1 X89.050 Y135.304 E15.6219
G1 X89.448 Y135.210 E15.6494
G1 X89.606 Y135.235 E15.6601
G1 X91.214 Y136.234 E15.7873
G1 X91.230 Y136.245 E15.7886
G1 X91.269 Y136.274 E15.7918
G1 X91.283 Y136.286 E15.7931
G1 X91.532 Y136.517 E15.8160
G1 X91.548 Y136.534 E15.8175
G1 X91.586 Y136.578 E15.8214
G1 X91.599 Y136.596 E15.8229
G1 X91.844 Y136.958 E15.8522
G1 X91.855 Y136.977 E15.8537
G1 X91.881 Y137.027 E15.8575
G1 X91.890 Y137.048 E15.8590
G1 X92.025 Y137.396 E15.8841
G1 X92.031 Y137.416 E15.8855
G1 X92.045 Y137.466 E15.8890
G1 X92.049 Y137.486 E15.8904
G1 X92.103 Y137.822 E15.9132
G1 X92.105 Y137.839 E15.9144
G1 X92.108 Y137.881 E15.9173
G1 X92.109 Y137.899 E15.9184
G1 X92.106 Y138.147 E15.9351
G1 X92.106 Y138.161 E15.9361
G1 X92.103 Y138.196 E15.9384
G1 X92.101 Y138.209 E15.9393
G1 X92.012 Y138.804 E15.9797
G1 X92.007 Y139.122 E16.0011
G1 X92.045 Y139.437 E16.0224
G1 X92.127 Y139.743 E16.0437
G1 X92.250 Y140.035 E16.0650
G1 X92.412 Y140.307 E16.0862
G1 X92.610 Y140.555 E16.1076
G1 X92.832 Y140.766 E16.1282
G1 X93.094 Y140.955 E16.1498
G1 X93.353 Y141.093 E16.1696
G1 X93.654 Y141.204 E16.1911
G1 X94.031 Y141.282 E16.2170
G1 X94.276 Y141.299 E16.2335
G1 X132.261 Y141.300 E18.7855
G1 X132.477 Y141.276 E18.8001
G1 X132.645 Y141.217 E18.8121
G1 X132.796 Y141.122 E18.8241
G1 X132.922 Y140.996 E18.8360
G1 X133.017 Y140.845 E18.8480
G1 X133.076 Y140.677 E18.8600
G1 X133.100 Y140.461 E18.8746
G1 X133.100 Y138.731 E18.9908
G1 X133.083 Y138.549 E19.0031
G1 X133.041 Y138.406 E19.0131
G1 X132.974 Y138.273 E19.0231
G1 X132.863 Y138.128 E19.0354
G1 X129.812 Y134.857 E19.3359
G1 X129.672 Y134.733 E19.3484
G1 X129.511 Y134.639 E19.3610
G1 X112.838 Y126.863 E20.5970
G1 X112.828 Y126.859 E20.5977
G1 X112.806 Y126.847 E20.5994
G1 X112.797 Y126.842 E20.6001
G1 X112.501 Y126.665 E20.6233
G1 X112.484 Y126.653 E20.6247
G1 X112.443 Y126.623 E20.6281
G1 X112.427 Y126.610 E20.6295
G1 X112.164 Y126.368 E20.6535
G1 X112.149 Y126.353 E20.6549
G1 X112.115 Y126.315 E20.6583
G1 X112.103 Y126.299 E20.6597
G1 X111.894 Y126.008 E20.6837
G1 X111.883 Y125.991 E20.6851
G1 X111.857 Y125.946 E20.6886
G1 X111.848 Y125.928 E20.6899
G1 X111.707 Y125.611 E20.7132
G1 X111.703 Y125.601 E20.7139
G1 X111.694 Y125.577 E20.7157
G1 X111.691 Y125.568 E20.7164
G1 X108.564 Y115.967 E21.3947
G1 X108.412 Y115.650 E21.4183
G1 X108.258 Y115.416 E21.4372
G1 X108.028 Y115.156 E21.4605
G1 X107.696 Y114.887 E21.4892
G1 X107.397 Y114.718 E21.5123
G1 X107.067 Y114.594 E21.5360
G1 X106.763 Y114.527 E21.5569
G1 X106.409 Y114.503 E21.5807
G1 X105.905 Y114.561 E21.6148
G1 X105.574 Y114.664 E21.6381
G1 X105.294 Y114.798 E21.6590
G1 X104.918 Y115.063 E21.6898
G1 X104.700 Y115.279 E21.7105
G1 X104.557 Y115.464 E21.7262
G1 X102.515 Y118.774 E21.9874
G1 X102.508 Y118.784 E21.9883
G1 X102.490 Y118.810 E21.9904
G1 X102.483 Y118.820 E21.9912
G1 X102.220 Y119.146 E22.0194
G1 X102.205 Y119.162 E22.0208
G1 X102.167 Y119.201 E22.0245
G1 X102.150 Y119.215 E22.0260
G1 X101.884 Y119.428 E22.0489
G1 X101.871 Y119.438 E22.0500
G1 X101.835 Y119.462 E22.0529
G1 X101.820 Y119.471 E22.0540
G1 X101.603 Y119.591 E22.0707
G1 X101.589 Y119.598 E22.0718
G1 X101.552 Y119.614 E22.0745
G1 X101.537 Y119.620 E22.0756
G1 X101.224 Y119.732 E22.0979
G1 X101.207 Y119.737 E22.0991
G1 X101.167 Y119.747 E22.1019
G1 X101.150 Y119.751 E22.1030
G1 X100.905 Y119.794 E22.1198
G1 X100.888 Y119.796 E22.1209
G1 X100.848 Y119.800 E22.1236
G1 X100.831 Y119.800 E22.1247
G1 X100.502 Y119.803 E22.1469
G1 X100.485 Y119.803 E22.1480
G1 X100.444 Y119.800 E22.1508
G1 X100.427 Y119.798 E22.1519
G1 X100.172 Y119.757 E22.1692
G1 X100.150 Y119.752 E22.1708
G1 X100.094 Y119.737 E22.1747
G1 X100.072 Y119.729 E22.1762
G1 X99.389 Y119.449 E22.2258
G1 X99.269 Y119.320 E22.2377
G1 X99.138 Y118.920 E22.2660
G1 X93.576 Y118.920 E22.6396
G1 X93.429 Y118.859 E22.6503
G1 X93.141 Y118.571 E22.6777
G1 X93.080 Y118.424 E22.6884
G1 X93.080 Y115.035 E22.9161
G1 X92.980 Y115.104 E22.9242
G1 X92.555 Y115.186 E22.9533
G1 X92.390 Y115.148 E22.9647
G1 X91.980 Y114.842 E22.9991
G1 X91.965 Y114.830 E23.0004
G1 X91.930 Y114.798 E23.0035
G1 X91.917 Y114.785 E23.0048
G1 X91.693 Y114.540 E23.0271
G1 X91.683 Y114.528 E23.0281
G1 X91.658 Y114.497 E23.0308
G1 X91.649 Y114.484 E23.0319
G1 X91.511 Y114.273 E23.0488
G1 X91.502 Y114.258 E23.0500
G1 X91.481 Y114.220 E23.0529
G1 X91.473 Y114.204 E23.0541
G1 X91.341 Y113.896 E23.0766
G1 X91.335 Y113.879 E23.0778
G1 X91.321 Y113.836 E23.0808
G1 X91.316 Y113.819 E23.0820
G1 X91.244 Y113.508 E23.1035
G1 X91.240 Y113.489 E23.1048
G1 X91.234 Y113.439 E23.1081
G1 X91.232 Y113.420 E23.1095
G1 X91.222 Y113.052 E23.1342
G1 X91.222 Y113.029 E23.1357
G1 X91.227 Y112.972 E23.1396
G1 X91.231 Y112.949 E23.1412
G1 X91.313 Y112.545 E23.1688
G1 X91.319 Y112.523 E23.1704
G1 X91.336 Y112.469 E23.1742
G1 X91.345 Y112.448 E23.1757
G1 X91.508 Y112.090 E23.2022
G1 X91.513 Y112.079 E23.2030
G1 X91.528 Y112.052 E23.2050
G1 X91.534 Y112.041 E23.2058
G1 X101.897 Y95.126 E24.5386
G1 X102.296 Y94.298 E24.6004
G1 X102.300 Y94.289 E24.6011
G1 X102.312 Y94.267 E24.6028
G1 X102.317 Y94.258 E24.6034
G1 X106.176 Y87.961 E25.0996
G1 X106.263 Y87.780 E25.1131
G1 X106.302 Y87.621 E25.1241
G1 X106.307 Y87.458 E25.1351
G1 X106.280 Y87.296 E25.1461
G1 X106.206 Y87.110 E25.1595
G1 X104.282 Y83.415 E25.4395
G1 X104.164 Y83.239 E25.4537
G1 X104.039 Y83.119 E25.4653
G1 X103.891 Y83.029 E25.4770
G1 X103.727 Y82.973 E25.4886
G1 X103.517 Y82.950 E25.5028
G1 X87.358 Y82.950 E26.5885
G1 X87.347 Y82.950 E26.5892
G1 X87.321 Y82.948 E26.5910
G1 X87.310 Y82.947 E26.5917
G1 X86.954 Y82.910 E26.6157
G1 X86.933 Y82.906 E26.6171
G1 X86.882 Y82.895 E26.6207
G1 X86.861 Y82.889 E26.6221
G1 X86.509 Y82.773 E26.6471
G1 X86.489 Y82.765 E26.6485
G1 X86.440 Y82.744 E26.6521
G1 X86.422 Y82.734 E26.6535
G1 X86.099 Y82.544 E26.6786
G1 X86.081 Y82.533 E26.6800
G1 X86.038 Y82.501 E26.6836
G1 X86.022 Y82.487 E26.6851
G1 X85.749 Y82.236 E26.7100
G1 X85.734 Y82.220 E26.7114
G1 X85.699 Y82.180 E26.7150
G1 X85.686 Y82.164 E26.7164
