; G-Code generated by Simplify3D(R) Version 4.0.0
; Mar 30, 2022 at 6:13:47 PM
; Settings Summary
;   processName,Process1
;   applyToModels,Frame_Base_Plate_90mm_V1.5
;   profileName,Default (modified)
;   profileVersion,2017-03-01 08:00:00
;   baseProfile,
;   printMaterial,
;   printQuality,
;   printExtruders,
;   extruderName,Primary Extruder
;   extruderToolheadNumber,0
;   extruderDiameter,0.4
;   extruderAutoWidth,0
;   extruderWidth,0.8
;   extrusionMultiplier,1.01
;   extruderUseRetract,1
;   extruderRetractionDistance,9
;   extruderExtraRestartDistance,0
;   extruderRetractionZLift,0
;   extruderRetractionSpeed,1988
;   extruderUseCoasting,0
;   extruderCoastingDistance,0.2
;   extruderUseWipe,0
;   extruderWipeDistance,5
;   primaryExtruder,0
;   layerHeight,0.2
;   topSolidLayers,4
;   bottomSolidLayers,4
;   perimeterOutlines,1
;   printPerimetersInsideOut,1
;   startPointOption,2
;   startPointOriginX,0
;   startPointOriginY,0
;   sequentialIslands,0
;   spiralVaseMode,0
;   firstLayerHeightPercentage,90
;   firstLayerWidthPercentage,100
;   firstLayerUnderspeed,0.5
;   useRaft,0
;   raftExtruder,0
;   raftTopLayers,3
;   raftBaseLayers,2
;   raftOffset,3
;   raftSeparationDistance,0.14
;   raftTopInfill,100
;   aboveRaftSpeedMultiplier,0.3
;   useSkirt,1
;   skirtExtruder,0
;   skirtLayers,1
;   skirtOutlines,1
;   skirtOffset,0.3
;   usePrimePillar,0
;   primePillarExtruder,999
;   primePillarWidth,12
;   primePillarLocation,7
;   primePillarSpeedMultiplier,1
;   useOozeShield,0
;   oozeShieldExtruder,999
;   oozeShieldOffset,2
;   oozeShieldOutlines,1
;   oozeShieldSidewallShape,1
;   oozeShieldSidewallAngle,30
;   oozeShieldSpeedMultiplier,1
;   infillExtruder,0
;   internalInfillPattern,Rectilinear
;   externalInfillPattern,Rectilinear
;   infillPercentage,35
;   outlineOverlapPercentage,30
;   infillExtrusionWidthPercentage,100
;   minInfillLength,5
;   infillLayerInterval,1
;   internalInfillAngles,45,-45
;   overlapInternalInfillAngles,0
;   externalInfillAngles,45,-45
;   generateSupport,1
;   supportExtruder,0
;   supportInfillPercentage,30
;   supportExtraInflation,0
;   supportBaseLayers,0
;   denseSupportExtruder,0
;   denseSupportLayers,0
;   denseSupportInfillPercentage,70
;   supportLayerInterval,1
;   supportHorizontalPartOffset,0.3
;   supportUpperSeparationLayers,1
;   supportLowerSeparationLayers,1
;   supportType,0
;   supportGridSpacing,4
;   maxOverhangAngle,45
;   supportAngles,0
;   temperatureName,Primary Extruder,Bed
;   temperatureNumber,0,0
;   temperatureSetpointCount,1,1
;   temperatureSetpointLayers,1,1
;   temperatureSetpointTemperatures,205,60
;   temperatureStabilizeAtStartup,1,1
;   temperatureHeatedBed,0,1
;   temperatureRelayBetweenLayers,0,0
;   temperatureRelayBetweenLoops,0,0
;   fanLayers,1,2
;   fanSpeeds,0,100
;   blipFanToFullPower,0
;   adjustSpeedForCooling,1
;   minSpeedLayerTime,15
;   minCoolingSpeedSlowdown,20
;   increaseFanForCooling,0
;   minFanLayerTime,45
;   maxCoolingFanSpeed,100
;   increaseFanForBridging,0
;   bridgingFanSpeed,100
;   use5D,1
;   relativeEdistances,0
;   allowEaxisZeroing,1
;   independentExtruderAxes,0
;   includeM10123,0
;   stickySupport,1
;   applyToolheadOffsets,0
;   gcodeXoffset,0
;   gcodeYoffset,0
;   gcodeZoffset,0
;   overrideMachineDefinition,1
;   machineTypeOverride,0
;   strokeXoverride,220
;   strokeYoverride,220
;   strokeZoverride,220
;   originOffsetXoverride,0
;   originOffsetYoverride,0
;   originOffsetZoverride,0
;   homeXdirOverride,-1
;   homeYdirOverride,-1
;   homeZdirOverride,-1
;   flipXoverride,1
;   flipYoverride,-1
;   flipZoverride,1
;   toolheadOffsets,0,0|0,0|0,0|0,0|0,0|0,0
;   overrideFirmwareConfiguration,0
;   firmwareTypeOverride,RepRap (Marlin/Repetier/Sprinter)
;   GPXconfigOverride,r2
;   baudRateOverride,115200
;   overridePrinterModels,0
;   printerModelsOverride
;   startingGcode,G28 ; home all axes
;   layerChangeGcode,
;   retractionGcode,
;   toolChangeGcode,
;   endingGcode,M104 S0 ; turn off extruder,M140 S0 ; turn off bed,M84 ; disable motors,G28 ; home all axes
;   exportFileFormat,gcode
;   celebration,0
;   celebrationSong,Random Song
;   postProcessing,
;   defaultSpeed,2000
;   outlineUnderspeed,0.95
;   solidInfillUnderspeed,0.8
;   supportUnderspeed,0.8
;   rapidXYspeed,4800
;   rapidZspeed,1002
;   minBridgingArea,50
;   bridgingExtraInflation,0
;   bridgingExtrusionMultiplier,1
;   bridgingSpeedMultiplier,1
;   useFixedBridgingAngle,0
;   fixedBridgingAngle,0
;   applyBridgingToPerimeters,0
;   filamentDiameters,1.75|1.75|1.75|1.75|1.75|1.75
;   filamentPricesPerKg,46|46|46|46|46|46
;   filamentDensities,1.25|1.25|1.25|1.25|1.25|1.25
;   useMinPrintHeight,0
;   minPrintHeight,0
;   useMaxPrintHeight,0
;   maxPrintHeight,0
;   useDiaphragm,0
;   diaphragmLayerInterval,20
;   robustSlicing,1
;   mergeAllIntoSolid,0
;   onlyRetractWhenCrossingOutline,1
;   retractBetweenLayers,1
;   useRetractionMinTravel,0
;   retractionMinTravel,3
;   retractWhileWiping,0
;   onlyWipeOutlines,1
;   avoidCrossingOutline,0
;   maxMovementDetourFactor,3
;   toolChangeRetractionDistance,12
;   toolChangeExtraRestartDistance,-0.5
;   toolChangeRetractionSpeed,600
;   externalThinWallType,0
;   internalThinWallType,2
;   thinWallAllowedOverlapPercentage,10
;   singleExtrusionMinLength,1
;   singleExtrusionMinPrintingWidthPercentage,50
;   singleExtrusionMaxPrintingWidthPercentage,200
;   singleExtrusionEndpointExtension,0.2
;   horizontalSizeCompensation,0
G90
M82
M106 S0
M140 S60
M190 S60
M104 S205 T0
M109 S205 T0
G28 ; home all axes
G92 E0
G1 E-9.0000 F1988
G1 Z0.180 F1002
; process Process1
; layer 1, Z = 0.180
T0
; tool H0.200 W0.800
; skirt
G1 X36.649 Y65.771 F4800
G1 E0.0000 F596
G92 E0
G1 X36.796 Y65.710 E0.0107 F1000
G1 X183.204 Y65.710 E9.8472
G1 X183.351 Y65.771 E9.8579
G1 X183.639 Y66.059 E9.8852
G1 X183.700 Y66.206 E9.8959
G1 X183.700 Y153.794 E15.7806
G1 X183.639 Y153.941 E15.7912
G1 X183.351 Y154.229 E15.8186
G1 X183.204 Y154.290 E15.8293
G1 X36.796 Y154.290 E25.6658
G1 X36.649 Y154.229 E25.6765
G1 X36.361 Y153.941 E25.7039
G1 X36.300 Y153.794 E25.7146
G1 X36.300 Y66.206 E31.5992
G1 X36.361 Y66.059 E31.6099
G1 X36.649 Y65.771 E31.6373
G92 E0
G1 E-9.0000 F1988
; outer perimeter
G1 X37.400 Y66.810 F4800
G1 E0.0000 F1988
G92 E0
G1 X182.600 Y66.810 E9.7553 F950
G1 X182.600 Y153.190 E15.5588
G1 X37.400 Y153.190 E25.3141
G1 X37.400 Y66.810 E31.1176
G1 X43.350 Y88.584 F4800
G92 E0
G1 X42.805 Y88.788 E0.0391 F950
G1 X42.294 Y89.067 E0.0782
G1 X41.828 Y89.416 E0.1174
G1 X41.416 Y89.827 E0.1565
G1 X41.067 Y90.294 E0.1956
G1 X40.788 Y90.805 E0.2347
G1 X40.584 Y91.350 E0.2738
G1 X40.461 Y91.919 E0.3130
G1 X40.419 Y92.500 E0.3521
G1 X40.462 Y93.088 E0.3917
G1 X40.584 Y93.650 E0.4303
G1 X40.788 Y94.195 E0.4694
G1 X41.067 Y94.706 E0.5086
G1 X41.416 Y95.172 E0.5477
G1 X41.828 Y95.584 E0.5868
G1 X42.294 Y95.933 E0.6259
G1 X42.805 Y96.212 E0.6650
G1 X43.350 Y96.416 E0.7042
G1 X43.919 Y96.539 E0.7433
G1 X44.500 Y96.581 E0.7824
G1 X45.081 Y96.539 E0.8215
G1 X45.650 Y96.416 E0.8606
G1 X46.195 Y96.212 E0.8998
G1 X46.706 Y95.933 E0.9389
G1 X47.172 Y95.584 E0.9780
G1 X47.584 Y95.172 E1.0171
G1 X47.933 Y94.706 E1.0562
G1 X48.212 Y94.195 E1.0954
G1 X48.416 Y93.650 E1.1345
G1 X48.539 Y93.081 E1.1736
G1 X48.581 Y92.500 E1.2128
G1 X48.538 Y91.912 E1.2523
G1 X48.416 Y91.350 E1.2910
G1 X48.212 Y90.805 E1.3301
G1 X47.933 Y90.294 E1.3692
G1 X47.584 Y89.828 E1.4083
G1 X47.172 Y89.416 E1.4474
G1 X46.706 Y89.067 E1.4866
G1 X46.195 Y88.788 E1.5257
G1 X45.650 Y88.584 E1.5648
G1 X45.081 Y88.461 E1.6039
G1 X44.500 Y88.419 E1.6430
G1 X43.919 Y88.461 E1.6822
G1 X43.350 Y88.584 E1.7213
G92 E0
G1 E-9.0000 F1988
G1 X56.818 Y106.200 F4800
G1 E0.0000 F1988
G92 E0
G1 X56.325 Y106.601 E0.0426 F950
G1 X55.892 Y107.065 E0.0853
G1 X55.526 Y107.583 E0.1279
G1 X55.234 Y108.147 E0.1706
G1 X55.022 Y108.745 E0.2132
G1 X54.892 Y109.367 E0.2559
G1 X54.849 Y110.000 E0.2985
G1 X54.892 Y110.633 E0.3412
G1 X55.022 Y111.255 E0.3838
G1 X55.234 Y111.853 E0.4265
G1 X55.526 Y112.417 E0.4691
G1 X55.892 Y112.935 E0.5118
G1 X56.325 Y113.399 E0.5544
G1 X56.818 Y113.800 E0.5971
G1 X57.360 Y114.129 E0.6397
G1 X57.943 Y114.382 E0.6824
G1 X58.554 Y114.554 E0.7250
G1 X59.183 Y114.640 E0.7677
G1 X59.817 Y114.640 E0.8103
G1 X60.446 Y114.554 E0.8530
G1 X61.057 Y114.382 E0.8956
G1 X61.640 Y114.129 E0.9383
G1 X62.182 Y113.800 E0.9809
G1 X62.675 Y113.399 E1.0236
G1 X63.108 Y112.935 E1.0662
G1 X63.474 Y112.417 E1.1089
G1 X63.766 Y111.853 E1.1515
G1 X63.978 Y111.255 E1.1941
G1 X64.108 Y110.633 E1.2368
G1 X64.151 Y110.000 E1.2794
G1 X64.108 Y109.367 E1.3221
G1 X63.978 Y108.745 E1.3647
G1 X63.766 Y108.147 E1.4074
G1 X63.474 Y107.583 E1.4500
G1 X63.108 Y107.065 E1.4927
G1 X62.675 Y106.601 E1.5353
G1 X62.182 Y106.200 E1.5780
G1 X61.640 Y105.871 E1.6206
G1 X61.057 Y105.618 E1.6633
G1 X60.446 Y105.446 E1.7059
G1 X59.817 Y105.360 E1.7486
G1 X59.183 Y105.360 E1.7912
G1 X58.554 Y105.446 E1.8339
G1 X57.943 Y105.618 E1.8765
G1 X57.360 Y105.871 E1.9192
G1 X56.818 Y106.200 E1.9618
G92 E0
G1 E-9.0000 F1988
G1 X71.827 Y124.416 F4800
G1 E0.0000 F1988
G92 E0
G1 X71.416 Y124.828 E0.0391 F950
G1 X71.067 Y125.294 E0.0782
G1 X70.788 Y125.805 E0.1174
G1 X70.584 Y126.350 E0.1565
G1 X70.461 Y126.919 E0.1956
G1 X70.419 Y127.500 E0.2347
G1 X70.462 Y128.088 E0.2743
G1 X70.584 Y128.650 E0.3130
G1 X70.788 Y129.195 E0.3521
G1 X71.067 Y129.706 E0.3912
G1 X71.416 Y130.172 E0.4303
G1 X71.827 Y130.584 E0.4694
G1 X72.294 Y130.933 E0.5086
G1 X72.805 Y131.212 E0.5477
G1 X73.350 Y131.416 E0.5868
G1 X73.919 Y131.539 E0.6259
G1 X74.500 Y131.581 E0.6650
G1 X75.081 Y131.539 E0.7042
G1 X75.650 Y131.416 E0.7433
G1 X76.195 Y131.212 E0.7824
G1 X76.706 Y130.933 E0.8215
G1 X77.172 Y130.584 E0.8606
G1 X77.584 Y130.172 E0.8998
G1 X77.933 Y129.706 E0.9389
G1 X78.212 Y129.195 E0.9780
G1 X78.416 Y128.650 E1.0171
G1 X78.539 Y128.081 E1.0562
G1 X78.581 Y127.500 E1.0954
G1 X78.538 Y126.912 E1.1350
G1 X78.416 Y126.350 E1.1736
G1 X78.212 Y125.805 E1.2127
G1 X77.933 Y125.294 E1.2518
G1 X77.584 Y124.828 E1.2910
G1 X77.172 Y124.416 E1.3301
G1 X76.706 Y124.067 E1.3692
G1 X76.195 Y123.788 E1.4083
G1 X75.650 Y123.584 E1.4474
G1 X75.081 Y123.461 E1.4866
G1 X74.500 Y123.419 E1.5257
G1 X73.919 Y123.461 E1.5648
G1 X73.350 Y123.584 E1.6039
G1 X72.805 Y123.788 E1.6430
G1 X72.294 Y124.067 E1.6822
G1 X71.828 Y124.416 E1.7213
G92 E0
G1 E-9.0000 F1988
G1 X84.084 Y128.850 F4800
G1 E0.0000 F1988
G92 E0
G1 X83.961 Y129.419 E0.0391 F950
G1 X83.919 Y130.000 E0.0783
G1 X83.962 Y130.588 E0.1179
G1 X84.084 Y131.150 E0.1565
G1 X84.288 Y131.695 E0.1956
G1 X84.567 Y132.206 E0.2347
G1 X84.916 Y132.672 E0.2738
G1 X85.327 Y133.084 E0.3130
G1 X85.794 Y133.433 E0.3521
G1 X86.305 Y133.712 E0.3912
G1 X86.850 Y133.916 E0.4303
G1 X87.419 Y134.039 E0.4694
G1 X88.000 Y134.081 E0.5086
G1 X88.581 Y134.039 E0.5477
G1 X89.150 Y133.916 E0.5868
G1 X89.695 Y133.712 E0.6259
G1 X90.206 Y133.433 E0.6650
G1 X90.672 Y133.084 E0.7042
G1 X91.084 Y132.672 E0.7433
G1 X91.433 Y132.206 E0.7824
G1 X91.712 Y131.695 E0.8215
G1 X91.916 Y131.150 E0.8606
G1 X92.039 Y130.581 E0.8998
G1 X92.081 Y130.000 E0.9389
G1 X92.038 Y129.412 E0.9785
G1 X91.916 Y128.850 E1.0171
G1 X91.712 Y128.305 E1.0562
G1 X91.433 Y127.794 E1.0954
G1 X91.084 Y127.327 E1.1345
G1 X90.672 Y126.916 E1.1736
G1 X90.206 Y126.567 E1.2127
G1 X89.695 Y126.288 E1.2518
G1 X89.150 Y126.084 E1.2910
G1 X88.581 Y125.961 E1.3301
G1 X88.000 Y125.919 E1.3692
G1 X87.419 Y125.961 E1.4083
G1 X86.850 Y126.084 E1.4474
G1 X86.305 Y126.288 E1.4866
G1 X85.794 Y126.567 E1.5257
G1 X85.328 Y126.916 E1.5648
G1 X84.916 Y127.327 E1.6039
G1 X84.567 Y127.794 E1.6430
G1 X84.288 Y128.305 E1.6822
G1 X84.084 Y128.850 E1.7213
G1 X87.419 Y94.039 F4800
G92 E0
G1 X88.000 Y94.081 E0.0391 F950
G1 X88.581 Y94.039 E0.0782
G1 X89.150 Y93.916 E0.1174
G1 X89.695 Y93.712 E0.1565
G1 X90.206 Y93.433 E0.1956
G1 X90.672 Y93.084 E0.2347
G1 X91.084 Y92.672 E0.2738
G1 X91.433 Y92.206 E0.3130
G1 X91.712 Y91.695 E0.3521
G1 X91.916 Y91.150 E0.3912
G1 X92.039 Y90.581 E0.4303
G1 X92.081 Y90.000 E0.4695
G1 X92.038 Y89.412 E0.5091
G1 X91.916 Y88.850 E0.5477
G1 X91.712 Y88.305 E0.5868
G1 X91.433 Y87.794 E0.6259
G1 X91.084 Y87.328 E0.6650
G1 X90.672 Y86.916 E0.7042
G1 X90.206 Y86.567 E0.7433
G1 X89.695 Y86.288 E0.7824
G1 X89.150 Y86.084 E0.8215
G1 X88.581 Y85.961 E0.8606
G1 X88.000 Y85.919 E0.8998
G1 X87.419 Y85.961 E0.9389
G1 X86.850 Y86.084 E0.9780
G1 X86.305 Y86.288 E1.0171
G1 X85.794 Y86.567 E1.0562
G1 X85.328 Y86.916 E1.0954
G1 X84.916 Y87.328 E1.1345
G1 X84.567 Y87.794 E1.1736
G1 X84.288 Y88.305 E1.2127
G1 X84.084 Y88.850 E1.2518
G1 X83.961 Y89.419 E1.2910
G1 X83.919 Y90.000 E1.3301
G1 X83.962 Y90.588 E1.3697
G1 X84.084 Y91.150 E1.4083
G1 X84.288 Y91.695 E1.4474
G1 X84.567 Y92.206 E1.4866
G1 X84.916 Y92.672 E1.5257
G1 X85.328 Y93.084 E1.5648
G1 X85.794 Y93.433 E1.6039
G1 X86.305 Y93.712 E1.6430
G1 X86.850 Y93.916 E1.6822
G1 X87.419 Y94.039 E1.7213
; solid layer
G1 X87.843 Y94.631 F4800
G92 E0
G1 X145.842 Y152.630 E5.5107 F800
G1 X146.973 Y152.630 E5.5867
G1 X88.889 Y94.546 E11.1056
G1 X89.308 Y94.454 E11.1344
G1 X89.760 Y94.286 E11.1669
G1 X148.105 Y152.630 E16.7104
G1 X149.236 Y152.630 E16.7864
G1 X90.511 Y93.905 E22.3662
G1 X91.040 Y93.508 E22.4106
G1 X91.143 Y93.406 E22.4204
G1 X150.367 Y152.630 E28.0476
G1 X151.499 Y152.630 E28.1236
G1 X91.680 Y92.811 E33.8072
G1 X91.905 Y92.510 E33.8325
G1 X92.119 Y92.119 E33.8624
G1 X152.630 Y152.630 E39.6119
G1 X153.761 Y152.630 E39.6879
G1 X92.450 Y91.319 E45.5133
G1 X92.454 Y91.308 E45.5141
G1 X92.595 Y90.661 E45.5586
G1 X92.617 Y90.354 E45.5793
G1 X154.893 Y152.630 E51.4964
G1 X156.024 Y152.630 E51.5724
G1 X92.557 Y89.163 E57.6027
G92 E0
G1 E-9.0000 F1988
G1 X63.990 Y112.638 F4800
G1 E0.0000 F1988
G92 E0
G1 X74.228 Y122.877 E0.9728 F800
G1 X73.839 Y122.905 E0.9990
G1 X73.252 Y123.033 E1.0394
G1 X63.527 Y113.307 E1.9634
G1 X63.058 Y113.809 E2.0096
G1 X62.969 Y113.881 E2.0172
G1 X72.438 Y123.350 E2.9169
G1 X71.990 Y123.595 E2.9512
G1 X71.739 Y123.782 E2.9723
G1 X62.325 Y114.368 E3.8667
G1 X61.898 Y114.628 E3.9003
G1 X61.588 Y114.762 E3.9230
G1 X71.138 Y124.313 E4.8305
G1 X70.992 Y124.460 E4.8444
G1 X70.633 Y124.939 E4.8846
G1 X60.746 Y115.051 E5.8241
G1 X60.560 Y115.103 E5.8370
G1 X59.856 Y115.200 E5.8848
G1 X59.763 Y115.200 E5.8910
G1 X70.238 Y125.675 E6.8863
G1 X70.046 Y126.192 E6.9234
G1 X69.970 Y126.539 E6.9472
G1 X58.550 Y115.118 E8.0323
G1 X73.082 Y131.913 F4800
G92 E0
G1 X93.799 Y152.630 E1.9684 F800
G1 X94.930 Y152.630 E2.0444
G1 X74.438 Y132.138 E3.9914
G1 X74.500 Y132.142 E3.9956
G1 X75.161 Y132.095 E4.0401
G1 X75.461 Y132.030 E4.0608
G1 X96.061 Y152.630 E6.0181
G1 X97.193 Y152.630 E6.0941
G1 X76.325 Y131.762 E8.0769
G1 X76.428 Y131.723 E8.0843
G1 X77.010 Y131.405 E8.1289
G1 X77.061 Y131.367 E8.1332
G1 X98.324 Y152.630 E10.1535
G1 X99.456 Y152.630 E10.2295
G1 X77.687 Y130.862 E12.2978
G1 X78.009 Y130.540 E12.3283
G1 X78.218 Y130.261 E12.3518
G1 X100.587 Y152.630 E14.4772
G1 X101.718 Y152.630 E14.5532
G1 X78.650 Y129.562 E16.7450
G1 X78.723 Y129.429 E16.7552
G1 X78.954 Y128.808 E16.7997
G1 X78.967 Y128.748 E16.8038
G1 X102.850 Y152.630 E19.0730
G1 X103.981 Y152.630 E19.1490
G1 X79.123 Y127.772 E21.5109
G1 X84.795 Y126.656 F4800
G92 E0
G1 X48.730 Y90.591 E3.4267 F800
G1 X48.954 Y91.192 E3.4698
G1 X49.093 Y91.831 E3.5138
G1 X49.114 Y92.106 E3.5323
G1 X84.267 Y127.259 E6.8724
G1 X84.095 Y127.490 E6.8917
G1 X83.837 Y127.961 E6.9278
G1 X64.532 Y108.655 E8.7621
G1 X64.664 Y109.290 E8.8057
G1 X64.710 Y109.965 E8.8511
