; G-Code generated by Simplify3D(R) Version 4.0.0
; Mar 30, 2022 at 6:13:00 PM
; Settings Summary
;   processName,Process1
;   applyToModels,Frame_38mm_Strut
;   profileName,Default (modified)
;   profileVersion,2017-03-01 08:00:00
;   baseProfile,
;   printMaterial,
;   printQuality,
;   printExtruders,
;   extruderName,Primary Extruder
;   extruderToolheadNumber,0
;   extruderDiameter,0.4
;   extruderAutoWidth,0
;   extruderWidth,0.8
;   extrusionMultiplier,1.01
;   extruderUseRetract,1
;   extruderRetractionDistance,9
;   extruderExtraRestartDistance,0
;   extruderRetractionZLift,0
;   extruderRetractionSpeed,1988
;   extruderUseCoasting,0
;   extruderCoastingDistance,0.2
;   extruderUseWipe,0
;   extruderWipeDistance,5
;   primaryExtruder,0
;   layerHeight,0.2
;   topSolidLayers,4
;   bottomSolidLayers,4
;   perimeterOutlines,1
;   printPerimetersInsideOut,1
;   startPointOption,2
;   startPointOriginX,0
;   startPointOriginY,0
;   sequentialIslands,0
;   spiralVaseMode,0
;   firstLayerHeightPercentage,90
;   firstLayerWidthPercentage,100
;   firstLayerUnderspeed,0.5
;   useRaft,0
;   raftExtruder,0
;   raftTopLayers,3
;   raftBaseLayers,2
;   raftOffset,3
;   raftSeparationDistance,0.14
;   raftTopInfill,100
;   aboveRaftSpeedMultiplier,0.3
;   useSkirt,1
;   skirtExtruder,0
;   skirtLayers,1
;   skirtOutlines,1
;   skirtOffset,0.3
;   usePrimePillar,0
;   primePillarExtruder,999
;   primePillarWidth,12
;   primePillarLocation,7
;   primePillarSpeedMultiplier,1
;   useOozeShield,0
;   oozeShieldExtruder,999
;   oozeShieldOffset,2
;   oozeShieldOutlines,1
;   oozeShieldSidewallShape,1
;   oozeShieldSidewallAngle,30
;   oozeShieldSpeedMultiplier,1
;   infillExtruder,0
;   internalInfillPattern,Rectilinear
;   externalInfillPattern,Rectilinear
;   infillPercentage,35
;   outlineOverlapPercentage,30
;   infillExtrusionWidthPercentage,100
;   minInfillLength,5
;   infillLayerInterval,1
;   internalInfillAngles,45,-45
;   overlapInternalInfillAngles,0
;   externalInfillAngles,45,-45
;   generateSupport,1
;   supportExtruder,0
;   supportInfillPercentage,30
;   supportExtraInflation,0
;   supportBaseLayers,0
;   denseSupportExtruder,0
;   denseSupportLayers,0
;   denseSupportInfillPercentage,70
;   supportLayerInterval,1
;   supportHorizontalPartOffset,0.3
;   supportUpperSeparationLayers,1
;   supportLowerSeparationLayers,1
;   supportType,0
;   supportGridSpacing,4
;   maxOverhangAngle,45
;   supportAngles,0
;   temperatureName,Primary Extruder,Bed
;   temperatureNumber,0,0
;   temperatureSetpointCount,1,1
;   temperatureSetpointLayers,1,1
;   temperatureSetpointTemperatures,205,60
;   temperatureStabilizeAtStartup,1,1
;   temperatureHeatedBed,0,1
;   temperatureRelayBetweenLayers,0,0
;   temperatureRelayBetweenLoops,0,0
;   fanLayers,1,2
;   fanSpeeds,0,100
;   blipFanToFullPower,0
;   adjustSpeedForCooling,1
;   minSpeedLayerTime,15
;   minCoolingSpeedSlowdown,20
;   increaseFanForCooling,0
;   minFanLayerTime,45
;   maxCoolingFanSpeed,100
;   increaseFanForBridging,0
;   bridgingFanSpeed,100
;   use5D,1
;   relativeEdistances,0
;   allowEaxisZeroing,1
;   independentExtruderAxes,0
;   includeM10123,0
;   stickySupport,1
;   applyToolheadOffsets,0
;   gcodeXoffset,0
;   gcodeYoffset,0
;   gcodeZoffset,0
;   overrideMachineDefinition,1
;   machineTypeOverride,0
;   strokeXoverride,220
;   strokeYoverride,220
;   strokeZoverride,220
;   originOffsetXoverride,0
;   originOffsetYoverride,0
;   originOffsetZoverride,0
;   homeXdirOverride,-1
;   homeYdirOverride,-1
;   homeZdirOverride,-1
;   flipXoverride,1
;   flipYoverride,-1
;   flipZoverride,1
;   toolheadOffsets,0,0|0,0|0,0|0,0|0,0|0,0
;   overrideFirmwareConfiguration,0
;   firmwareTypeOverride,RepRap (Marlin/Repetier/Sprinter)
;   GPXconfigOverride,r2
;   baudRateOverride,115200
;   overridePrinterModels,0
;   printerModelsOverride
;   startingGcode,G28 ; home all axes
;   layerChangeGcode,
;   retractionGcode,
;   toolChangeGcode,
;   endingGcode,M104 S0 ; turn off extruder,M140 S0 ; turn off bed,M84 ; disable motors,G28 ; home all axes
;   exportFileFormat,gcode
;   celebration,0
;   celebrationSong,Random Song
;   postProcessing,
;   defaultSpeed,2000
;   outlineUnderspeed,0.95
;   solidInfillUnderspeed,0.8
;   supportUnderspeed,0.8
;   rapidXYspeed,4800
;   rapidZspeed,1002
;   minBridgingArea,50
;   bridgingExtraInflation,0
;   bridgingExtrusionMultiplier,1
;   bridgingSpeedMultiplier,1
;   useFixedBridgingAngle,0
;   fixedBridgingAngle,0
;   applyBridgingToPerimeters,0
;   filamentDiameters,1.75|1.75|1.75|1.75|1.75|1.75
;   filamentPricesPerKg,46|46|46|46|46|46
;   filamentDensities,1.25|1.25|1.25|1.25|1.25|1.25
;   useMinPrintHeight,0
;   minPrintHeight,0
;   useMaxPrintHeight,0
;   maxPrintHeight,0
;   useDiaphragm,0
;   diaphragmLayerInterval,20
;   robustSlicing,1
;   mergeAllIntoSolid,0
;   onlyRetractWhenCrossingOutline,1
;   retractBetweenLayers,1
;   useRetractionMinTravel,0
;   retractionMinTravel,3
;   retractWhileWiping,0
;   onlyWipeOutlines,1
;   avoidCrossingOutline,0
;   maxMovementDetourFactor,3
;   toolChangeRetractionDistance,12
;   toolChangeExtraRestartDistance,-0.5
;   toolChangeRetractionSpeed,600
;   externalThinWallType,0
;   internalThinWallType,2
;   thinWallAllowedOverlapPercentage,10
;   singleExtrusionMinLength,1
;   singleExtrusionMinPrintingWidthPercentage,50
;   singleExtrusionMaxPrintingWidthPercentage,200
;   singleExtrusionEndpointExtension,0.2
;   horizontalSizeCompensation,0
G90
M82
M106 S0
M140 S60
M190 S60
M104 S205 T0
M109 S205 T0
G28 ; home all axes
G92 E0
G1 E-9.0000 F1988
G1 Z0.180 F1002
; process Process1
; layer 1, Z = 0.180
T0
; tool H0.200 W0.800
; skirt
G1 X105.893 Y87.811 F4800
G1 E0.0000 F596
G92 E0
G1 X106.303 Y87.344 E0.0417 F1000
G1 X106.311 Y87.335 E0.0426
G1 X106.335 Y87.311 E0.0448
G1 X106.344 Y87.303 E0.0457
G1 X106.811 Y86.893 E0.0875
G1 X106.821 Y86.884 E0.0883
G1 X106.847 Y86.865 E0.0905
G1 X106.858 Y86.857 E0.0914
G1 X107.375 Y86.512 E0.1332
G1 X107.386 Y86.505 E0.1340
G1 X107.414 Y86.488 E0.1362
G1 X107.426 Y86.482 E0.1371
G1 X107.983 Y86.207 E0.1789
G1 X107.995 Y86.202 E0.1797
G1 X108.025 Y86.190 E0.1819
G1 X108.037 Y86.185 E0.1828
G1 X108.626 Y85.985 E0.2246
G1 X108.638 Y85.981 E0.2254
G1 X108.670 Y85.973 E0.2276
G1 X108.683 Y85.970 E0.2285
G1 X109.292 Y85.849 E0.2703
G1 X109.305 Y85.847 E0.2711
G1 X109.337 Y85.842 E0.2733
G1 X109.350 Y85.841 E0.2742
G1 X109.971 Y85.800 E0.3160
G1 X109.984 Y85.800 E0.3169
G1 X110.016 Y85.800 E0.3191
G1 X110.029 Y85.800 E0.3199
G1 X110.649 Y85.841 E0.3617
G1 X110.663 Y85.842 E0.3626
G1 X110.695 Y85.847 E0.3648
G1 X110.708 Y85.849 E0.3656
G1 X111.317 Y85.970 E0.4074
G1 X111.330 Y85.973 E0.4083
G1 X111.362 Y85.981 E0.4105
G1 X111.374 Y85.985 E0.4113
G1 X111.963 Y86.185 E0.4531
G1 X111.975 Y86.190 E0.4540
G1 X112.005 Y86.202 E0.4562
G1 X112.017 Y86.207 E0.4570
G1 X112.574 Y86.482 E0.4988
G1 X112.586 Y86.488 E0.4997
G1 X112.614 Y86.505 E0.5019
G1 X112.625 Y86.512 E0.5028
G1 X113.142 Y86.857 E0.5445
G1 X113.153 Y86.865 E0.5454
G1 X113.178 Y86.884 E0.5476
G1 X113.189 Y86.893 E0.5485
G1 X113.656 Y87.303 E0.5902
G1 X113.665 Y87.311 E0.5911
G1 X113.689 Y87.335 E0.5933
G1 X113.697 Y87.344 E0.5942
G1 X114.107 Y87.811 E0.6359
G1 X114.115 Y87.821 E0.6368
G1 X114.135 Y87.847 E0.6390
G1 X114.143 Y87.858 E0.6399
G1 X114.488 Y88.375 E0.6816
G1 X114.495 Y88.386 E0.6825
G1 X114.512 Y88.414 E0.6847
G1 X114.518 Y88.426 E0.6856
G1 X114.793 Y88.983 E0.7273
G1 X114.798 Y88.995 E0.7282
G1 X114.810 Y89.025 E0.7304
G1 X114.815 Y89.037 E0.7313
G1 X115.015 Y89.626 E0.7730
G1 X115.019 Y89.638 E0.7739
G1 X115.027 Y89.670 E0.7761
G1 X115.030 Y89.683 E0.7770
G1 X115.151 Y90.292 E0.8187
G1 X115.153 Y90.305 E0.8196
G1 X115.158 Y90.337 E0.8218
G1 X115.159 Y90.350 E0.8227
G1 X115.199 Y90.962 E0.8639
G1 X115.199 Y90.969 E0.8643
G1 X115.200 Y90.985 E0.8654
G1 X115.200 Y90.992 E0.8659
G1 X115.200 Y129.008 E3.4200
G1 X115.200 Y129.015 E3.4204
G1 X115.199 Y129.031 E3.4215
G1 X115.199 Y129.038 E3.4220
G1 X115.159 Y129.650 E3.4632
G1 X115.158 Y129.663 E3.4641
G1 X115.153 Y129.695 E3.4663
G1 X115.151 Y129.708 E3.4671
G1 X115.030 Y130.317 E3.5089
G1 X115.027 Y130.330 E3.5098
G1 X115.019 Y130.362 E3.5120
G1 X115.015 Y130.374 E3.5128
G1 X114.815 Y130.963 E3.5546
G1 X114.810 Y130.975 E3.5555
G1 X114.798 Y131.005 E3.5577
G1 X114.793 Y131.017 E3.5586
G1 X114.518 Y131.574 E3.6003
G1 X114.512 Y131.586 E3.6012
G1 X114.495 Y131.614 E3.6034
G1 X114.488 Y131.625 E3.6043
G1 X114.143 Y132.142 E3.6460
G1 X114.135 Y132.153 E3.6469
G1 X114.116 Y132.178 E3.6491
G1 X114.107 Y132.189 E3.6500
G1 X113.697 Y132.656 E3.6917
G1 X113.689 Y132.665 E3.6926
G1 X113.665 Y132.689 E3.6948
G1 X113.656 Y132.697 E3.6957
G1 X113.189 Y133.107 E3.7374
G1 X113.178 Y133.116 E3.7383
G1 X113.152 Y133.136 E3.7405
G1 X113.142 Y133.143 E3.7414
G1 X112.625 Y133.488 E3.7831
G1 X112.614 Y133.495 E3.7840
G1 X112.586 Y133.511 E3.7862
G1 X112.574 Y133.518 E3.7871
G1 X112.017 Y133.792 E3.8288
G1 X112.005 Y133.798 E3.8297
G1 X111.975 Y133.810 E3.8319
G1 X111.963 Y133.815 E3.8328
G1 X111.374 Y134.015 E3.8745
G1 X111.362 Y134.019 E3.8754
G1 X111.330 Y134.027 E3.8776
G1 X111.317 Y134.030 E3.8785
G1 X110.708 Y134.151 E3.9202
G1 X110.695 Y134.153 E3.9211
G1 X110.663 Y134.158 E3.9233
G1 X110.650 Y134.159 E3.9242
G1 X110.029 Y134.200 E3.9659
G1 X110.016 Y134.200 E3.9668
G1 X109.984 Y134.200 E3.9690
G1 X109.971 Y134.200 E3.9699
G1 X109.350 Y134.159 E4.0116
G1 X109.337 Y134.158 E4.0125
G1 X109.305 Y134.153 E4.0147
G1 X109.292 Y134.151 E4.0156
G1 X108.683 Y134.030 E4.0573
G1 X108.670 Y134.027 E4.0582
G1 X108.638 Y134.019 E4.0604
G1 X108.626 Y134.015 E4.0613
G1 X108.037 Y133.815 E4.1031
G1 X108.025 Y133.810 E4.1039
G1 X107.995 Y133.798 E4.1061
G1 X107.983 Y133.792 E4.1070
G1 X107.426 Y133.518 E4.1488
G1 X107.414 Y133.511 E4.1496
G1 X107.386 Y133.495 E4.1518
G1 X107.375 Y133.488 E4.1527
G1 X106.858 Y133.143 E4.1945
G1 X106.848 Y133.136 E4.1953
G1 X106.822 Y133.116 E4.1975
G1 X106.811 Y133.107 E4.1984
G1 X106.344 Y132.697 E4.2402
G1 X106.335 Y132.689 E4.2410
G1 X106.311 Y132.665 E4.2432
G1 X106.303 Y132.656 E4.2441
G1 X105.893 Y132.189 E4.2859
G1 X105.884 Y132.178 E4.2868
G1 X105.865 Y132.153 E4.2890
G1 X105.857 Y132.142 E4.2898
G1 X105.512 Y131.625 E4.3316
G1 X105.505 Y131.614 E4.3325
G1 X105.488 Y131.586 E4.3347
G1 X105.482 Y131.574 E4.3355
G1 X105.207 Y131.017 E4.3773
G1 X105.202 Y131.005 E4.3782
G1 X105.190 Y130.975 E4.3804
G1 X105.185 Y130.963 E4.3812
G1 X104.985 Y130.374 E4.4230
G1 X104.981 Y130.362 E4.4239
G1 X104.973 Y130.330 E4.4261
G1 X104.970 Y130.317 E4.4269
G1 X104.849 Y129.708 E4.4687
G1 X104.847 Y129.695 E4.4696
G1 X104.842 Y129.663 E4.4718
G1 X104.841 Y129.649 E4.4726
G1 X104.801 Y129.038 E4.5138
G1 X104.801 Y129.031 E4.5143
G1 X104.800 Y129.015 E4.5154
G1 X104.800 Y129.008 E4.5158
G1 X104.801 Y90.979 E7.0709
G1 X104.801 Y90.972 E7.0713
G1 X104.802 Y90.956 E7.0724
G1 X104.802 Y90.949 E7.0728
G1 X104.841 Y90.350 E7.1131
G1 X104.842 Y90.337 E7.1140
G1 X104.847 Y90.305 E7.1162
G1 X104.849 Y90.292 E7.1171
G1 X104.970 Y89.683 E7.1588
G1 X104.973 Y89.670 E7.1597
G1 X104.981 Y89.638 E7.1619
G1 X104.985 Y89.626 E7.1628
G1 X105.185 Y89.037 E7.2045
G1 X105.190 Y89.025 E7.2054
G1 X105.202 Y88.995 E7.2076
G1 X105.207 Y88.983 E7.2085
G1 X105.482 Y88.426 E7.2503
G1 X105.488 Y88.414 E7.2511
G1 X105.505 Y88.386 E7.2533
G1 X105.512 Y88.375 E7.2542
G1 X105.857 Y87.858 E7.2960
G1 X105.865 Y87.847 E7.2968
G1 X105.884 Y87.821 E7.2990
G1 X105.893 Y87.811 E7.2999
G92 E0
G1 E-9.0000 F1988
; outer perimeter
G1 X106.748 Y88.505 F4800
G1 E0.0000 F1988
G92 E0
G1 X107.101 Y88.101 E0.0360 F950
G1 X107.505 Y87.748 E0.0721
G1 X107.950 Y87.450 E0.1081
G1 X108.431 Y87.213 E0.1441
G1 X108.939 Y87.041 E0.1801
G1 X109.465 Y86.936 E0.2162
G1 X110.000 Y86.901 E0.2522
G1 X110.535 Y86.936 E0.2882
G1 X111.061 Y87.041 E0.3242
G1 X111.569 Y87.213 E0.3602
G1 X112.050 Y87.450 E0.3963
G1 X112.495 Y87.748 E0.4323
G1 X112.899 Y88.101 E0.4683
G1 X113.252 Y88.505 E0.5043
G1 X113.550 Y88.950 E0.5404
G1 X113.787 Y89.431 E0.5764
G1 X113.959 Y89.939 E0.6124
G1 X114.064 Y90.465 E0.6484
G1 X114.100 Y91.013 E0.6853
G1 X114.100 Y128.987 E3.2366
G1 X114.064 Y129.535 E3.2735
G1 X113.959 Y130.061 E3.3096
G1 X113.787 Y130.569 E3.3456
G1 X113.550 Y131.050 E3.3816
G1 X113.252 Y131.495 E3.4176
G1 X112.899 Y131.899 E3.4537
G1 X112.495 Y132.252 E3.4897
G1 X112.050 Y132.550 E3.5257
G1 X111.569 Y132.787 E3.5617
G1 X111.061 Y132.959 E3.5978
G1 X110.535 Y133.064 E3.6338
G1 X110.000 Y133.099 E3.6698
G1 X109.465 Y133.064 E3.7058
G1 X108.939 Y132.959 E3.7419
G1 X108.431 Y132.787 E3.7779
G1 X107.950 Y132.550 E3.8139
G1 X107.505 Y132.252 E3.8499
G1 X107.101 Y131.899 E3.8860
G1 X106.748 Y131.495 E3.9220
G1 X106.450 Y131.050 E3.9580
G1 X106.213 Y130.569 E3.9940
G1 X106.041 Y130.061 E4.0301
G1 X105.936 Y129.535 E4.0661
G1 X105.900 Y128.987 E4.1030
G1 X105.901 Y91.000 E6.6552
G1 X105.936 Y90.465 E6.6912
G1 X106.041 Y89.939 E6.7272
G1 X106.213 Y89.431 E6.7632
G1 X106.450 Y88.950 E6.7993
G1 X106.748 Y88.505 E6.8353
G1 X108.327 Y89.728 F4800
G92 E0
G1 X108.092 Y90.118 E0.0306 F950
G1 X107.946 Y90.555 E0.0616
G1 X107.898 Y91.001 E0.0917
G1 X107.949 Y91.460 E0.1228
G1 X108.093 Y91.885 E0.1528
G1 X108.327 Y92.272 E0.1833
G1 X108.641 Y92.604 E0.2140
G1 X109.016 Y92.857 E0.2444
G1 X109.442 Y93.027 E0.2752
G1 X109.887 Y93.099 E0.3055
G1 X110.346 Y93.073 E0.3364
G1 X110.779 Y92.953 E0.3666
G1 X111.186 Y92.735 E0.3976
G1 X111.527 Y92.445 E0.4277
G1 X111.801 Y92.084 E0.4581
G1 X111.993 Y91.669 E0.4888
G1 X112.090 Y91.227 E0.5192
G1 X112.090 Y90.768 E0.5500
G1 X111.992 Y90.328 E0.5803
G1 X111.798 Y89.911 E0.6112
G1 X111.526 Y89.554 E0.6414
G1 X111.173 Y89.256 E0.6724
G1 X110.777 Y89.046 E0.7026
G1 X110.331 Y88.924 E0.7336
G1 X109.884 Y88.901 E0.7637
G1 X109.437 Y88.975 E0.7941
G1 X109.012 Y89.144 E0.8249
G1 X108.639 Y89.398 E0.8552
G1 X108.327 Y89.728 E0.8857
G92 E0
G1 E-9.0000 F1988
G1 X109.884 Y126.901 F4800
G1 E0.0000 F1988
G92 E0
G1 X109.437 Y126.975 E0.0304 F950
G1 X109.012 Y127.144 E0.0612
G1 X108.639 Y127.398 E0.0915
G1 X108.323 Y127.732 E0.1224
G1 X108.092 Y128.117 E0.1525
G1 X107.949 Y128.540 E0.1825
G1 X107.897 Y129.000 E0.2136
G1 X107.949 Y129.460 E0.2447
G1 X108.093 Y129.885 E0.2748
G1 X108.327 Y130.272 E0.3053
G1 X108.641 Y130.604 E0.3360
G1 X109.016 Y130.857 E0.3664
G1 X109.442 Y131.027 E0.3972
G1 X109.887 Y131.099 E0.4274
G1 X110.346 Y131.073 E0.4584
G1 X110.779 Y130.953 E0.4885
G1 X111.186 Y130.735 E0.5196
G1 X111.527 Y130.445 E0.5497
G1 X111.801 Y130.084 E0.5801
G1 X111.993 Y129.669 E0.6108
G1 X112.090 Y129.227 E0.6412
G1 X112.090 Y128.768 E0.6720
G1 X111.992 Y128.328 E0.7023
G1 X111.798 Y127.911 E0.7332
G1 X111.526 Y127.554 E0.7634
G1 X111.173 Y127.256 E0.7944
G1 X110.777 Y127.046 E0.8245
G1 X110.331 Y126.924 E0.8556
G1 X109.884 Y126.901 E0.8857
G92 E0
G1 E-9.0000 F1988
; solid layer
G1 X113.298 Y130.268 F4800
G1 E0.0000 F1988
G92 E0
G1 X112.590 Y129.561 E0.0672 F800
G1 X112.527 Y129.848 E0.0870
G1 X112.284 Y130.374 E0.1259
G1 X112.279 Y130.381 E0.1265
G1 X112.905 Y131.007 E0.1860
G1 X112.807 Y131.154 E0.1979
G1 X112.502 Y131.502 E0.2290
G1 X112.377 Y131.611 E0.2401
G1 X111.754 Y130.987 E0.2993
G1 X111.504 Y131.201 E0.3214
G1 X111.068 Y131.433 E0.3546
G1 X111.722 Y132.087 E0.4167
G1 X111.354 Y132.269 E0.4443
G1 X110.920 Y132.416 E0.4751
G1 X110.149 Y131.645 E0.5483
G1 X109.857 Y131.662 E0.5679
G1 X109.292 Y131.570 E0.6064
G1 X108.752 Y131.355 E0.6454
G1 X108.677 Y131.305 E0.6515
G1 X109.904 Y132.532 E0.7681
G1 X109.538 Y132.508 E0.7928
