; G-Code generated by Simplify3D(R) Version 4.0.0
; Mar 30, 2022 at 6:14:24 PM
; Settings Summary
;   processName,Process1
;   applyToModels,Frame_Bushing_Holder_Front_V1.5
;   profileName,Default (modified)
;   profileVersion,2017-03-01 08:00:00
;   baseProfile,
;   printMaterial,
;   printQuality,
;   printExtruders,
;   extruderName,Primary Extruder
;   extruderToolheadNumber,0
;   extruderDiameter,0.4
;   extruderAutoWidth,0
;   extruderWidth,0.8
;   extrusionMultiplier,1.01
;   extruderUseRetract,1
;   extruderRetractionDistance,9
;   extruderExtraRestartDistance,0
;   extruderRetractionZLift,0
;   extruderRetractionSpeed,1988
;   extruderUseCoasting,0
;   extruderCoastingDistance,0.2
;   extruderUseWipe,0
;   extruderWipeDistance,5
;   primaryExtruder,0
;   layerHeight,0.2
;   topSolidLayers,4
;   bottomSolidLayers,4
;   perimeterOutlines,1
;   printPerimetersInsideOut,1
;   startPointOption,2
;   startPointOriginX,0
;   startPointOriginY,0
;   sequentialIslands,0
;   spiralVaseMode,0
;   firstLayerHeightPercentage,90
;   firstLayerWidthPercentage,100
;   firstLayerUnderspeed,0.5
;   useRaft,0
;   raftExtruder,0
;   raftTopLayers,3
;   raftBaseLayers,2
;   raftOffset,3
;   raftSeparationDistance,0.14
;   raftTopInfill,100
;   aboveRaftSpeedMultiplier,0.3
;   useSkirt,1
;   skirtExtruder,0
;   skirtLayers,1
;   skirtOutlines,1
;   skirtOffset,0.3
;   usePrimePillar,0
;   primePillarExtruder,999
;   primePillarWidth,12
;   primePillarLocation,7
;   primePillarSpeedMultiplier,1
;   useOozeShield,0
;   oozeShieldExtruder,999
;   oozeShieldOffset,2
;   oozeShieldOutlines,1
;   oozeShieldSidewallShape,1
;   oozeShieldSidewallAngle,30
;   oozeShieldSpeedMultiplier,1
;   infillExtruder,0
;   internalInfillPattern,Rectilinear
;   externalInfillPattern,Rectilinear
;   infillPercentage,35
;   outlineOverlapPercentage,30
;   infillExtrusionWidthPercentage,100
;   minInfillLength,5
;   infillLayerInterval,1
;   internalInfillAngles,45,-45
;   overlapInternalInfillAngles,0
;   externalInfillAngles,45,-45
;   generateSupport,1
;   supportExtruder,0
;   supportInfillPercentage,30
;   supportExtraInflation,0
;   supportBaseLayers,0
;   denseSupportExtruder,0
;   denseSupportLayers,0
;   denseSupportInfillPercentage,70
;   supportLayerInterval,1
;   supportHorizontalPartOffset,0.3
;   supportUpperSeparationLayers,1
;   supportLowerSeparationLayers,1
;   supportType,0
;   supportGridSpacing,4
;   maxOverhangAngle,45
;   supportAngles,0
;   temperatureName,Primary Extruder,Bed
;   temperatureNumber,0,0
;   temperatureSetpointCount,1,1
;   temperatureSetpointLayers,1,1
;   temperatureSetpointTemperatures,205,60
;   temperatureStabilizeAtStartup,1,1
;   temperatureHeatedBed,0,1
;   temperatureRelayBetweenLayers,0,0
;   temperatureRelayBetweenLoops,0,0
;   fanLayers,1,2
;   fanSpeeds,0,100
;   blipFanToFullPower,0
;   adjustSpeedForCooling,1
;   minSpeedLayerTime,15
;   minCoolingSpeedSlowdown,20
;   increaseFanForCooling,0
;   minFanLayerTime,45
;   maxCoolingFanSpeed,100
;   increaseFanForBridging,0
;   bridgingFanSpeed,100
;   use5D,1
;   relativeEdistances,0
;   allowEaxisZeroing,1
;   independentExtruderAxes,0
;   includeM10123,0
;   stickySupport,1
;   applyToolheadOffsets,0
;   gcodeXoffset,0
;   gcodeYoffset,0
;   gcodeZoffset,0
;   overrideMachineDefinition,1
;   machineTypeOverride,0
;   strokeXoverride,220
;   strokeYoverride,220
;   strokeZoverride,220
;   originOffsetXoverride,0
;   originOffsetYoverride,0
;   originOffsetZoverride,0
;   homeXdirOverride,-1
;   homeYdirOverride,-1
;   homeZdirOverride,-1
;   flipXoverride,1
;   flipYoverride,-1
;   flipZoverride,1
;   toolheadOffsets,0,0|0,0|0,0|0,0|0,0|0,0
;   overrideFirmwareConfiguration,0
;   firmwareTypeOverride,RepRap (Marlin/Repetier/Sprinter)
;   GPXconfigOverride,r2
;   baudRateOverride,115200
;   overridePrinterModels,0
;   printerModelsOverride
;   startingGcode,G28 ; home all axes
;   layerChangeGcode,
;   retractionGcode,
;   toolChangeGcode,
;   endingGcode,M104 S0 ; turn off extruder,M140 S0 ; turn off bed,M84 ; disable motors,G28 ; home all axes
;   exportFileFormat,gcode
;   celebration,0
;   celebrationSong,Random Song
;   postProcessing,
;   defaultSpeed,2000
;   outlineUnderspeed,0.95
;   solidInfillUnderspeed,0.8
;   supportUnderspeed,0.8
;   rapidXYspeed,4800
;   rapidZspeed,1002
;   minBridgingArea,50
;   bridgingExtraInflation,0
;   bridgingExtrusionMultiplier,1
;   bridgingSpeedMultiplier,1
;   useFixedBridgingAngle,0
;   fixedBridgingAngle,0
;   applyBridgingToPerimeters,0
;   filamentDiameters,1.75|1.75|1.75|1.75|1.75|1.75
;   filamentPricesPerKg,46|46|46|46|46|46
;   filamentDensities,1.25|1.25|1.25|1.25|1.25|1.25
;   useMinPrintHeight,0
;   minPrintHeight,0
;   useMaxPrintHeight,0
;   maxPrintHeight,0
;   useDiaphragm,0
;   diaphragmLayerInterval,20
;   robustSlicing,1
;   mergeAllIntoSolid,0
;   onlyRetractWhenCrossingOutline,1
;   retractBetweenLayers,1
;   useRetractionMinTravel,0
;   retractionMinTravel,3
;   retractWhileWiping,0
;   onlyWipeOutlines,1
;   avoidCrossingOutline,0
;   maxMovementDetourFactor,3
;   toolChangeRetractionDistance,12
;   toolChangeExtraRestartDistance,-0.5
;   toolChangeRetractionSpeed,600
;   externalThinWallType,0
;   internalThinWallType,2
;   thinWallAllowedOverlapPercentage,10
;   singleExtrusionMinLength,1
;   singleExtrusionMinPrintingWidthPercentage,50
;   singleExtrusionMaxPrintingWidthPercentage,200
;   singleExtrusionEndpointExtension,0.2
;   horizontalSizeCompensation,0
G90
M82
M106 S0
M140 S60
M190 S60
M104 S205 T0
M109 S205 T0
G28 ; home all axes
G92 E0
G1 E-9.0000 F1988
G1 Z0.180 F1002
; process Process1
; layer 1, Z = 0.180
T0
; tool H0.200 W0.800
; skirt
G1 X81.122 Y95.720 F4800
G1 E0.0000 F596
G92 E0
G1 X81.358 Y95.579 E0.0185 F1000
G1 X81.463 Y95.550 E0.0258
G1 X107.204 Y95.550 E1.7552
G1 X107.351 Y95.611 E1.7659
G1 X107.639 Y95.899 E1.7933
G1 X107.700 Y96.046 E1.8040
G1 X107.700 Y107.550 E2.5769
G1 X112.300 Y107.550 E2.8859
G1 X112.300 Y96.046 E3.6588
G1 X112.361 Y95.899 E3.6695
G1 X112.649 Y95.611 E3.6969
G1 X112.796 Y95.550 E3.7076
G1 X138.537 Y95.550 E5.4370
G1 X138.642 Y95.579 E5.4443
G1 X138.878 Y95.720 E5.4628
G1 X138.953 Y95.799 E5.4701
G1 X140.647 Y98.975 E5.7119
G1 X140.664 Y99.021 E5.7152
G1 X140.694 Y99.140 E5.7235
G1 X140.700 Y99.189 E5.7268
G1 X140.700 Y107.294 E6.2713
G1 X140.697 Y107.329 E6.2737
G1 X140.682 Y107.415 E6.2795
G1 X140.673 Y107.448 E6.2819
G1 X135.488 Y121.694 E7.3004
G1 X135.485 Y121.701 E7.3009
G1 X135.479 Y121.716 E7.3020
G1 X135.476 Y121.723 E7.3025
G1 X135.274 Y122.178 E7.3360
G1 X135.269 Y122.191 E7.3369
G1 X135.253 Y122.221 E7.3391
G1 X135.246 Y122.232 E7.3401
G1 X134.980 Y122.664 E7.3741
G1 X134.973 Y122.675 E7.3750
G1 X134.953 Y122.703 E7.3773
G1 X134.945 Y122.713 E7.3782
G1 X134.623 Y123.105 E7.4123
G1 X134.614 Y123.115 E7.4132
G1 X134.591 Y123.140 E7.4154
G1 X134.582 Y123.149 E7.4163
G1 X134.206 Y123.498 E7.4508
G1 X134.196 Y123.507 E7.4517
G1 X134.169 Y123.528 E7.4540
G1 X134.158 Y123.537 E7.4549
G1 X133.743 Y123.828 E7.4890
G1 X133.732 Y123.835 E7.4899
G1 X133.703 Y123.852 E7.4921
G1 X133.691 Y123.859 E7.4930
G1 X133.241 Y124.091 E7.5271
G1 X133.228 Y124.097 E7.5280
G1 X133.197 Y124.111 E7.5303
G1 X133.185 Y124.115 E7.5312
G1 X132.702 Y124.287 E7.5656
G1 X132.689 Y124.291 E7.5665
G1 X132.656 Y124.300 E7.5688
G1 X132.643 Y124.303 E7.5697
G1 X132.146 Y124.406 E7.6038
G1 X132.133 Y124.408 E7.6047
G1 X132.099 Y124.413 E7.6070
G1 X132.086 Y124.414 E7.6079
G1 X131.589 Y124.449 E7.6414
G1 X131.582 Y124.449 E7.6418
G1 X131.565 Y124.450 E7.6430
G1 X131.558 Y124.450 E7.6435
G1 X113.713 Y124.450 E8.8424
G1 X113.593 Y124.411 E8.8508
G1 X113.334 Y124.224 E8.8723
G1 X113.259 Y124.123 E8.8807
G1 X113.050 Y123.494 E8.9253
G1 X112.846 Y123.083 E8.9561
G1 X112.590 Y122.708 E8.9866
G1 X112.282 Y122.369 E9.0174
G1 X111.930 Y122.075 E9.0482
G1 X111.541 Y121.834 E9.0790
G1 X111.126 Y121.650 E9.1095
G1 X110.685 Y121.524 E9.1403
G1 X110.231 Y121.460 E9.1711
G1 X109.773 Y121.460 E9.2019
G1 X109.323 Y121.522 E9.2324
G1 X108.882 Y121.647 E9.2632
G1 X108.463 Y121.832 E9.2940
G1 X108.077 Y122.071 E9.3244
G1 X107.724 Y122.364 E9.3553
G1 X107.415 Y122.702 E9.3860
G1 X107.156 Y123.080 E9.4168
G1 X106.954 Y123.487 E9.4473
G1 X106.740 Y124.123 E9.4925
G1 X106.665 Y124.225 E9.5009
G1 X106.406 Y124.411 E9.5223
G1 X106.287 Y124.449 E9.5308
G1 X88.448 Y124.450 E10.7293
G1 X88.441 Y124.450 E10.7298
G1 X88.424 Y124.449 E10.7309
G1 X88.417 Y124.449 E10.7314
G1 X87.920 Y124.415 E10.7648
G1 X87.907 Y124.414 E10.7658
G1 X87.873 Y124.409 E10.7680
G1 X87.860 Y124.407 E10.7689
G1 X87.363 Y124.305 E10.8030
G1 X87.350 Y124.302 E10.8039
G1 X87.318 Y124.293 E10.8062
G1 X87.305 Y124.289 E10.8071
G1 X86.827 Y124.120 E10.8411
G1 X86.814 Y124.115 E10.8420
G1 X86.783 Y124.102 E10.8443
G1 X86.771 Y124.096 E10.8452
G1 X86.315 Y123.863 E10.8796
G1 X86.303 Y123.856 E10.8806
G1 X86.274 Y123.838 E10.8828
G1 X86.262 Y123.831 E10.8838
G1 X85.847 Y123.540 E10.9178
G1 X85.836 Y123.532 E10.9187
G1 X85.809 Y123.511 E10.9210
G1 X85.799 Y123.502 E10.9219
G1 X85.427 Y123.158 E10.9560
G1 X85.417 Y123.149 E10.9569
G1 X85.394 Y123.124 E10.9591
G1 X85.385 Y123.114 E10.9601
G1 X85.059 Y122.719 E10.9945
G1 X85.051 Y122.708 E10.9954
G1 X85.031 Y122.680 E10.9977
G1 X85.023 Y122.669 E10.9986
G1 X84.757 Y122.238 E11.0327
G1 X84.750 Y122.226 E11.0336
G1 X84.734 Y122.196 E11.0359
G1 X84.728 Y122.184 E11.0368
G1 X84.526 Y121.728 E11.0703
G1 X84.523 Y121.722 E11.0707
G1 X84.517 Y121.706 E11.0719
G1 X84.515 Y121.699 E11.0723
G1 X79.327 Y107.448 E12.0913
G1 X79.318 Y107.415 E12.0936
G1 X79.303 Y107.329 E12.0995
G1 X79.300 Y107.294 E12.1018
G1 X79.300 Y99.189 E12.6464
G1 X79.306 Y99.140 E12.6497
G1 X79.336 Y99.021 E12.6579
G1 X79.353 Y98.975 E12.6612
G1 X81.047 Y95.799 E12.9030
G1 X81.122 Y95.720 E12.9103
G92 E0
G1 E-9.0000 F1988
; outer perimeter
G1 X81.840 Y96.650 F4800
G1 E0.0000 F1988
G92 E0
G1 X106.600 Y96.650 E1.6635 F950
G1 X106.600 Y108.650 E2.4697
G1 X113.400 Y108.650 E2.9266
G1 X113.400 Y96.650 E3.7328
G1 X138.160 Y96.650 E5.3963
G1 X139.600 Y99.350 E5.6019
G1 X139.600 Y107.179 E6.1280
G1 X134.461 Y121.298 E7.1374
G1 X134.286 Y121.693 E7.1664
G1 X134.067 Y122.049 E7.1945
G1 X133.801 Y122.373 E7.2227
G1 X133.490 Y122.661 E7.2511
G1 X133.148 Y122.902 E7.2793
G1 X132.776 Y123.093 E7.3074
G1 X132.376 Y123.235 E7.3359
G1 X131.966 Y123.320 E7.3640
G1 X131.535 Y123.350 E7.3930
G1 X114.161 Y123.350 E8.5603
G1 X114.069 Y123.074 E8.5798
G1 X113.798 Y122.526 E8.6209
G1 X113.456 Y122.025 E8.6617
G1 X113.045 Y121.573 E8.7027
G1 X112.575 Y121.181 E8.7438
G1 X112.056 Y120.859 E8.7849
G1 X111.501 Y120.613 E8.8256
G1 X110.914 Y120.445 E8.8667
G1 X110.308 Y120.360 E8.9078
G1 X109.697 Y120.359 E8.9488
G1 X109.096 Y120.443 E8.9896
G1 X108.508 Y120.610 E9.0307
G1 X107.949 Y120.856 E9.0717
G1 X107.433 Y121.176 E9.1125
G1 X106.963 Y121.566 E9.1535
G1 X106.550 Y122.017 E9.1946
G1 X106.205 Y122.522 E9.2357
G1 X105.935 Y123.065 E9.2764
G1 X105.839 Y123.349 E9.2966
G1 X88.470 Y123.350 E10.4636
G1 X88.038 Y123.321 E10.4927
G1 X87.628 Y123.236 E10.5208
G1 X87.233 Y123.097 E10.5489
G1 X86.856 Y122.904 E10.5774
G1 X86.513 Y122.664 E10.6055
G1 X86.206 Y122.380 E10.6336
G1 X85.936 Y122.053 E10.6621
G1 X85.716 Y121.697 E10.6902
G1 X85.541 Y121.302 E10.7193
G1 X80.400 Y107.179 E11.7290
G1 X80.400 Y99.350 E12.2550
G1 X81.840 Y96.650 E12.4606
G1 X89.435 Y116.225 F4800
G92 E0
G1 X89.018 Y116.391 E0.0301 F950
G1 X88.636 Y116.650 E0.0611
G1 X88.323 Y116.983 E0.0918
G1 X88.090 Y117.371 E0.1222
G1 X87.946 Y117.801 E0.1527
G1 X87.898 Y118.255 E0.1834
G1 X87.948 Y118.705 E0.2138
G1 X88.095 Y119.137 E0.2445
G1 X88.329 Y119.525 E0.2749
G1 X88.644 Y119.856 E0.3056
G1 X89.019 Y120.109 E0.3360
G1 X89.439 Y120.276 E0.3664
G1 X89.891 Y120.349 E0.3971
G1 X90.347 Y120.323 E0.4278
G1 X90.782 Y120.201 E0.4582
G1 X91.182 Y119.988 E0.4886
G1 X91.530 Y119.692 E0.5193
G1 X91.803 Y119.331 E0.5497
G1 X91.994 Y118.916 E0.5804
G1 X92.090 Y118.477 E0.6106
G1 X92.090 Y118.021 E0.6412
G1 X91.991 Y117.574 E0.6720
G1 X91.797 Y117.161 E0.7027
G1 X91.523 Y116.801 E0.7330
G1 X91.178 Y116.508 E0.7635
G1 X90.773 Y116.295 E0.7942
G1 X90.337 Y116.175 E0.8246
G1 X89.881 Y116.151 E0.8553
G1 X89.435 Y116.225 E0.8857
G1 X127.898 Y118.255 F4800
G92 E0
G1 X127.948 Y118.705 E0.0304 F950
G1 X128.095 Y119.137 E0.0611
G1 X128.329 Y119.525 E0.0915
G1 X128.644 Y119.856 E0.1222
G1 X129.019 Y120.109 E0.1526
G1 X129.439 Y120.276 E0.1830
G1 X129.891 Y120.349 E0.2138
G1 X130.347 Y120.323 E0.2445
G1 X130.782 Y120.201 E0.2748
G1 X131.182 Y119.988 E0.3053
G1 X131.530 Y119.692 E0.3360
G1 X131.803 Y119.331 E0.3664
G1 X131.994 Y118.916 E0.3971
G1 X132.090 Y118.477 E0.4272
G1 X132.090 Y118.021 E0.4579
G1 X131.991 Y117.574 E0.4886
G1 X131.797 Y117.161 E0.5193
G1 X131.523 Y116.801 E0.5497
G1 X131.178 Y116.508 E0.5801
G1 X130.773 Y116.295 E0.6108
G1 X130.337 Y116.175 E0.6412
G1 X129.881 Y116.151 E0.6719
G1 X129.435 Y116.225 E0.7023
G1 X129.018 Y116.391 E0.7324
G1 X128.636 Y116.650 E0.7634
G1 X128.323 Y116.983 E0.7941
G1 X128.090 Y117.371 E0.8245
G1 X127.946 Y117.801 E0.8550
G1 X127.898 Y118.255 E0.8856
G92 E0
G1 E-9.0000 F1988
; solid layer
G1 X129.957 Y120.906 F4800
G1 E0.0000 F1988
G92 E0
G1 X131.820 Y122.769 E0.1770 F800
G1 X131.890 Y122.764 E0.1817
G1 X132.225 Y122.695 E0.2047
G1 X132.553 Y122.578 E0.2280
G1 X132.690 Y122.508 E0.2384
G1 X130.925 Y120.743 E0.4061
G1 X130.992 Y120.724 E0.4108
G1 X131.499 Y120.454 E0.4494
G1 X131.644 Y120.330 E0.4622
G1 X133.346 Y122.032 E0.6238
G1 X133.392 Y121.988 E0.6281
G1 X133.610 Y121.723 E0.6512
G1 X133.790 Y121.431 E0.6742
G1 X133.816 Y121.371 E0.6786
G1 X132.191 Y119.746 E0.8330
G1 X132.286 Y119.620 E0.8436
G1 X132.528 Y119.095 E0.8825
G1 X132.554 Y118.977 E0.8906
G1 X134.135 Y120.558 E1.0408
G1 X134.437 Y119.729 E1.1001
G1 X132.645 Y117.937 E1.2703
G92 E0
G1 E-9.0000 F1988
G1 X114.870 Y122.790 F4800
G1 E0.0000 F1988
G92 E0
G1 X114.194 Y122.114 E0.0642 F800
G92 E0
G1 E-9.0000 F1988
G1 X92.626 Y118.647 F4800
G1 E0.0000 F1988
G92 E0
G1 X96.768 Y122.790 E0.3936 F800
G1 X95.637 Y122.790 E0.4696
G1 X92.343 Y119.496 E0.7825
G1 X92.286 Y119.620 E0.7917
G1 X91.939 Y120.078 E0.8303
G1 X91.861 Y120.145 E0.8372
G1 X94.506 Y122.790 E1.0885
G1 X93.374 Y122.790 E1.1645
G1 X91.198 Y120.614 E1.3712
G1 X90.992 Y120.724 E1.3870
G1 X90.440 Y120.878 E1.4255
G1 X90.337 Y120.884 E1.4324
G1 X92.243 Y122.790 E1.6134
G1 X91.112 Y122.790 E1.6894
G1 X89.043 Y120.721 E1.8860
G1 X87.539 Y122.611 F4800
G92 E0
G1 X86.092 Y121.165 E0.1374 F800
G1 X86.060 Y121.092 E0.1427
G1 X85.436 Y119.377 E0.2654
G1 X88.849 Y122.790 E0.5897
G1 X89.980 Y122.790 E0.6657
G1 X84.788 Y117.598 E1.1591
G1 X84.141 Y115.819 E1.2862
G1 X87.526 Y119.204 E1.6079
G1 X87.398 Y118.827 E1.6346
G1 X87.335 Y118.256 E1.6732
G1 X87.371 Y117.918 E1.6961
G1 X83.493 Y114.040 E2.0645
G1 X82.846 Y112.261 E2.1917
G1 X87.632 Y117.047 E2.6464
G1 X87.873 Y116.644 E2.6780
G1 X88.109 Y116.393 E2.7011
G1 X82.198 Y110.482 E3.2628
G1 X81.551 Y108.704 E3.3899
G1 X88.746 Y115.899 E4.0736
G1 X88.754 Y115.894 E4.0743
G1 X89.283 Y115.683 E4.1125
G1 X89.608 Y115.629 E4.1346
G1 X80.960 Y106.982 E4.9563
G1 X80.960 Y105.850 E5.0323
G1 X90.844 Y115.734 E5.9714
G1 X90.981 Y115.772 E5.9809
G1 X91.493 Y116.042 E6.0198
G1 X91.931 Y116.413 E6.0584
G1 X92.279 Y116.869 E6.0969
G1 X92.524 Y117.393 E6.1358
G1 X92.530 Y117.420 E6.1377
G1 X97.900 Y122.790 E6.6479
G1 X99.031 Y122.790 E6.7239
G1 X80.960 Y104.719 E8.4409
G1 X80.960 Y103.587 E8.5169
G1 X100.162 Y122.790 E10.3414
G1 X101.294 Y122.790 E10.4174
