; G-Code generated by Simplify3D(R) Version 4.0.0
; Mar 30, 2022 at 6:15:59 PM
; Settings Summary
;   processName,Process1
;   applyToModels,Frame_Motor_ESC_Box_RC-CAM
;   profileName,Default (modified)
;   profileVersion,2017-03-01 08:00:00
;   baseProfile,
;   printMaterial,
;   printQuality,
;   printExtruders,
;   extruderName,Primary Extruder
;   extruderToolheadNumber,0
;   extruderDiameter,0.4
;   extruderAutoWidth,0
;   extruderWidth,0.8
;   extrusionMultiplier,1.01
;   extruderUseRetract,1
;   extruderRetractionDistance,9
;   extruderExtraRestartDistance,0
;   extruderRetractionZLift,0
;   extruderRetractionSpeed,1988
;   extruderUseCoasting,0
;   extruderCoastingDistance,0.2
;   extruderUseWipe,0
;   extruderWipeDistance,5
;   primaryExtruder,0
;   layerHeight,0.2
;   topSolidLayers,4
;   bottomSolidLayers,4
;   perimeterOutlines,1
;   printPerimetersInsideOut,1
;   startPointOption,2
;   startPointOriginX,0
;   startPointOriginY,0
;   sequentialIslands,0
;   spiralVaseMode,0
;   firstLayerHeightPercentage,90
;   firstLayerWidthPercentage,100
;   firstLayerUnderspeed,0.5
;   useRaft,0
;   raftExtruder,0
;   raftTopLayers,3
;   raftBaseLayers,2
;   raftOffset,3
;   raftSeparationDistance,0.14
;   raftTopInfill,100
;   aboveRaftSpeedMultiplier,0.3
;   useSkirt,1
;   skirtExtruder,0
;   skirtLayers,1
;   skirtOutlines,1
;   skirtOffset,0.3
;   usePrimePillar,0
;   primePillarExtruder,999
;   primePillarWidth,12
;   primePillarLocation,7
;   primePillarSpeedMultiplier,1
;   useOozeShield,0
;   oozeShieldExtruder,999
;   oozeShieldOffset,2
;   oozeShieldOutlines,1
;   oozeShieldSidewallShape,1
;   oozeShieldSidewallAngle,30
;   oozeShieldSpeedMultiplier,1
;   infillExtruder,0
;   internalInfillPattern,Rectilinear
;   externalInfillPattern,Rectilinear
;   infillPercentage,35
;   outlineOverlapPercentage,30
;   infillExtrusionWidthPercentage,100
;   minInfillLength,5
;   infillLayerInterval,1
;   internalInfillAngles,45,-45
;   overlapInternalInfillAngles,0
;   externalInfillAngles,45,-45
;   generateSupport,1
;   supportExtruder,0
;   supportInfillPercentage,30
;   supportExtraInflation,0
;   supportBaseLayers,0
;   denseSupportExtruder,0
;   denseSupportLayers,0
;   denseSupportInfillPercentage,70
;   supportLayerInterval,1
;   supportHorizontalPartOffset,0.3
;   supportUpperSeparationLayers,1
;   supportLowerSeparationLayers,1
;   supportType,0
;   supportGridSpacing,4
;   maxOverhangAngle,45
;   supportAngles,0
;   temperatureName,Primary Extruder,Bed
;   temperatureNumber,0,0
;   temperatureSetpointCount,1,1
;   temperatureSetpointLayers,1,1
;   temperatureSetpointTemperatures,205,60
;   temperatureStabilizeAtStartup,1,1
;   temperatureHeatedBed,0,1
;   temperatureRelayBetweenLayers,0,0
;   temperatureRelayBetweenLoops,0,0
;   fanLayers,1,2
;   fanSpeeds,0,100
;   blipFanToFullPower,0
;   adjustSpeedForCooling,1
;   minSpeedLayerTime,15
;   minCoolingSpeedSlowdown,20
;   increaseFanForCooling,0
;   minFanLayerTime,45
;   maxCoolingFanSpeed,100
;   increaseFanForBridging,0
;   bridgingFanSpeed,100
;   use5D,1
;   relativeEdistances,0
;   allowEaxisZeroing,1
;   independentExtruderAxes,0
;   includeM10123,0
;   stickySupport,1
;   applyToolheadOffsets,0
;   gcodeXoffset,0
;   gcodeYoffset,0
;   gcodeZoffset,0
;   overrideMachineDefinition,1
;   machineTypeOverride,0
;   strokeXoverride,220
;   strokeYoverride,220
;   strokeZoverride,220
;   originOffsetXoverride,0
;   originOffsetYoverride,0
;   originOffsetZoverride,0
;   homeXdirOverride,-1
;   homeYdirOverride,-1
;   homeZdirOverride,-1
;   flipXoverride,1
;   flipYoverride,-1
;   flipZoverride,1
;   toolheadOffsets,0,0|0,0|0,0|0,0|0,0|0,0
;   overrideFirmwareConfiguration,0
;   firmwareTypeOverride,RepRap (Marlin/Repetier/Sprinter)
;   GPXconfigOverride,r2
;   baudRateOverride,115200
;   overridePrinterModels,0
;   printerModelsOverride
;   startingGcode,G28 ; home all axes
;   layerChangeGcode,
;   retractionGcode,
;   toolChangeGcode,
;   endingGcode,M104 S0 ; turn off extruder,M140 S0 ; turn off bed,M84 ; disable motors,G28 ; home all axes
;   exportFileFormat,gcode
;   celebration,0
;   celebrationSong,Random Song
;   postProcessing,
;   defaultSpeed,2000
;   outlineUnderspeed,0.95
;   solidInfillUnderspeed,0.8
;   supportUnderspeed,0.8
;   rapidXYspeed,4800
;   rapidZspeed,1002
;   minBridgingArea,50
;   bridgingExtraInflation,0
;   bridgingExtrusionMultiplier,1
;   bridgingSpeedMultiplier,1
;   useFixedBridgingAngle,0
;   fixedBridgingAngle,0
;   applyBridgingToPerimeters,0
;   filamentDiameters,1.75|1.75|1.75|1.75|1.75|1.75
;   filamentPricesPerKg,46|46|46|46|46|46
;   filamentDensities,1.25|1.25|1.25|1.25|1.25|1.25
;   useMinPrintHeight,0
;   minPrintHeight,0
;   useMaxPrintHeight,0
;   maxPrintHeight,0
;   useDiaphragm,0
;   diaphragmLayerInterval,20
;   robustSlicing,1
;   mergeAllIntoSolid,0
;   onlyRetractWhenCrossingOutline,1
;   retractBetweenLayers,1
;   useRetractionMinTravel,0
;   retractionMinTravel,3
;   retractWhileWiping,0
;   onlyWipeOutlines,1
;   avoidCrossingOutline,0
;   maxMovementDetourFactor,3
;   toolChangeRetractionDistance,12
;   toolChangeExtraRestartDistance,-0.5
;   toolChangeRetractionSpeed,600
;   externalThinWallType,0
;   internalThinWallType,2
;   thinWallAllowedOverlapPercentage,10
;   singleExtrusionMinLength,1
;   singleExtrusionMinPrintingWidthPercentage,50
;   singleExtrusionMaxPrintingWidthPercentage,200
;   singleExtrusionEndpointExtension,0.2
;   horizontalSizeCompensation,0
G90
M82
M106 S0
M140 S60
M190 S60
M104 S205 T0
M109 S205 T0
G28 ; home all axes
G92 E0
G1 E-9.0000 F1988
G1 Z0.180 F1002
; process Process1
; layer 1, Z = 0.180
T0
; tool H0.200 W0.800
; skirt
G1 X70.806 Y95.021 F4800
G1 E0.0000 F596
G92 E0
G1 X70.838 Y94.997 E0.0026 F1000
G1 X70.851 Y94.989 E0.0037
G1 X71.286 Y94.722 E0.0380
G1 X71.299 Y94.714 E0.0390
G1 X71.334 Y94.696 E0.0417
G1 X71.349 Y94.690 E0.0427
G1 X71.820 Y94.494 E0.0770
G1 X71.834 Y94.489 E0.0780
G1 X71.872 Y94.476 E0.0807
G1 X71.887 Y94.472 E0.0817
G1 X72.383 Y94.353 E0.1160
G1 X72.398 Y94.349 E0.1170
G1 X72.437 Y94.343 E0.1197
G1 X72.453 Y94.341 E0.1207
G1 X72.951 Y94.302 E0.1544
G1 X72.959 Y94.301 E0.1549
G1 X72.979 Y94.300 E0.1562
G1 X72.987 Y94.300 E0.1568
G1 X147.010 Y94.300 E5.1300
G1 X147.018 Y94.300 E5.1305
G1 X147.037 Y94.301 E5.1319
G1 X147.045 Y94.301 E5.1324
G1 X147.541 Y94.340 E5.1658
G1 X147.556 Y94.342 E5.1668
G1 X147.595 Y94.348 E5.1695
G1 X147.610 Y94.351 E5.1705
G1 X148.106 Y94.470 E5.2048
G1 X148.121 Y94.474 E5.2058
G1 X148.158 Y94.486 E5.2085
G1 X148.173 Y94.492 E5.2095
G1 X148.645 Y94.686 E5.2438
G1 X148.659 Y94.693 E5.2448
G1 X148.694 Y94.711 E5.2475
G1 X148.708 Y94.718 E5.2485
G1 X149.143 Y94.984 E5.2828
G1 X149.156 Y94.993 E5.2839
G1 X149.188 Y95.016 E5.2865
G1 X149.200 Y95.026 E5.2875
G1 X149.588 Y95.357 E5.3218
G1 X149.600 Y95.367 E5.3229
G1 X149.627 Y95.395 E5.3255
G1 X149.638 Y95.407 E5.3266
G1 X149.970 Y95.794 E5.3608
G1 X149.979 Y95.806 E5.3619
G1 X150.003 Y95.838 E5.3645
G1 X150.011 Y95.851 E5.3656
G1 X150.278 Y96.286 E5.3998
G1 X150.286 Y96.300 E5.4009
G1 X150.304 Y96.335 E5.4035
G1 X150.310 Y96.349 E5.4046
G1 X150.506 Y96.820 E5.4389
G1 X150.512 Y96.835 E5.4399
G1 X150.524 Y96.872 E5.4426
G1 X150.528 Y96.887 E5.4436
G1 X150.647 Y97.383 E5.4779
G1 X150.651 Y97.398 E5.4789
G1 X150.657 Y97.437 E5.4816
G1 X150.659 Y97.453 E5.4826
G1 X150.698 Y97.951 E5.5162
G1 X150.699 Y97.959 E5.5168
G1 X150.700 Y97.979 E5.5181
G1 X150.700 Y97.987 E5.5186
G1 X150.700 Y122.010 E7.1326
G1 X150.700 Y122.018 E7.1331
G1 X150.699 Y122.037 E7.1345
G1 X150.699 Y122.045 E7.1350
G1 X150.660 Y122.541 E7.1684
G1 X150.658 Y122.556 E7.1694
G1 X150.652 Y122.595 E7.1721
G1 X150.649 Y122.610 E7.1731
G1 X150.530 Y123.106 E7.2074
G1 X150.526 Y123.121 E7.2084
G1 X150.514 Y123.158 E7.2111
G1 X150.508 Y123.173 E7.2121
G1 X150.314 Y123.645 E7.2464
G1 X150.307 Y123.659 E7.2474
G1 X150.289 Y123.694 E7.2501
G1 X150.282 Y123.708 E7.2511
G1 X150.016 Y124.143 E7.2854
G1 X150.007 Y124.156 E7.2864
G1 X149.984 Y124.187 E7.2891
G1 X149.974 Y124.200 E7.2901
G1 X149.643 Y124.588 E7.3244
G1 X149.633 Y124.600 E7.3255
G1 X149.605 Y124.627 E7.3281
G1 X149.593 Y124.638 E7.3292
G1 X149.206 Y124.970 E7.3634
G1 X149.194 Y124.979 E7.3645
G1 X149.162 Y125.003 E7.3671
G1 X149.149 Y125.011 E7.3682
G1 X148.714 Y125.278 E7.4024
G1 X148.701 Y125.286 E7.4035
G1 X148.666 Y125.304 E7.4061
G1 X148.651 Y125.310 E7.4072
G1 X148.180 Y125.506 E7.4415
G1 X148.166 Y125.511 E7.4425
G1 X148.128 Y125.524 E7.4451
G1 X148.113 Y125.528 E7.4462
G1 X147.617 Y125.647 E7.4805
G1 X147.602 Y125.651 E7.4815
G1 X147.563 Y125.657 E7.4842
G1 X147.547 Y125.659 E7.4852
G1 X147.049 Y125.698 E7.5188
G1 X147.041 Y125.699 E7.5194
G1 X147.021 Y125.700 E7.5207
G1 X147.013 Y125.700 E7.5212
G1 X72.990 Y125.700 E12.4945
G1 X72.982 Y125.700 E12.4950
G1 X72.963 Y125.699 E12.4963
G1 X72.955 Y125.699 E12.4969
G1 X72.459 Y125.660 E12.5303
G1 X72.444 Y125.658 E12.5313
G1 X72.405 Y125.652 E12.5339
G1 X72.390 Y125.649 E12.5350
G1 X71.894 Y125.530 E12.5692
G1 X71.879 Y125.526 E12.5703
G1 X71.842 Y125.514 E12.5729
G1 X71.827 Y125.508 E12.5740
G1 X71.355 Y125.314 E12.6083
G1 X71.341 Y125.307 E12.6093
G1 X71.306 Y125.289 E12.6119
G1 X71.292 Y125.282 E12.6130
G1 X70.857 Y125.016 E12.6473
G1 X70.844 Y125.007 E12.6483
G1 X70.812 Y124.984 E12.6510
G1 X70.800 Y124.974 E12.6520
G1 X70.412 Y124.643 E12.6863
G1 X70.401 Y124.633 E12.6873
G1 X70.373 Y124.605 E12.6900
G1 X70.362 Y124.593 E12.6910
G1 X70.030 Y124.206 E12.7253
G1 X70.021 Y124.194 E12.7264
G1 X69.997 Y124.162 E12.7290
G1 X69.989 Y124.149 E12.7300
G1 X69.722 Y123.714 E12.7643
G1 X69.714 Y123.701 E12.7654
G1 X69.696 Y123.666 E12.7680
G1 X69.690 Y123.651 E12.7691
G1 X69.494 Y123.180 E12.8033
G1 X69.489 Y123.165 E12.8044
G1 X69.476 Y123.128 E12.8070
G1 X69.472 Y123.113 E12.8081
G1 X69.353 Y122.617 E12.8423
G1 X69.349 Y122.602 E12.8434
G1 X69.343 Y122.563 E12.8460
G1 X69.341 Y122.547 E12.8471
G1 X69.302 Y122.049 E12.8807
G1 X69.301 Y122.041 E12.8812
G1 X69.300 Y122.021 E12.8826
G1 X69.300 Y122.013 E12.8831
G1 X69.300 Y97.990 E14.4971
G1 X69.300 Y97.982 E14.4976
G1 X69.301 Y97.963 E14.4989
G1 X69.301 Y97.955 E14.4995
G1 X69.340 Y97.459 E14.5329
G1 X69.342 Y97.444 E14.5339
G1 X69.348 Y97.405 E14.5365
G1 X69.351 Y97.390 E14.5376
G1 X69.470 Y96.894 E14.5718
G1 X69.474 Y96.879 E14.5729
G1 X69.486 Y96.842 E14.5755
G1 X69.492 Y96.827 E14.5766
G1 X69.686 Y96.355 E14.6109
G1 X69.693 Y96.341 E14.6119
G1 X69.711 Y96.306 E14.6145
G1 X69.718 Y96.292 E14.6156
G1 X69.984 Y95.857 E14.6499
G1 X69.993 Y95.844 E14.6509
G1 X70.016 Y95.812 E14.6536
G1 X70.026 Y95.800 E14.6546
G1 X70.357 Y95.412 E14.6889
G1 X70.367 Y95.400 E14.6899
G1 X70.395 Y95.373 E14.6926
G1 X70.407 Y95.362 E14.6936
G1 X70.794 Y95.030 E14.7279
G1 X70.806 Y95.021 E14.7290
G92 E0
G1 E-9.0000 F1988
; outer perimeter
G1 X71.471 Y95.899 F4800
G1 E0.0000 F1988
G92 E0
G1 X71.818 Y95.686 E0.0274 F950
G1 X72.194 Y95.529 E0.0548
G1 X72.591 Y95.434 E0.0822
G1 X73.013 Y95.400 E0.1106
G1 X146.984 Y95.400 E5.0804
G1 X147.404 Y95.433 E5.1087
G1 X147.800 Y95.528 E5.1361
G1 X148.177 Y95.684 E5.1635
G1 X148.525 Y95.896 E5.1909
G1 X148.836 Y96.161 E5.2183
G1 X149.101 Y96.471 E5.2457
G1 X149.314 Y96.818 E5.2731
G1 X149.471 Y97.195 E5.3005
G1 X149.566 Y97.591 E5.3279
G1 X149.600 Y98.013 E5.3563
G1 X149.600 Y121.984 E6.9668
G1 X149.567 Y122.404 E6.9951
G1 X149.472 Y122.800 E7.0225
G1 X149.316 Y123.177 E7.0499
G1 X149.104 Y123.525 E7.0773
G1 X148.839 Y123.836 E7.1047
G1 X148.529 Y124.101 E7.1321
G1 X148.182 Y124.314 E7.1595
G1 X147.806 Y124.471 E7.1869
G1 X147.409 Y124.566 E7.2143
G1 X146.987 Y124.600 E7.2427
G1 X73.016 Y124.600 E12.2125
G1 X72.596 Y124.567 E12.2408
G1 X72.200 Y124.472 E12.2682
G1 X71.823 Y124.316 E12.2956
G1 X71.475 Y124.104 E12.3230
G1 X71.164 Y123.839 E12.3504
G1 X70.899 Y123.530 E12.3778
G1 X70.686 Y123.182 E12.4052
G1 X70.529 Y122.806 E12.4326
G1 X70.434 Y122.409 E12.4600
G1 X70.400 Y121.987 E12.4884
G1 X70.400 Y98.016 E14.0989
G1 X70.433 Y97.596 E14.1272
G1 X70.528 Y97.199 E14.1546
G1 X70.683 Y96.823 E14.1820
G1 X70.896 Y96.475 E14.2094
G1 X71.161 Y96.164 E14.2368
G1 X71.471 Y95.899 E14.2642
G1 X73.820 Y97.703 F4800
G92 E0
G1 X73.590 Y98.102 E0.0309 F950
G1 X73.446 Y98.542 E0.0620
G1 X73.398 Y98.997 E0.0928
G1 X73.446 Y99.455 E0.1237
G1 X73.587 Y99.893 E0.1546
G1 X73.817 Y100.292 E0.1856
G1 X74.124 Y100.634 E0.2165
G1 X74.496 Y100.905 E0.2474
G1 X74.917 Y101.093 E0.2784
G1 X75.367 Y101.190 E0.3093
G1 X75.827 Y101.190 E0.3402
G1 X76.278 Y101.095 E0.3711
G1 X76.698 Y100.908 E0.4021
G1 X77.071 Y100.638 E0.4330
G1 X77.380 Y100.297 E0.4639
G1 X77.610 Y99.898 E0.4948
G1 X77.753 Y99.461 E0.5258
G1 X77.802 Y99.003 E0.5567
G1 X77.754 Y98.545 E0.5876
G1 X77.613 Y98.107 E0.6186
G1 X77.383 Y97.708 E0.6495
G1 X77.076 Y97.366 E0.6804
G1 X76.704 Y97.095 E0.7113
G1 X76.283 Y96.907 E0.7423
G1 X75.833 Y96.810 E0.7732
G1 X75.373 Y96.810 E0.8041
G1 X74.922 Y96.905 E0.8351
G1 X74.502 Y97.092 E0.8660
G1 X74.129 Y97.362 E0.8969
G1 X73.820 Y97.703 E0.9278
G92 E0
G1 E-9.0000 F1988
G1 X75.081 Y102.281 F4800
G1 E0.0000 F1988
G92 E0
G1 X74.666 Y102.503 E0.0316 F950
G1 X74.302 Y102.802 E0.0633
G1 X74.003 Y103.166 E0.0949
G1 X73.781 Y103.581 E0.1265
G1 X73.644 Y104.031 E0.1582
G1 X73.600 Y104.480 E0.1885
G1 X73.600 Y115.520 E0.9302
G1 X73.644 Y115.969 E0.9605
G1 X73.781 Y116.419 E0.9921
G1 X74.003 Y116.834 E1.0237
G1 X74.302 Y117.198 E1.0554
G1 X74.666 Y117.497 E1.0870
G1 X75.081 Y117.719 E1.1186
G1 X75.531 Y117.856 E1.1503
G1 X75.980 Y117.900 E1.1806
G1 X76.233 Y117.900 E1.1975
G1 X76.614 Y117.933 E1.2233
G1 X76.968 Y118.028 E1.2479
G1 X77.299 Y118.183 E1.2724
G1 X77.599 Y118.392 E1.2970
G1 X77.858 Y118.651 E1.3216
G1 X78.067 Y118.951 E1.3462
G1 X78.222 Y119.282 E1.3707
G1 X78.317 Y119.637 E1.3954
G1 X78.394 Y120.467 E1.4515
G1 X78.531 Y120.919 E1.4832
G1 X78.753 Y121.334 E1.5148
G1 X79.052 Y121.698 E1.5464
G1 X79.416 Y121.997 E1.5781
G1 X79.831 Y122.219 E1.6097
G1 X80.281 Y122.356 E1.6413
G1 X80.730 Y122.400 E1.6716
G1 X137.770 Y122.400 E5.5039
G1 X138.219 Y122.356 E5.5342
G1 X138.669 Y122.219 E5.5658
G1 X139.084 Y121.997 E5.5974
G1 X139.448 Y121.698 E5.6291
G1 X139.747 Y121.334 E5.6607
G1 X139.969 Y120.919 E5.6923
G1 X140.106 Y120.468 E5.7241
G1 X140.183 Y119.637 E5.7801
G1 X140.278 Y119.282 E5.8048
G1 X140.433 Y118.951 E5.8293
G1 X140.642 Y118.651 E5.8539
G1 X140.901 Y118.392 E5.8785
G1 X141.201 Y118.183 E5.9031
G1 X141.532 Y118.028 E5.9276
G1 X141.886 Y117.933 E5.9522
G1 X142.267 Y117.900 E5.9780
G1 X142.520 Y117.900 E5.9949
G1 X142.969 Y117.856 E6.0252
G1 X143.419 Y117.719 E6.0569
G1 X143.834 Y117.497 E6.0885
G1 X144.198 Y117.198 E6.1201
G1 X144.497 Y116.834 E6.1518
G1 X144.719 Y116.419 E6.1834
G1 X144.856 Y115.969 E6.2150
G1 X144.900 Y115.520 E6.2453
G1 X144.900 Y104.480 E6.9870
G1 X144.856 Y104.031 E7.0173
G1 X144.719 Y103.581 E7.0490
G1 X144.497 Y103.166 E7.0806
G1 X144.198 Y102.802 E7.1122
G1 X143.834 Y102.503 E7.1439
G1 X143.419 Y102.281 E7.1755
G1 X142.969 Y102.144 E7.2071
G1 X142.520 Y102.100 E7.2374
G1 X142.267 Y102.100 E7.2544
G1 X141.886 Y102.067 E7.2801
G1 X141.532 Y101.972 E7.3047
G1 X141.201 Y101.817 E7.3293
G1 X140.901 Y101.608 E7.3539
G1 X140.642 Y101.349 E7.3785
G1 X140.433 Y101.049 E7.4030
G1 X140.278 Y100.718 E7.4276
G1 X140.183 Y100.363 E7.4522
G1 X140.106 Y99.532 E7.5083
G1 X139.969 Y99.081 E7.5400
G1 X139.747 Y98.666 E7.5717
G1 X139.448 Y98.302 E7.6033
G1 X139.084 Y98.003 E7.6349
G1 X138.669 Y97.781 E7.6666
G1 X138.219 Y97.644 E7.6982
G1 X137.770 Y97.600 E7.7285
G1 X80.730 Y97.600 E11.5607
