; G-Code generated by Simplify3D(R) Version 4.0.0
; Mar 30, 2022 at 6:18:40 PM
; Settings Summary
;   processName,Process1
;   applyToModels,Frame_Strengthener_V1.5
;   profileName,Default (modified)
;   profileVersion,2017-03-01 08:00:00
;   baseProfile,
;   printMaterial,
;   printQuality,
;   printExtruders,
;   extruderName,Primary Extruder
;   extruderToolheadNumber,0
;   extruderDiameter,0.4
;   extruderAutoWidth,0
;   extruderWidth,0.8
;   extrusionMultiplier,1.01
;   extruderUseRetract,1
;   extruderRetractionDistance,9
;   extruderExtraRestartDistance,0
;   extruderRetractionZLift,0
;   extruderRetractionSpeed,1988
;   extruderUseCoasting,0
;   extruderCoastingDistance,0.2
;   extruderUseWipe,0
;   extruderWipeDistance,5
;   primaryExtruder,0
;   layerHeight,0.2
;   topSolidLayers,4
;   bottomSolidLayers,4
;   perimeterOutlines,1
;   printPerimetersInsideOut,1
;   startPointOption,2
;   startPointOriginX,0
;   startPointOriginY,0
;   sequentialIslands,0
;   spiralVaseMode,0
;   firstLayerHeightPercentage,90
;   firstLayerWidthPercentage,100
;   firstLayerUnderspeed,0.5
;   useRaft,0
;   raftExtruder,0
;   raftTopLayers,3
;   raftBaseLayers,2
;   raftOffset,3
;   raftSeparationDistance,0.14
;   raftTopInfill,100
;   aboveRaftSpeedMultiplier,0.3
;   useSkirt,1
;   skirtExtruder,0
;   skirtLayers,1
;   skirtOutlines,1
;   skirtOffset,0.3
;   usePrimePillar,0
;   primePillarExtruder,999
;   primePillarWidth,12
;   primePillarLocation,7
;   primePillarSpeedMultiplier,1
;   useOozeShield,0
;   oozeShieldExtruder,999
;   oozeShieldOffset,2
;   oozeShieldOutlines,1
;   oozeShieldSidewallShape,1
;   oozeShieldSidewallAngle,30
;   oozeShieldSpeedMultiplier,1
;   infillExtruder,0
;   internalInfillPattern,Rectilinear
;   externalInfillPattern,Rectilinear
;   infillPercentage,35
;   outlineOverlapPercentage,30
;   infillExtrusionWidthPercentage,100
;   minInfillLength,5
;   infillLayerInterval,1
;   internalInfillAngles,45,-45
;   overlapInternalInfillAngles,0
;   externalInfillAngles,45,-45
;   generateSupport,1
;   supportExtruder,0
;   supportInfillPercentage,30
;   supportExtraInflation,0
;   supportBaseLayers,0
;   denseSupportExtruder,0
;   denseSupportLayers,0
;   denseSupportInfillPercentage,70
;   supportLayerInterval,1
;   supportHorizontalPartOffset,0.3
;   supportUpperSeparationLayers,1
;   supportLowerSeparationLayers,1
;   supportType,0
;   supportGridSpacing,4
;   maxOverhangAngle,45
;   supportAngles,0
;   temperatureName,Primary Extruder,Bed
;   temperatureNumber,0,0
;   temperatureSetpointCount,1,1
;   temperatureSetpointLayers,1,1
;   temperatureSetpointTemperatures,205,60
;   temperatureStabilizeAtStartup,1,1
;   temperatureHeatedBed,0,1
;   temperatureRelayBetweenLayers,0,0
;   temperatureRelayBetweenLoops,0,0
;   fanLayers,1,2
;   fanSpeeds,0,100
;   blipFanToFullPower,0
;   adjustSpeedForCooling,1
;   minSpeedLayerTime,15
;   minCoolingSpeedSlowdown,20
;   increaseFanForCooling,0
;   minFanLayerTime,45
;   maxCoolingFanSpeed,100
;   increaseFanForBridging,0
;   bridgingFanSpeed,100
;   use5D,1
;   relativeEdistances,0
;   allowEaxisZeroing,1
;   independentExtruderAxes,0
;   includeM10123,0
;   stickySupport,1
;   applyToolheadOffsets,0
;   gcodeXoffset,0
;   gcodeYoffset,0
;   gcodeZoffset,0
;   overrideMachineDefinition,1
;   machineTypeOverride,0
;   strokeXoverride,220
;   strokeYoverride,220
;   strokeZoverride,220
;   originOffsetXoverride,0
;   originOffsetYoverride,0
;   originOffsetZoverride,0
;   homeXdirOverride,-1
;   homeYdirOverride,-1
;   homeZdirOverride,-1
;   flipXoverride,1
;   flipYoverride,-1
;   flipZoverride,1
;   toolheadOffsets,0,0|0,0|0,0|0,0|0,0|0,0
;   overrideFirmwareConfiguration,0
;   firmwareTypeOverride,RepRap (Marlin/Repetier/Sprinter)
;   GPXconfigOverride,r2
;   baudRateOverride,115200
;   overridePrinterModels,0
;   printerModelsOverride
;   startingGcode,G28 ; home all axes
;   layerChangeGcode,
;   retractionGcode,
;   toolChangeGcode,
;   endingGcode,M104 S0 ; turn off extruder,M140 S0 ; turn off bed,M84 ; disable motors,G28 ; home all axes
;   exportFileFormat,gcode
;   celebration,0
;   celebrationSong,Random Song
;   postProcessing,
;   defaultSpeed,2000
;   outlineUnderspeed,0.95
;   solidInfillUnderspeed,0.8
;   supportUnderspeed,0.8
;   rapidXYspeed,4800
;   rapidZspeed,1002
;   minBridgingArea,50
;   bridgingExtraInflation,0
;   bridgingExtrusionMultiplier,1
;   bridgingSpeedMultiplier,1
;   useFixedBridgingAngle,0
;   fixedBridgingAngle,0
;   applyBridgingToPerimeters,0
;   filamentDiameters,1.75|1.75|1.75|1.75|1.75|1.75
;   filamentPricesPerKg,46|46|46|46|46|46
;   filamentDensities,1.25|1.25|1.25|1.25|1.25|1.25
;   useMinPrintHeight,0
;   minPrintHeight,0
;   useMaxPrintHeight,0
;   maxPrintHeight,0
;   useDiaphragm,0
;   diaphragmLayerInterval,20
;   robustSlicing,1
;   mergeAllIntoSolid,0
;   onlyRetractWhenCrossingOutline,1
;   retractBetweenLayers,1
;   useRetractionMinTravel,0
;   retractionMinTravel,3
;   retractWhileWiping,0
;   onlyWipeOutlines,1
;   avoidCrossingOutline,0
;   maxMovementDetourFactor,3
;   toolChangeRetractionDistance,12
;   toolChangeExtraRestartDistance,-0.5
;   toolChangeRetractionSpeed,600
;   externalThinWallType,0
;   internalThinWallType,2
;   thinWallAllowedOverlapPercentage,10
;   singleExtrusionMinLength,1
;   singleExtrusionMinPrintingWidthPercentage,50
;   singleExtrusionMaxPrintingWidthPercentage,200
;   singleExtrusionEndpointExtension,0.2
;   horizontalSizeCompensation,0
G90
M82
M106 S0
M140 S60
M190 S60
M104 S205 T0
M109 S205 T0
G28 ; home all axes
G92 E0
G1 E-9.0000 F1988
G1 Z0.180 F1002
; process Process1
; layer 1, Z = 0.180
T0
; tool H0.200 W0.800
; skirt
G1 X80.649 Y93.686 F4800
G1 E0.0000 F596
G92 E0
G1 X80.796 Y93.625 E0.0107 F1000
G1 X139.204 Y93.625 E3.9348
G1 X139.351 Y93.686 E3.9455
G1 X139.639 Y93.974 E3.9729
G1 X139.700 Y94.121 E3.9836
G1 X139.700 Y125.879 E6.1173
G1 X139.639 Y126.026 E6.1280
G1 X139.351 Y126.314 E6.1553
G1 X139.204 Y126.375 E6.1660
G1 X130.503 Y126.375 E6.7506
G1 X130.356 Y126.314 E6.7613
G1 X130.068 Y126.026 E6.7887
G1 X130.007 Y125.879 E6.7993
G1 X130.007 Y102.525 E8.3684
G1 X90.157 Y102.525 E11.0457
G1 X90.157 Y125.879 E12.6148
G1 X90.096 Y126.026 E12.6255
G1 X89.808 Y126.314 E12.6528
G1 X89.661 Y126.375 E12.6635
G1 X80.796 Y126.375 E13.2591
G1 X80.649 Y126.314 E13.2698
G1 X80.361 Y126.026 E13.2972
G1 X80.300 Y125.879 E13.3079
G1 X80.300 Y94.121 E15.4415
G1 X80.361 Y93.974 E15.4522
G1 X80.649 Y93.686 E15.4796
G92 E0
G1 E-9.0000 F1988
; outer perimeter
G1 X81.400 Y94.725 F4800
G1 E0.0000 F1988
G92 E0
G1 X138.600 Y94.725 E3.8430 F950
G1 X138.600 Y125.275 E5.8955
G1 X131.107 Y125.275 E6.3989
G1 X131.107 Y101.425 E8.0013
G1 X89.057 Y101.425 E10.8265
G1 X89.057 Y125.275 E12.4288
G1 X81.400 Y125.275 E12.9433
G1 X81.400 Y94.725 E14.9958
; solid layer
G1 X82.854 Y124.715 F4800
G92 E0
G1 X81.960 Y123.821 E0.0850 F800
G1 X81.960 Y122.689 E0.1610
G1 X83.986 Y124.715 E0.3534
G1 X85.117 Y124.715 E0.4295
G1 X81.960 Y121.558 E0.7294
G1 X81.960 Y120.427 E0.8054
G1 X86.248 Y124.715 E1.2129
G1 X87.380 Y124.715 E1.2889
G1 X81.960 Y119.295 E1.8039
G1 X81.960 Y118.164 E1.8799
G1 X88.497 Y124.701 E2.5010
G1 X88.497 Y123.570 E2.5770
G1 X81.960 Y117.032 E3.1981
G1 X81.960 Y115.901 E3.2742
G1 X88.497 Y122.438 E3.8953
G1 X88.497 Y121.307 E3.9713
G1 X81.960 Y114.770 E4.5924
G1 X81.960 Y113.638 E4.6684
G1 X88.497 Y120.176 E5.2896
G1 X88.497 Y119.044 E5.3656
G1 X81.960 Y112.507 E5.9867
G1 X81.960 Y111.376 E6.0627
G1 X88.497 Y117.913 E6.6838
G1 X88.497 Y116.781 E6.7599
G1 X81.960 Y110.244 E7.3810
G1 X81.960 Y109.113 E7.4570
G1 X88.497 Y115.650 E8.0781
G1 X88.497 Y114.519 E8.1541
G1 X81.960 Y107.982 E8.7753
G1 X81.960 Y106.850 E8.8513
G1 X88.497 Y113.387 E9.4724
G1 X88.497 Y112.256 E9.5484
G1 X81.960 Y105.719 E10.1695
G1 X81.960 Y104.587 E10.2456
G1 X88.497 Y111.125 E10.8667
G1 X88.497 Y109.993 E10.9427
G1 X81.960 Y103.456 E11.5638
G1 X81.960 Y102.325 E11.6398
G1 X88.497 Y108.862 E12.2610
G1 X88.497 Y107.730 E12.3370
G1 X81.960 Y101.193 E12.9581
G1 X81.960 Y100.062 E13.0341
G1 X88.497 Y106.599 E13.6552
G1 X88.497 Y105.468 E13.7313
G1 X81.960 Y98.931 E14.3524
G1 X81.960 Y97.799 E14.4284
G1 X88.497 Y104.336 E15.0495
G1 X88.497 Y103.205 E15.1255
G1 X81.960 Y96.668 E15.7467
G1 X81.960 Y95.536 E15.8227
G1 X88.497 Y102.074 E16.4438
G1 X88.497 Y100.942 E16.5198
G1 X82.840 Y95.285 E17.0573
G1 X83.971 Y95.285 E17.1334
G1 X89.551 Y100.865 E17.6635
G1 X90.683 Y100.865 E17.7395
G1 X85.103 Y95.285 E18.2697
G1 X86.234 Y95.285 E18.3457
G1 X91.814 Y100.865 E18.8759
G1 X92.945 Y100.865 E18.9519
G1 X87.365 Y95.285 E19.4821
G1 X88.497 Y95.285 E19.5581
G1 X94.077 Y100.865 E20.0883
G1 X95.208 Y100.865 E20.1643
G1 X89.628 Y95.285 E20.6945
G1 X90.760 Y95.285 E20.7705
G1 X96.340 Y100.865 E21.3007
G1 X97.471 Y100.865 E21.3767
G1 X91.891 Y95.285 E21.9069
G1 X93.022 Y95.285 E21.9829
G1 X98.602 Y100.865 E22.5131
G1 X99.734 Y100.865 E22.5891
G1 X94.154 Y95.285 E23.1193
G1 X95.285 Y95.285 E23.1953
G1 X100.865 Y100.865 E23.7255
G1 X101.996 Y100.865 E23.8015
G1 X96.416 Y95.285 E24.3317
G1 X97.548 Y95.285 E24.4077
G1 X103.128 Y100.865 E24.9379
G1 X104.259 Y100.865 E25.0139
G1 X98.679 Y95.285 E25.5440
G1 X99.810 Y95.285 E25.6201
G1 X105.390 Y100.865 E26.1502
G1 X106.522 Y100.865 E26.2263
G1 X100.942 Y95.285 E26.7564
G1 X102.073 Y95.285 E26.8324
G1 X107.653 Y100.865 E27.3626
G1 X108.785 Y100.865 E27.4386
G1 X103.205 Y95.285 E27.9688
G1 X104.336 Y95.285 E28.0448
G1 X109.916 Y100.865 E28.5750
G1 X111.047 Y100.865 E28.6510
G1 X105.467 Y95.285 E29.1812
G1 X106.599 Y95.285 E29.2572
G1 X112.179 Y100.865 E29.7874
G1 X113.310 Y100.865 E29.8634
G1 X107.730 Y95.285 E30.3936
G1 X108.861 Y95.285 E30.4696
G1 X114.441 Y100.865 E30.9998
G1 X115.573 Y100.865 E31.0758
G1 X109.993 Y95.285 E31.6060
G1 X111.124 Y95.285 E31.6820
G1 X116.704 Y100.865 E32.2122
G1 X117.836 Y100.865 E32.2882
G1 X112.256 Y95.285 E32.8184
G1 X113.387 Y95.285 E32.8944
G1 X118.967 Y100.865 E33.4246
G1 X120.098 Y100.865 E33.5006
G1 X114.518 Y95.285 E34.0308
G1 X115.650 Y95.285 E34.1068
G1 X121.230 Y100.865 E34.6369
G1 X122.361 Y100.865 E34.7130
G1 X116.781 Y95.285 E35.2431
G1 X117.912 Y95.285 E35.3191
G1 X123.492 Y100.865 E35.8493
G1 X124.624 Y100.865 E35.9253
G1 X119.044 Y95.285 E36.4555
G1 X120.175 Y95.285 E36.5315
G1 X125.755 Y100.865 E37.0617
G1 X126.887 Y100.865 E37.1377
G1 X121.307 Y95.285 E37.6679
G1 X122.438 Y95.285 E37.7439
G1 X128.018 Y100.865 E38.2741
G1 X129.149 Y100.865 E38.3501
G1 X123.569 Y95.285 E38.8803
G1 X124.701 Y95.285 E38.9563
G1 X130.281 Y100.865 E39.4865
G1 X131.412 Y100.865 E39.5625
G1 X125.832 Y95.285 E40.0927
G1 X126.963 Y95.285 E40.1687
G1 X138.040 Y106.362 E41.2211
G1 X138.040 Y105.230 E41.2971
G1 X128.095 Y95.285 E42.2421
G1 X129.226 Y95.285 E42.3181
G1 X138.040 Y104.099 E43.1555
G1 X138.040 Y102.967 E43.2316
G1 X130.357 Y95.285 E43.9615
G1 X131.489 Y95.285 E44.0375
G1 X138.040 Y101.836 E44.6600
G1 X138.040 Y100.705 E44.7360
G1 X132.620 Y95.285 E45.2509
G1 X133.752 Y95.285 E45.3270
G1 X138.040 Y99.573 E45.7344
G1 X138.040 Y98.442 E45.8104
G1 X134.883 Y95.285 E46.1104
G1 X136.014 Y95.285 E46.1864
G1 X138.040 Y97.311 E46.3789
G1 X138.040 Y96.179 E46.4549
G1 X137.146 Y95.285 E46.5399
G1 X131.667 Y101.120 F4800
G92 E0
G1 X138.040 Y107.493 E0.6055 F800
G1 X138.040 Y108.624 E0.6815
G1 X131.667 Y102.252 E1.2870
G1 X131.667 Y103.383 E1.3630
G1 X138.040 Y109.756 E1.9686
G1 X138.040 Y110.887 E2.0446
G1 X131.667 Y104.514 E2.6501
G1 X131.667 Y105.646 E2.7261
G1 X138.040 Y112.018 E3.3316
G1 X138.040 Y113.150 E3.4076
G1 X131.667 Y106.777 E4.0131
G1 X131.667 Y107.908 E4.0891
G1 X138.040 Y114.281 E4.6946
G1 X138.040 Y115.413 E4.7707
G1 X131.667 Y109.040 E5.3762
G1 X131.667 Y110.171 E5.4522
G1 X138.040 Y116.544 E6.0577
G1 X138.040 Y117.675 E6.1337
G1 X131.667 Y111.303 E6.7392
G1 X131.667 Y112.434 E6.8152
G1 X138.040 Y118.807 E7.4207
G1 X138.040 Y119.938 E7.4967
G1 X131.667 Y113.565 E8.1022
G1 X131.667 Y114.697 E8.1783
G1 X138.040 Y121.069 E8.7838
G1 X138.040 Y122.201 E8.8598
G1 X131.667 Y115.828 E9.4653
G1 X131.667 Y116.959 E9.5413
G1 X138.040 Y123.332 E10.1468
G1 X138.040 Y124.464 E10.2228
G1 X131.667 Y118.091 E10.8283
G1 X131.667 Y119.222 E10.9043
G1 X137.160 Y124.715 E11.4263
G1 X136.029 Y124.715 E11.5023
G1 X131.667 Y120.353 E11.9167
G1 X131.667 Y121.485 E11.9927
G1 X134.897 Y124.715 E12.2996
G1 X133.766 Y124.715 E12.3756
G1 X131.667 Y122.616 E12.5750
G1 X131.667 Y123.748 E12.6510
G1 X132.635 Y124.715 E12.7429
G92 E0
G1 E-9.0000 F1988
; layer 2, Z = 0.380
M106 S255
; outer perimeter
G1 X131.107 Y125.275 F4800
G1 Z0.380 F1002
G1 E0.0000 F1988
G92 E0
G1 X131.107 Y101.425 E1.6024 F1900
G1 X89.057 Y101.425 E4.4275
G1 X89.057 Y125.275 E6.0299
G1 X81.400 Y125.275 E6.5443
G1 X81.400 Y94.725 E8.5969
G1 X138.600 Y94.725 E12.4399
G1 X138.600 Y125.275 E14.4924
G1 X131.107 Y125.275 E14.9958
; solid layer
G1 X138.040 Y123.821 F4800
G92 E0
G1 X137.146 Y124.715 E0.0850 F1600
G1 X136.014 Y124.715 E0.1610
G1 X138.040 Y122.689 E0.3534
G1 X138.040 Y121.558 E0.4295
G1 X134.883 Y124.715 E0.7294
G1 X133.752 Y124.715 E0.8054
G1 X138.040 Y120.427 E1.2129
G1 X138.040 Y119.295 E1.2889
G1 X132.620 Y124.715 E1.8038
G1 X131.667 Y124.715 E1.8679
G1 X131.667 Y124.537 E1.8799
G1 X138.040 Y118.164 E2.4854
G1 X138.040 Y117.033 E2.5614
G1 X131.667 Y123.405 E3.1669
G1 X131.667 Y122.274 E3.2429
G1 X138.040 Y115.901 E3.8484
G1 X138.040 Y114.770 E3.9244
G1 X131.667 Y121.143 E4.5299
G1 X131.667 Y120.011 E4.6059
G1 X138.040 Y113.638 E5.2114
G1 X138.040 Y112.507 E5.2875
G1 X131.667 Y118.880 E5.8930
G1 X131.667 Y117.748 E5.9690
G1 X138.040 Y111.376 E6.5745
G1 X138.040 Y110.244 E6.6505
G1 X131.667 Y116.617 E7.2560
G1 X131.667 Y115.486 E7.3320
G1 X138.040 Y109.113 E7.9375
G1 X138.040 Y107.982 E8.0135
G1 X131.667 Y114.354 E8.6191
G1 X131.667 Y113.223 E8.6951
G1 X138.040 Y106.850 E9.3006
G1 X138.040 Y105.719 E9.3766
G1 X131.667 Y112.092 E9.9821
G1 X131.667 Y110.960 E10.0581
G1 X138.040 Y104.587 E10.6636
G1 X138.040 Y103.456 E10.7396
G1 X131.667 Y109.829 E11.3451
G1 X131.667 Y108.698 E11.4212
G1 X138.040 Y102.325 E12.0267
G1 X138.040 Y101.193 E12.1027
G1 X131.667 Y107.566 E12.7082
G1 X131.667 Y106.435 E12.7842
G1 X138.040 Y100.062 E13.3897
G1 X138.040 Y98.931 E13.4657
G1 X131.667 Y105.303 E14.0712
G1 X131.667 Y104.172 E14.1472
G1 X138.040 Y97.799 E14.7528
G1 X138.040 Y96.668 E14.8288
G1 X131.667 Y103.041 E15.4343
G1 X131.667 Y101.909 E15.5103
G1 X138.040 Y95.536 E16.1158
G1 X138.040 Y95.285 E16.1327
G1 X137.160 Y95.285 E16.1918
G1 X131.580 Y100.865 E16.7220
G1 X130.449 Y100.865 E16.7980
G1 X136.029 Y95.285 E17.3282
G1 X134.897 Y95.285 E17.4042
G1 X129.317 Y100.865 E17.9344
G1 X128.186 Y100.865 E18.0104
G1 X133.766 Y95.285 E18.5406
G1 X132.635 Y95.285 E18.6166
G1 X127.055 Y100.865 E19.1468
G1 X125.923 Y100.865 E19.2228
G1 X131.503 Y95.285 E19.7530
G1 X130.372 Y95.285 E19.8290
G1 X124.792 Y100.865 E20.3591
G1 X123.661 Y100.865 E20.4352
G1 X129.241 Y95.285 E20.9653
G1 X128.109 Y95.285 E21.0414
G1 X122.529 Y100.865 E21.5715
G1 X121.398 Y100.865 E21.6475
G1 X126.978 Y95.285 E22.1777
G1 X125.846 Y95.285 E22.2537
G1 X120.266 Y100.865 E22.7839
G1 X119.135 Y100.865 E22.8599
G1 X124.715 Y95.285 E23.3901
G1 X123.584 Y95.285 E23.4661
G1 X118.004 Y100.865 E23.9963
G1 X116.872 Y100.865 E24.0723
G1 X122.452 Y95.285 E24.6025
G1 X121.321 Y95.285 E24.6785
G1 X115.741 Y100.865 E25.2087
G1 X114.610 Y100.865 E25.2847
G1 X120.190 Y95.285 E25.8149
G1 X119.058 Y95.285 E25.8909
G1 X113.478 Y100.865 E26.4211
G1 X112.347 Y100.865 E26.4971
G1 X117.927 Y95.285 E27.0273
