; G-Code generated by Simplify3D(R) Version 4.0.0
; Mar 30, 2022 at 6:16:25 PM
; Settings Summary
;   processName,Process1
;   applyToModels,Frame_Motor_Foot_2_V1.5
;   profileName,Default (modified)
;   profileVersion,2017-03-01 08:00:00
;   baseProfile,
;   printMaterial,
;   printQuality,
;   printExtruders,
;   extruderName,Primary Extruder
;   extruderToolheadNumber,0
;   extruderDiameter,0.4
;   extruderAutoWidth,0
;   extruderWidth,0.8
;   extrusionMultiplier,1.01
;   extruderUseRetract,1
;   extruderRetractionDistance,9
;   extruderExtraRestartDistance,0
;   extruderRetractionZLift,0
;   extruderRetractionSpeed,1988
;   extruderUseCoasting,0
;   extruderCoastingDistance,0.2
;   extruderUseWipe,0
;   extruderWipeDistance,5
;   primaryExtruder,0
;   layerHeight,0.2
;   topSolidLayers,4
;   bottomSolidLayers,4
;   perimeterOutlines,1
;   printPerimetersInsideOut,1
;   startPointOption,2
;   startPointOriginX,0
;   startPointOriginY,0
;   sequentialIslands,0
;   spiralVaseMode,0
;   firstLayerHeightPercentage,90
;   firstLayerWidthPercentage,100
;   firstLayerUnderspeed,0.5
;   useRaft,0
;   raftExtruder,0
;   raftTopLayers,3
;   raftBaseLayers,2
;   raftOffset,3
;   raftSeparationDistance,0.14
;   raftTopInfill,100
;   aboveRaftSpeedMultiplier,0.3
;   useSkirt,1
;   skirtExtruder,0
;   skirtLayers,1
;   skirtOutlines,1
;   skirtOffset,0.3
;   usePrimePillar,0
;   primePillarExtruder,999
;   primePillarWidth,12
;   primePillarLocation,7
;   primePillarSpeedMultiplier,1
;   useOozeShield,0
;   oozeShieldExtruder,999
;   oozeShieldOffset,2
;   oozeShieldOutlines,1
;   oozeShieldSidewallShape,1
;   oozeShieldSidewallAngle,30
;   oozeShieldSpeedMultiplier,1
;   infillExtruder,0
;   internalInfillPattern,Rectilinear
;   externalInfillPattern,Rectilinear
;   infillPercentage,35
;   outlineOverlapPercentage,30
;   infillExtrusionWidthPercentage,100
;   minInfillLength,5
;   infillLayerInterval,1
;   internalInfillAngles,45,-45
;   overlapInternalInfillAngles,0
;   externalInfillAngles,45,-45
;   generateSupport,1
;   supportExtruder,0
;   supportInfillPercentage,30
;   supportExtraInflation,0
;   supportBaseLayers,0
;   denseSupportExtruder,0
;   denseSupportLayers,0
;   denseSupportInfillPercentage,70
;   supportLayerInterval,1
;   supportHorizontalPartOffset,0.3
;   supportUpperSeparationLayers,1
;   supportLowerSeparationLayers,1
;   supportType,0
;   supportGridSpacing,4
;   maxOverhangAngle,45
;   supportAngles,0
;   temperatureName,Primary Extruder,Bed
;   temperatureNumber,0,0
;   temperatureSetpointCount,1,1
;   temperatureSetpointLayers,1,1
;   temperatureSetpointTemperatures,205,60
;   temperatureStabilizeAtStartup,1,1
;   temperatureHeatedBed,0,1
;   temperatureRelayBetweenLayers,0,0
;   temperatureRelayBetweenLoops,0,0
;   fanLayers,1,2
;   fanSpeeds,0,100
;   blipFanToFullPower,0
;   adjustSpeedForCooling,1
;   minSpeedLayerTime,15
;   minCoolingSpeedSlowdown,20
;   increaseFanForCooling,0
;   minFanLayerTime,45
;   maxCoolingFanSpeed,100
;   increaseFanForBridging,0
;   bridgingFanSpeed,100
;   use5D,1
;   relativeEdistances,0
;   allowEaxisZeroing,1
;   independentExtruderAxes,0
;   includeM10123,0
;   stickySupport,1
;   applyToolheadOffsets,0
;   gcodeXoffset,0
;   gcodeYoffset,0
;   gcodeZoffset,0
;   overrideMachineDefinition,1
;   machineTypeOverride,0
;   strokeXoverride,220
;   strokeYoverride,220
;   strokeZoverride,220
;   originOffsetXoverride,0
;   originOffsetYoverride,0
;   originOffsetZoverride,0
;   homeXdirOverride,-1
;   homeYdirOverride,-1
;   homeZdirOverride,-1
;   flipXoverride,1
;   flipYoverride,-1
;   flipZoverride,1
;   toolheadOffsets,0,0|0,0|0,0|0,0|0,0|0,0
;   overrideFirmwareConfiguration,0
;   firmwareTypeOverride,RepRap (Marlin/Repetier/Sprinter)
;   GPXconfigOverride,r2
;   baudRateOverride,115200
;   overridePrinterModels,0
;   printerModelsOverride
;   startingGcode,G28 ; home all axes
;   layerChangeGcode,
;   retractionGcode,
;   toolChangeGcode,
;   endingGcode,M104 S0 ; turn off extruder,M140 S0 ; turn off bed,M84 ; disable motors,G28 ; home all axes
;   exportFileFormat,gcode
;   celebration,0
;   celebrationSong,Random Song
;   postProcessing,
;   defaultSpeed,2000
;   outlineUnderspeed,0.95
;   solidInfillUnderspeed,0.8
;   supportUnderspeed,0.8
;   rapidXYspeed,4800
;   rapidZspeed,1002
;   minBridgingArea,50
;   bridgingExtraInflation,0
;   bridgingExtrusionMultiplier,1
;   bridgingSpeedMultiplier,1
;   useFixedBridgingAngle,0
;   fixedBridgingAngle,0
;   applyBridgingToPerimeters,0
;   filamentDiameters,1.75|1.75|1.75|1.75|1.75|1.75
;   filamentPricesPerKg,46|46|46|46|46|46
;   filamentDensities,1.25|1.25|1.25|1.25|1.25|1.25
;   useMinPrintHeight,0
;   minPrintHeight,0
;   useMaxPrintHeight,0
;   maxPrintHeight,0
;   useDiaphragm,0
;   diaphragmLayerInterval,20
;   robustSlicing,1
;   mergeAllIntoSolid,0
;   onlyRetractWhenCrossingOutline,1
;   retractBetweenLayers,1
;   useRetractionMinTravel,0
;   retractionMinTravel,3
;   retractWhileWiping,0
;   onlyWipeOutlines,1
;   avoidCrossingOutline,0
;   maxMovementDetourFactor,3
;   toolChangeRetractionDistance,12
;   toolChangeExtraRestartDistance,-0.5
;   toolChangeRetractionSpeed,600
;   externalThinWallType,0
;   internalThinWallType,2
;   thinWallAllowedOverlapPercentage,10
;   singleExtrusionMinLength,1
;   singleExtrusionMinPrintingWidthPercentage,50
;   singleExtrusionMaxPrintingWidthPercentage,200
;   singleExtrusionEndpointExtension,0.2
;   horizontalSizeCompensation,0
G90
M82
M106 S0
M140 S60
M190 S60
M104 S205 T0
M109 S205 T0
G28 ; home all axes
G92 E0
G1 E-9.0000 F1988
G1 Z0.180 F1002
; process Process1
; layer 1, Z = 0.180
T0
; tool H0.200 W0.800
; skirt
G1 X69.361 Y72.149 F4800
G1 E0.0000 F596
G92 E0
G1 X69.649 Y71.861 E0.0274 F1000
G1 X69.796 Y71.800 E0.0381
G1 X72.517 Y71.800 E0.2209
G1 X72.617 Y71.826 E0.2278
G1 X72.843 Y71.953 E0.2452
G1 X72.917 Y72.024 E0.2521
G1 X73.567 Y73.084 E0.3357
G1 X73.576 Y73.080 E0.3363
G1 X81.863 Y73.080 E0.8931
G1 X81.583 Y72.623 E0.9291
G1 X81.579 Y72.406 E0.9437
G1 X81.857 Y71.910 E0.9819
G1 X82.044 Y71.800 E0.9965
G1 X150.274 Y71.800 E5.5805
G1 X150.456 Y71.903 E5.5946
G1 X150.740 Y72.371 E5.6314
G1 X150.747 Y72.580 E5.6455
G1 X111.992 Y147.028 E11.2844
G1 X111.987 Y147.037 E11.2851
G1 X111.973 Y147.061 E11.2870
G1 X111.967 Y147.070 E11.2877
G1 X111.763 Y147.376 E11.3124
G1 X111.750 Y147.393 E11.3139
G1 X111.715 Y147.435 E11.3175
G1 X111.700 Y147.451 E11.3190
G1 X111.425 Y147.715 E11.3446
G1 X111.408 Y147.729 E11.3461
G1 X111.365 Y147.762 E11.3497
G1 X111.347 Y147.774 E11.3512
G1 X111.021 Y147.972 E11.3768
G1 X111.002 Y147.982 E11.3783
G1 X110.952 Y148.005 E11.3819
G1 X110.932 Y148.014 E11.3834
G1 X110.571 Y148.136 E11.4090
G1 X110.550 Y148.142 E11.4105
G1 X110.497 Y148.154 E11.4141
G1 X110.475 Y148.157 E11.4156
G1 X110.110 Y148.197 E11.4403
G1 X110.099 Y148.198 E11.4410
G1 X110.072 Y148.200 E11.4429
G1 X110.061 Y148.200 E11.4436
G1 X91.576 Y148.200 E12.6855
G1 X91.566 Y148.200 E12.6862
G1 X91.541 Y148.198 E12.6879
G1 X91.531 Y148.198 E12.6886
G1 X91.193 Y148.163 E12.7114
G1 X91.173 Y148.160 E12.7127
G1 X91.124 Y148.150 E12.7161
G1 X91.104 Y148.145 E12.7175
G1 X90.768 Y148.040 E12.7411
G1 X90.749 Y148.033 E12.7425
G1 X90.703 Y148.013 E12.7459
G1 X90.684 Y148.005 E12.7472
G1 X90.376 Y147.834 E12.7709
G1 X90.359 Y147.824 E12.7722
G1 X90.318 Y147.795 E12.7756
G1 X90.302 Y147.783 E12.7770
G1 X90.031 Y147.552 E12.8009
G1 X90.016 Y147.538 E12.8023
G1 X89.981 Y147.501 E12.8057
G1 X89.967 Y147.486 E12.8071
G1 X89.759 Y147.217 E12.8299
G1 X89.752 Y147.209 E12.8306
G1 X89.738 Y147.188 E12.8323
G1 X89.732 Y147.180 E12.8330
G1 X85.498 Y140.405 E13.3698
G1 X85.493 Y140.395 E13.3705
G1 X85.480 Y140.372 E13.3723
G1 X85.475 Y140.363 E13.3730
G1 X85.319 Y140.042 E13.3969
G1 X85.311 Y140.023 E13.3983
G1 X85.293 Y139.973 E13.4019
G1 X85.287 Y139.953 E13.4033
G1 X85.198 Y139.590 E13.4284
G1 X85.194 Y139.569 E13.4299
G1 X85.187 Y139.516 E13.4335
G1 X85.185 Y139.494 E13.4349
G1 X85.175 Y139.123 E13.4598
G1 X85.176 Y139.102 E13.4613
G1 X85.180 Y139.049 E13.4648
G1 X85.183 Y139.028 E13.4663
G1 X85.251 Y138.663 E13.4912
G1 X85.257 Y138.643 E13.4926
G1 X85.272 Y138.592 E13.4962
G1 X85.279 Y138.572 E13.4976
G1 X85.424 Y138.227 E13.5227
G1 X85.433 Y138.208 E13.5242
G1 X85.459 Y138.161 E13.5278
G1 X85.471 Y138.143 E13.5292
G1 X85.684 Y137.839 E13.5541
G1 X85.697 Y137.823 E13.5556
G1 X85.732 Y137.783 E13.5591
G1 X85.747 Y137.767 E13.5606
G1 X86.019 Y137.516 E13.5855
G1 X86.035 Y137.502 E13.5869
G1 X86.078 Y137.470 E13.5905
G1 X86.096 Y137.458 E13.5919
G1 X86.417 Y137.268 E13.6170
G1 X86.436 Y137.258 E13.6185
G1 X86.485 Y137.236 E13.6220
G1 X86.505 Y137.228 E13.6235
G1 X86.857 Y137.112 E13.6484
G1 X86.878 Y137.106 E13.6498
G1 X86.930 Y137.095 E13.6534
G1 X86.951 Y137.091 E13.6549
G1 X87.306 Y137.053 E13.6789
G1 X87.317 Y137.052 E13.6796
G1 X87.344 Y137.051 E13.6814
G1 X87.355 Y137.050 E13.6821
G1 X103.517 Y137.050 E14.7680
G1 X103.724 Y137.027 E14.7820
G1 X103.892 Y136.971 E14.7939
G1 X104.037 Y136.883 E14.8053
G1 X104.163 Y136.763 E14.8170
G1 X104.280 Y136.588 E14.8311
G1 X106.206 Y132.889 E15.1113
G1 X106.279 Y132.706 E15.1245
G1 X106.307 Y132.544 E15.1356
G1 X106.302 Y132.380 E15.1466
G1 X106.263 Y132.221 E15.1576
G1 X106.177 Y132.042 E15.1710
G1 X102.317 Y125.742 E15.6673
G1 X102.312 Y125.732 E15.6681
G1 X102.299 Y125.708 E15.6700
G1 X102.293 Y125.698 E15.6707
G1 X101.951 Y124.966 E15.7250
G1 X91.535 Y107.961 E17.0648
G1 X91.530 Y107.952 E17.0654
G1 X91.518 Y107.931 E17.0671
G1 X91.514 Y107.922 E17.0678
G1 X91.369 Y107.623 E17.0900
G1 X91.361 Y107.604 E17.0915
G1 X91.343 Y107.553 E17.0951
G1 X91.337 Y107.533 E17.0965
G1 X91.242 Y107.139 E17.1238
G1 X91.238 Y107.117 E17.1253
G1 X91.231 Y107.062 E17.1290
G1 X91.229 Y107.039 E17.1305
G1 X91.224 Y106.664 E17.1557
G1 X91.225 Y106.641 E17.1572
G1 X91.231 Y106.584 E17.1611
G1 X91.234 Y106.561 E17.1627
G1 X91.323 Y106.156 E17.1905
G1 X91.329 Y106.135 E17.1920
G1 X91.347 Y106.084 E17.1956
G1 X91.355 Y106.063 E17.1971
G1 X91.508 Y105.732 E17.2216
G1 X91.516 Y105.717 E17.2228
G1 X91.538 Y105.679 E17.2257
G1 X91.547 Y105.664 E17.2269
G1 X91.676 Y105.480 E17.2420
G1 X91.685 Y105.467 E17.2431
G1 X91.710 Y105.436 E17.2457
G1 X91.721 Y105.425 E17.2468
G1 X91.965 Y105.171 E17.2704
G1 X91.978 Y105.159 E17.2716
G1 X92.012 Y105.129 E17.2746
G1 X92.026 Y105.118 E17.2759
G1 X92.400 Y104.849 E17.3068
G1 X92.563 Y104.814 E17.3180
G1 X92.983 Y104.898 E17.3468
G1 X93.080 Y104.966 E17.3547
G1 X93.080 Y101.576 E17.5825
G1 X93.141 Y101.429 E17.5932
G1 X93.429 Y101.141 E17.6206
G1 X93.576 Y101.080 E17.6312
G1 X99.139 Y101.080 E18.0050
G1 X99.266 Y100.685 E18.0329
G1 X99.383 Y100.556 E18.0446
G1 X100.036 Y100.279 E18.0922
G1 X100.066 Y100.269 E18.0943
G1 X100.142 Y100.250 E18.0996
G1 X100.172 Y100.245 E18.1017
G1 X100.743 Y100.195 E18.1402
G1 X100.776 Y100.194 E18.1424
G1 X100.859 Y100.201 E18.1480
G1 X100.892 Y100.206 E18.1502
G1 X101.453 Y100.345 E18.1890
G1 X101.484 Y100.355 E18.1913
G1 X101.561 Y100.388 E18.1968
G1 X101.590 Y100.404 E18.1991
G1 X102.071 Y100.716 E18.2376
G1 X102.095 Y100.733 E18.2396
G1 X102.150 Y100.782 E18.2445
G1 X102.170 Y100.803 E18.2465
G1 X102.451 Y101.133 E18.2756
G1 X102.461 Y101.145 E18.2766
G1 X102.483 Y101.176 E18.2792
G1 X102.491 Y101.188 E18.2802
G1 X104.557 Y104.536 E18.5444
G1 X104.700 Y104.721 E18.5602
G1 X104.918 Y104.937 E18.5808
G1 X105.294 Y105.202 E18.6117
G1 X105.574 Y105.336 E18.6325
G1 X105.905 Y105.439 E18.6558
G1 X106.409 Y105.497 E18.6900
G1 X106.764 Y105.473 E18.7138
G1 X107.057 Y105.409 E18.7340
G1 X107.397 Y105.281 E18.7584
G1 X107.696 Y105.112 E18.7815
G1 X108.024 Y104.847 E18.8098
G1 X108.258 Y104.584 E18.8335
G1 X108.412 Y104.350 E18.8523
G1 X108.564 Y104.033 E18.8759
G1 X111.691 Y94.433 E19.5542
G1 X111.694 Y94.423 E19.5549
G1 X111.703 Y94.400 E19.5566
G1 X111.707 Y94.390 E19.5573
G1 X111.847 Y94.074 E19.5805
G1 X111.856 Y94.056 E19.5819
G1 X111.881 Y94.011 E19.5853
G1 X111.892 Y93.994 E19.5867
G1 X112.101 Y93.703 E19.6108
G1 X112.114 Y93.687 E19.6121
G1 X112.148 Y93.649 E19.6156
G1 X112.162 Y93.634 E19.6170
G1 X112.425 Y93.392 E19.6410
G1 X112.441 Y93.379 E19.6424
G1 X112.482 Y93.348 E19.6458
G1 X112.499 Y93.337 E19.6472
G1 X112.795 Y93.159 E19.6704
G1 X112.804 Y93.154 E19.6711
G1 X112.827 Y93.142 E19.6728
G1 X112.836 Y93.138 E19.6735
G1 X129.511 Y85.362 E20.9097
G1 X129.671 Y85.268 E20.9221
G1 X129.811 Y85.144 E20.9346
G1 X132.863 Y81.872 E21.2353
G1 X132.973 Y81.729 E21.2474
G1 X133.041 Y81.595 E21.2575
G1 X133.083 Y81.452 E21.2675
G1 X133.100 Y81.271 E21.2797
G1 X133.100 Y79.539 E21.3961
G1 X133.076 Y79.325 E21.4106
G1 X133.017 Y79.156 E21.4226
G1 X132.923 Y79.005 E21.4345
G1 X132.797 Y78.879 E21.4465
G1 X132.646 Y78.784 E21.4585
G1 X132.478 Y78.725 E21.4704
G1 X132.262 Y78.700 E21.4850
G1 X94.276 Y78.701 E24.0372
G1 X94.031 Y78.718 E24.0537
G1 X93.654 Y78.796 E24.0795
G1 X93.353 Y78.907 E24.1011
G1 X93.100 Y79.042 E24.1203
G1 X92.831 Y79.235 E24.1426
G1 X92.623 Y79.432 E24.1618
G1 X92.411 Y79.694 E24.1845
G1 X92.250 Y79.965 E24.2057
G1 X92.127 Y80.257 E24.2270
G1 X92.045 Y80.563 E24.2482
G1 X92.007 Y80.878 E24.2695
G1 X92.012 Y81.196 E24.2909
G1 X92.101 Y81.791 E24.3313
G1 X92.103 Y81.805 E24.3323
G1 X92.105 Y81.840 E24.3346
G1 X92.106 Y81.854 E24.3355
G1 X92.109 Y82.109 E24.3527
G1 X92.108 Y82.127 E24.3539
G1 X92.105 Y82.170 E24.3568
G1 X92.103 Y82.187 E24.3580
G1 X92.047 Y82.525 E24.3810
G1 X92.042 Y82.547 E24.3825
G1 X92.026 Y82.601 E24.3863
G1 X92.019 Y82.622 E24.3878
G1 X91.853 Y83.028 E24.4172
G1 X91.842 Y83.049 E24.4188
G1 X91.814 Y83.100 E24.4227
G1 X91.802 Y83.119 E24.4243
G1 X91.585 Y83.422 E24.4493
G1 X91.572 Y83.438 E24.4506
G1 X91.538 Y83.476 E24.4541
G1 X91.524 Y83.491 E24.4555
G1 X91.277 Y83.719 E24.4781
G1 X91.262 Y83.731 E24.4793
G1 X91.225 Y83.759 E24.4825
G1 X91.209 Y83.770 E24.4838
G1 X89.605 Y84.765 E24.6105
G1 X89.448 Y84.790 E24.6213
G1 X89.050 Y84.696 E24.6488
G1 X88.920 Y84.602 E24.6595
G1 X86.920 Y81.336 E24.9168
G1 X86.920 Y86.424 E25.2586
G1 X86.859 Y86.571 E25.2693
G1 X86.571 Y86.859 E25.2967
G1 X86.424 Y86.920 E25.3074
G1 X82.049 Y86.920 E25.6013
G1 X82.892 Y88.296 E25.7097
G1 X82.917 Y88.453 E25.7204
G1 X82.821 Y88.850 E25.7479
G1 X82.727 Y88.978 E25.7586
G1 X81.188 Y89.919 E25.8798
G1 X81.170 Y89.928 E25.8811
G1 X81.125 Y89.950 E25.8845
G1 X81.106 Y89.958 E25.8859
G1 X80.606 Y90.139 E25.9216
G1 X80.578 Y90.147 E25.9235
G1 X80.508 Y90.161 E25.9283
G1 X80.480 Y90.165 E25.9302
G1 X80.031 Y90.193 E25.9605
G1 X80.007 Y90.193 E25.9621
G1 X79.947 Y90.189 E25.9661
G1 X79.924 Y90.187 E25.9677
G1 X79.551 Y90.120 E25.9931
G1 X79.530 Y90.115 E25.9946
G1 X79.477 Y90.099 E25.9983
G1 X79.456 Y90.092 E25.9998
G1 X79.081 Y89.934 E26.0271
G1 X79.061 Y89.924 E26.0286
G1 X79.012 Y89.897 E26.0324
G1 X78.993 Y89.885 E26.0339
G1 X78.683 Y89.661 E26.0596
G1 X78.663 Y89.645 E26.0613
G1 X78.617 Y89.602 E26.0656
G1 X78.600 Y89.584 E26.0673
G1 X78.291 Y89.214 E26.0996
G1 X78.283 Y89.203 E26.1006
G1 X78.262 Y89.174 E26.1030
G1 X78.254 Y89.162 E26.1039
G1 X72.288 Y79.466 E26.8688
G1 X71.952 Y79.119 E26.9012
G1 X71.670 Y78.918 E26.9245
G1 X71.285 Y78.730 E26.9533
G1 X70.600 Y78.506 E27.0017
G1 X70.578 Y78.497 E27.0033
G1 X70.522 Y78.471 E27.0074
G1 X70.500 Y78.459 E27.0091
G1 X70.167 Y78.249 E27.0355
G1 X70.149 Y78.236 E27.0371
G1 X70.105 Y78.201 E27.0408
G1 X70.088 Y78.186 E27.0424
G1 X69.810 Y77.908 E27.0688
G1 X69.796 Y77.891 E27.0703
G1 X69.761 Y77.847 E27.0740
G1 X69.748 Y77.829 E27.0755
G1 X69.540 Y77.498 E27.1018
