; G-Code generated by Simplify3D(R) Version 4.0.0
; Mar 30, 2022 at 6:15:20 PM
; Settings Summary
;   processName,Process1
;   applyToModels,Frame_Joint_Bushing_V1.5
;   profileName,Default (modified)
;   profileVersion,2017-03-01 08:00:00
;   baseProfile,
;   printMaterial,
;   printQuality,
;   printExtruders,
;   extruderName,Primary Extruder
;   extruderToolheadNumber,0
;   extruderDiameter,0.4
;   extruderAutoWidth,0
;   extruderWidth,0.8
;   extrusionMultiplier,1.01
;   extruderUseRetract,1
;   extruderRetractionDistance,9
;   extruderExtraRestartDistance,0
;   extruderRetractionZLift,0
;   extruderRetractionSpeed,1988
;   extruderUseCoasting,0
;   extruderCoastingDistance,0.2
;   extruderUseWipe,0
;   extruderWipeDistance,5
;   primaryExtruder,0
;   layerHeight,0.2
;   topSolidLayers,4
;   bottomSolidLayers,4
;   perimeterOutlines,1
;   printPerimetersInsideOut,1
;   startPointOption,2
;   startPointOriginX,0
;   startPointOriginY,0
;   sequentialIslands,0
;   spiralVaseMode,0
;   firstLayerHeightPercentage,90
;   firstLayerWidthPercentage,100
;   firstLayerUnderspeed,0.5
;   useRaft,0
;   raftExtruder,0
;   raftTopLayers,3
;   raftBaseLayers,2
;   raftOffset,3
;   raftSeparationDistance,0.14
;   raftTopInfill,100
;   aboveRaftSpeedMultiplier,0.3
;   useSkirt,1
;   skirtExtruder,0
;   skirtLayers,1
;   skirtOutlines,1
;   skirtOffset,0.3
;   usePrimePillar,0
;   primePillarExtruder,999
;   primePillarWidth,12
;   primePillarLocation,7
;   primePillarSpeedMultiplier,1
;   useOozeShield,0
;   oozeShieldExtruder,999
;   oozeShieldOffset,2
;   oozeShieldOutlines,1
;   oozeShieldSidewallShape,1
;   oozeShieldSidewallAngle,30
;   oozeShieldSpeedMultiplier,1
;   infillExtruder,0
;   internalInfillPattern,Rectilinear
;   externalInfillPattern,Rectilinear
;   infillPercentage,35
;   outlineOverlapPercentage,30
;   infillExtrusionWidthPercentage,100
;   minInfillLength,5
;   infillLayerInterval,1
;   internalInfillAngles,45,-45
;   overlapInternalInfillAngles,0
;   externalInfillAngles,45,-45
;   generateSupport,1
;   supportExtruder,0
;   supportInfillPercentage,30
;   supportExtraInflation,0
;   supportBaseLayers,0
;   denseSupportExtruder,0
;   denseSupportLayers,0
;   denseSupportInfillPercentage,70
;   supportLayerInterval,1
;   supportHorizontalPartOffset,0.3
;   supportUpperSeparationLayers,1
;   supportLowerSeparationLayers,1
;   supportType,0
;   supportGridSpacing,4
;   maxOverhangAngle,45
;   supportAngles,0
;   temperatureName,Primary Extruder,Bed
;   temperatureNumber,0,0
;   temperatureSetpointCount,1,1
;   temperatureSetpointLayers,1,1
;   temperatureSetpointTemperatures,205,60
;   temperatureStabilizeAtStartup,1,1
;   temperatureHeatedBed,0,1
;   temperatureRelayBetweenLayers,0,0
;   temperatureRelayBetweenLoops,0,0
;   fanLayers,1,2
;   fanSpeeds,0,100
;   blipFanToFullPower,0
;   adjustSpeedForCooling,1
;   minSpeedLayerTime,15
;   minCoolingSpeedSlowdown,20
;   increaseFanForCooling,0
;   minFanLayerTime,45
;   maxCoolingFanSpeed,100
;   increaseFanForBridging,0
;   bridgingFanSpeed,100
;   use5D,1
;   relativeEdistances,0
;   allowEaxisZeroing,1
;   independentExtruderAxes,0
;   includeM10123,0
;   stickySupport,1
;   applyToolheadOffsets,0
;   gcodeXoffset,0
;   gcodeYoffset,0
;   gcodeZoffset,0
;   overrideMachineDefinition,1
;   machineTypeOverride,0
;   strokeXoverride,220
;   strokeYoverride,220
;   strokeZoverride,220
;   originOffsetXoverride,0
;   originOffsetYoverride,0
;   originOffsetZoverride,0
;   homeXdirOverride,-1
;   homeYdirOverride,-1
;   homeZdirOverride,-1
;   flipXoverride,1
;   flipYoverride,-1
;   flipZoverride,1
;   toolheadOffsets,0,0|0,0|0,0|0,0|0,0|0,0
;   overrideFirmwareConfiguration,0
;   firmwareTypeOverride,RepRap (Marlin/Repetier/Sprinter)
;   GPXconfigOverride,r2
;   baudRateOverride,115200
;   overridePrinterModels,0
;   printerModelsOverride
;   startingGcode,G28 ; home all axes
;   layerChangeGcode,
;   retractionGcode,
;   toolChangeGcode,
;   endingGcode,M104 S0 ; turn off extruder,M140 S0 ; turn off bed,M84 ; disable motors,G28 ; home all axes
;   exportFileFormat,gcode
;   celebration,0
;   celebrationSong,Random Song
;   postProcessing,
;   defaultSpeed,2000
;   outlineUnderspeed,0.95
;   solidInfillUnderspeed,0.8
;   supportUnderspeed,0.8
;   rapidXYspeed,4800
;   rapidZspeed,1002
;   minBridgingArea,50
;   bridgingExtraInflation,0
;   bridgingExtrusionMultiplier,1
;   bridgingSpeedMultiplier,1
;   useFixedBridgingAngle,0
;   fixedBridgingAngle,0
;   applyBridgingToPerimeters,0
;   filamentDiameters,1.75|1.75|1.75|1.75|1.75|1.75
;   filamentPricesPerKg,46|46|46|46|46|46
;   filamentDensities,1.25|1.25|1.25|1.25|1.25|1.25
;   useMinPrintHeight,0
;   minPrintHeight,0
;   useMaxPrintHeight,0
;   maxPrintHeight,0
;   useDiaphragm,0
;   diaphragmLayerInterval,20
;   robustSlicing,1
;   mergeAllIntoSolid,0
;   onlyRetractWhenCrossingOutline,1
;   retractBetweenLayers,1
;   useRetractionMinTravel,0
;   retractionMinTravel,3
;   retractWhileWiping,0
;   onlyWipeOutlines,1
;   avoidCrossingOutline,0
;   maxMovementDetourFactor,3
;   toolChangeRetractionDistance,12
;   toolChangeExtraRestartDistance,-0.5
;   toolChangeRetractionSpeed,600
;   externalThinWallType,0
;   internalThinWallType,2
;   thinWallAllowedOverlapPercentage,10
;   singleExtrusionMinLength,1
;   singleExtrusionMinPrintingWidthPercentage,50
;   singleExtrusionMaxPrintingWidthPercentage,200
;   singleExtrusionEndpointExtension,0.2
;   horizontalSizeCompensation,0
G90
M82
M106 S0
M140 S60
M190 S60
M104 S205 T0
M109 S205 T0
G28 ; home all axes
G92 E0
G1 E-9.0000 F1988
G1 Z0.180 F1002
; process Process1
; layer 1, Z = 0.180
T0
; tool H0.200 W0.800
; skirt
G1 X105.312 Y105.213 F4800
G1 E0.0000 F596
G92 E0
G1 X105.320 Y105.205 E0.0008 F422
G1 X105.341 Y105.185 E0.0027
G1 X105.349 Y105.178 E0.0035
G1 X105.889 Y104.710 E0.0514
G1 X105.897 Y104.703 E0.0522
G1 X105.920 Y104.686 E0.0541
G1 X105.929 Y104.679 E0.0549
G1 X106.518 Y104.276 E0.1028
G1 X106.528 Y104.270 E0.1036
G1 X106.552 Y104.255 E0.1055
G1 X106.562 Y104.249 E0.1063
G1 X107.193 Y103.916 E0.1542
G1 X107.204 Y103.911 E0.1550
G1 X107.230 Y103.900 E0.1569
G1 X107.240 Y103.895 E0.1577
G1 X107.905 Y103.636 E0.2056
G1 X107.916 Y103.632 E0.2064
G1 X107.943 Y103.624 E0.2083
G1 X107.954 Y103.620 E0.2091
G1 X108.644 Y103.439 E0.2570
G1 X108.655 Y103.436 E0.2578
G1 X108.683 Y103.431 E0.2597
G1 X108.695 Y103.429 E0.2605
G1 X109.401 Y103.327 E0.3084
G1 X109.413 Y103.326 E0.3092
G1 X109.441 Y103.323 E0.3111
G1 X109.452 Y103.323 E0.3119
G1 X110.166 Y103.302 E0.3598
G1 X110.177 Y103.302 E0.3606
G1 X110.206 Y103.303 E0.3625
G1 X110.217 Y103.304 E0.3633
G1 X110.928 Y103.365 E0.4112
G1 X110.939 Y103.366 E0.4120
G1 X110.968 Y103.370 E0.4139
G1 X110.979 Y103.372 E0.4147
G1 X111.678 Y103.514 E0.4626
G1 X111.689 Y103.516 E0.4634
G1 X111.717 Y103.524 E0.4653
G1 X111.728 Y103.527 E0.4661
G1 X112.407 Y103.747 E0.5140
G1 X112.417 Y103.751 E0.5148
G1 X112.444 Y103.762 E0.5167
G1 X112.455 Y103.766 E0.5175
G1 X113.104 Y104.063 E0.5654
G1 X113.114 Y104.068 E0.5662
G1 X113.139 Y104.081 E0.5681
G1 X113.149 Y104.087 E0.5689
G1 X113.760 Y104.455 E0.6168
G1 X113.770 Y104.461 E0.6176
G1 X113.793 Y104.477 E0.6195
G1 X113.803 Y104.484 E0.6203
G1 X114.368 Y104.920 E0.6682
G1 X114.377 Y104.927 E0.6690
G1 X114.398 Y104.946 E0.6709
G1 X114.407 Y104.954 E0.6717
G1 X114.919 Y105.451 E0.7196
G1 X114.927 Y105.459 E0.7204
G1 X114.946 Y105.480 E0.7223
G1 X114.953 Y105.489 E0.7231
G1 X115.405 Y106.041 E0.7710
G1 X115.412 Y106.050 E0.7718
G1 X115.429 Y106.073 E0.7737
G1 X115.435 Y106.083 E0.7745
G1 X115.821 Y106.683 E0.8224
G1 X115.827 Y106.693 E0.8232
G1 X115.841 Y106.718 E0.8251
G1 X115.846 Y106.728 E0.8259
G1 X116.161 Y107.368 E0.8738
G1 X116.166 Y107.379 E0.8746
G1 X116.177 Y107.405 E0.8765
G1 X116.181 Y107.416 E0.8773
G1 X116.421 Y108.088 E0.9252
G1 X116.425 Y108.099 E0.9260
G1 X116.433 Y108.126 E0.9279
G1 X116.436 Y108.137 E0.9287
G1 X116.598 Y108.836 E0.9768
G1 X116.601 Y108.850 E0.9778
G1 X116.606 Y108.885 E0.9802
G1 X116.608 Y108.899 E0.9811
G1 X116.699 Y109.957 E1.0525
G1 X116.700 Y109.974 E1.0536
G1 X116.700 Y110.017 E1.0565
G1 X116.699 Y110.034 E1.0576
G1 X116.608 Y111.101 E1.1296
G1 X116.606 Y111.115 E1.1305
G1 X116.601 Y111.150 E1.1330
G1 X116.598 Y111.164 E1.1339
G1 X116.436 Y111.863 E1.1821
G1 X116.433 Y111.874 E1.1829
G1 X116.425 Y111.901 E1.1848
G1 X116.421 Y111.912 E1.1856
G1 X116.181 Y112.584 E1.2335
G1 X116.177 Y112.595 E1.2343
G1 X116.166 Y112.621 E1.2362
G1 X116.161 Y112.632 E1.2370
G1 X115.846 Y113.272 E1.2849
G1 X115.841 Y113.282 E1.2857
G1 X115.827 Y113.307 E1.2876
G1 X115.821 Y113.317 E1.2884
G1 X115.435 Y113.917 E1.3363
G1 X115.429 Y113.927 E1.3371
G1 X115.412 Y113.950 E1.3390
G1 X115.405 Y113.959 E1.3398
G1 X114.953 Y114.511 E1.3877
G1 X114.946 Y114.520 E1.3885
G1 X114.927 Y114.541 E1.3904
G1 X114.919 Y114.549 E1.3912
G1 X114.407 Y115.046 E1.4391
G1 X114.398 Y115.054 E1.4399
G1 X114.377 Y115.073 E1.4418
G1 X114.368 Y115.080 E1.4426
G1 X113.803 Y115.516 E1.4905
G1 X113.793 Y115.523 E1.4913
G1 X113.770 Y115.539 E1.4932
G1 X113.760 Y115.545 E1.4940
G1 X113.149 Y115.913 E1.5419
G1 X113.139 Y115.919 E1.5427
G1 X113.114 Y115.932 E1.5446
G1 X113.104 Y115.937 E1.5454
G1 X112.455 Y116.234 E1.5933
G1 X112.444 Y116.238 E1.5941
G1 X112.417 Y116.249 E1.5960
G1 X112.407 Y116.253 E1.5968
G1 X111.728 Y116.473 E1.6447
G1 X111.717 Y116.476 E1.6455
G1 X111.689 Y116.484 E1.6474
G1 X111.678 Y116.486 E1.6482
G1 X110.979 Y116.628 E1.6961
G1 X110.968 Y116.630 E1.6969
G1 X110.939 Y116.634 E1.6988
G1 X110.928 Y116.635 E1.6996
G1 X110.217 Y116.696 E1.7475
G1 X110.206 Y116.697 E1.7483
G1 X110.177 Y116.698 E1.7502
G1 X110.166 Y116.698 E1.7510
G1 X109.452 Y116.677 E1.7989
G1 X109.441 Y116.677 E1.7997
G1 X109.413 Y116.674 E1.8016
G1 X109.401 Y116.673 E1.8024
G1 X108.695 Y116.571 E1.8503
G1 X108.683 Y116.569 E1.8511
G1 X108.655 Y116.564 E1.8530
G1 X108.644 Y116.561 E1.8538
G1 X107.954 Y116.380 E1.9017
G1 X107.943 Y116.376 E1.9025
G1 X107.916 Y116.368 E1.9044
G1 X107.905 Y116.364 E1.9052
G1 X107.240 Y116.105 E1.9531
G1 X107.230 Y116.100 E1.9539
G1 X107.204 Y116.089 E1.9558
G1 X107.193 Y116.084 E1.9566
G1 X106.562 Y115.751 E2.0045
G1 X106.552 Y115.745 E2.0053
G1 X106.528 Y115.730 E2.0072
G1 X106.518 Y115.724 E2.0080
G1 X105.929 Y115.321 E2.0559
G1 X105.920 Y115.314 E2.0567
G1 X105.897 Y115.297 E2.0586
G1 X105.889 Y115.290 E2.0594
G1 X105.349 Y114.822 E2.1073
G1 X105.341 Y114.815 E2.1081
G1 X105.320 Y114.795 E2.1100
G1 X105.312 Y114.787 E2.1108
G1 X104.830 Y114.261 E2.1587
G1 X104.822 Y114.252 E2.1595
G1 X104.804 Y114.230 E2.1614
G1 X104.797 Y114.221 E2.1622
G1 X104.378 Y113.644 E2.2101
G1 X104.371 Y113.634 E2.2109
G1 X104.356 Y113.610 E2.2128
G1 X104.350 Y113.600 E2.2136
G1 X103.999 Y112.979 E2.2615
G1 X103.994 Y112.969 E2.2623
G1 X103.981 Y112.943 E2.2642
G1 X103.976 Y112.933 E2.2650
G1 X103.699 Y112.276 E2.3129
G1 X103.694 Y112.265 E2.3137
G1 X103.685 Y112.238 E2.3156
G1 X103.681 Y112.227 E2.3164
G1 X103.480 Y111.542 E2.3643
G1 X103.477 Y111.531 E2.3651
G1 X103.471 Y111.504 E2.3670
G1 X103.469 Y111.492 E2.3678
G1 X103.347 Y110.789 E2.4157
G1 X103.345 Y110.778 E2.4165
G1 X103.342 Y110.749 E2.4184
G1 X103.341 Y110.738 E2.4192
G1 X103.300 Y110.026 E2.4671
G1 X103.300 Y110.014 E2.4679
G1 X103.300 Y109.986 E2.4698
G1 X103.300 Y109.974 E2.4706
G1 X103.341 Y109.262 E2.5185
G1 X103.342 Y109.251 E2.5193
G1 X103.345 Y109.222 E2.5212
G1 X103.347 Y109.211 E2.5220
G1 X103.469 Y108.508 E2.5699
G1 X103.471 Y108.496 E2.5707
G1 X103.477 Y108.469 E2.5726
G1 X103.480 Y108.458 E2.5734
G1 X103.681 Y107.773 E2.6213
G1 X103.685 Y107.762 E2.6221
G1 X103.694 Y107.735 E2.6240
G1 X103.699 Y107.724 E2.6248
G1 X103.976 Y107.067 E2.6727
G1 X103.981 Y107.057 E2.6735
G1 X103.994 Y107.031 E2.6754
G1 X103.999 Y107.021 E2.6762
G1 X104.350 Y106.399 E2.7241
G1 X104.356 Y106.390 E2.7249
G1 X104.371 Y106.366 E2.7268
G1 X104.378 Y106.356 E2.7276
G1 X104.797 Y105.779 E2.7755
G1 X104.804 Y105.770 E2.7763
G1 X104.822 Y105.748 E2.7782
G1 X104.830 Y105.739 E2.7790
G1 X105.312 Y105.213 E2.8269
G92 E0
G1 E-9.0000 F1988
; outer perimeter
G1 X106.098 Y105.985 F4800
G1 E0.0000 F1988
G92 E0
G1 X106.581 Y105.566 E0.0430 F401
G1 X107.109 Y105.205 E0.0859
G1 X107.674 Y104.907 E0.1289
G1 X108.270 Y104.675 E0.1718
G1 X108.888 Y104.512 E0.2148
G1 X109.521 Y104.421 E0.2577
G1 X110.160 Y104.403 E0.3007
G1 X110.797 Y104.458 E0.3436
G1 X111.423 Y104.585 E0.3866
G1 X112.031 Y104.782 E0.4295
G1 X112.613 Y105.048 E0.4725
G1 X113.161 Y105.378 E0.5154
G1 X113.667 Y105.768 E0.5584
G1 X114.125 Y106.214 E0.6013
G1 X114.530 Y106.709 E0.6443
G1 X114.876 Y107.247 E0.6873
G1 X115.158 Y107.820 E0.7302
G1 X115.373 Y108.423 E0.7732
G1 X115.517 Y109.045 E0.8161
G1 X115.590 Y109.677 E0.8589
G1 X115.600 Y109.996 E0.8803
G1 X115.591 Y110.310 E0.9014
G1 X115.517 Y110.955 E0.9450
G1 X115.373 Y111.577 E0.9879
G1 X115.158 Y112.180 E1.0309
G1 X114.876 Y112.753 E1.0739
G1 X114.530 Y113.291 E1.1168
G1 X114.125 Y113.786 E1.1598
G1 X113.667 Y114.232 E1.2027
G1 X113.161 Y114.622 E1.2457
G1 X112.613 Y114.952 E1.2886
G1 X112.031 Y115.218 E1.3316
G1 X111.423 Y115.415 E1.3745
G1 X110.797 Y115.542 E1.4175
G1 X110.160 Y115.597 E1.4604
G1 X109.521 Y115.579 E1.5034
G1 X108.888 Y115.488 E1.5463
G1 X108.270 Y115.325 E1.5893
G1 X107.674 Y115.093 E1.6322
G1 X107.109 Y114.795 E1.6752
G1 X106.581 Y114.434 E1.7181
G1 X106.098 Y114.015 E1.7611
G1 X105.665 Y113.544 E1.8040
G1 X105.290 Y113.027 E1.8470
G1 X104.975 Y112.471 E1.8900
G1 X104.726 Y111.882 E1.9329
G1 X104.546 Y111.268 E1.9759
G1 X104.437 Y110.638 E2.0188
G1 X104.401 Y110.000 E2.0618
G1 X104.437 Y109.362 E2.1047
G1 X104.546 Y108.732 E2.1477
G1 X104.726 Y108.118 E2.1906
G1 X104.975 Y107.529 E2.2336
G1 X105.290 Y106.973 E2.2765
G1 X105.665 Y106.456 E2.3195
G1 X106.098 Y105.985 E2.3624
G1 X107.055 Y106.729 F4800
G92 E0
G1 X106.629 Y107.171 E0.0413 F401
G1 X106.268 Y107.668 E0.0825
G1 X105.980 Y108.210 E0.1238
G1 X105.770 Y108.787 E0.1650
G1 X105.642 Y109.388 E0.2063
G1 X105.599 Y110.000 E0.2475
G1 X105.642 Y110.612 E0.2888
G1 X105.770 Y111.213 E0.3300
G1 X105.980 Y111.790 E0.3713
G1 X106.268 Y112.332 E0.4125
G1 X106.629 Y112.829 E0.4538
G1 X107.055 Y113.271 E0.4950
G1 X107.539 Y113.649 E0.5363
G1 X108.071 Y113.956 E0.5775
G1 X108.640 Y114.186 E0.6188
G1 X109.236 Y114.334 E0.6600
G1 X109.846 Y114.398 E0.7013
G1 X110.460 Y114.377 E0.7425
G1 X111.065 Y114.270 E0.7838
G1 X111.649 Y114.081 E0.8250
G1 X112.200 Y113.811 E0.8663
G1 X112.710 Y113.468 E0.9075
G1 X113.166 Y113.057 E0.9488
G1 X113.560 Y112.587 E0.9900
G1 X113.886 Y112.066 E1.0313
G1 X114.136 Y111.505 E1.0725
G1 X114.305 Y110.915 E1.1138
G1 X114.388 Y110.322 E1.1540
G1 X114.400 Y110.004 E1.1754
G1 X114.389 Y109.690 E1.1965
G1 X114.305 Y109.085 E1.2375
G1 X114.136 Y108.495 E1.2788
G1 X113.886 Y107.934 E1.3201
G1 X113.560 Y107.413 E1.3613
G1 X113.166 Y106.943 E1.4026
G1 X112.710 Y106.532 E1.4438
G1 X112.200 Y106.189 E1.4851
G1 X111.649 Y105.919 E1.5263
G1 X111.065 Y105.730 E1.5676
G1 X110.460 Y105.623 E1.6088
G1 X109.846 Y105.602 E1.6501
G1 X109.236 Y105.666 E1.6913
G1 X108.640 Y105.814 E1.7326
G1 X108.071 Y106.044 E1.7738
G1 X107.539 Y106.351 E1.8151
G1 X107.055 Y106.729 E1.8563
G92 E0
G1 E-9.0000 F1988
; solid layer
G1 X112.316 Y105.528 F4800
G1 E0.0000 F1988
G92 E0
G1 X112.510 Y105.722 E0.0185 F338
G1 X112.481 Y105.702 E0.0209
G1 X111.859 Y105.399 E0.0674
G1 X111.201 Y105.185 E0.1139
G1 X110.765 Y105.108 E0.1436
G1 X110.665 Y105.008 E0.1531
G1 X110.144 Y104.964 E0.1882
G1 X109.569 Y104.980 E0.2269
