; G-Code generated by Simplify3D(R) Version 4.0.0
; Mar 30, 2022 at 6:18:02 PM
; Settings Summary
;   processName,Process1
;   applyToModels,Frame_Receiver_Shelf_90mm_V1.5
;   profileName,Default (modified)
;   profileVersion,2017-03-01 08:00:00
;   baseProfile,
;   printMaterial,
;   printQuality,
;   printExtruders,
;   extruderName,Primary Extruder
;   extruderToolheadNumber,0
;   extruderDiameter,0.4
;   extruderAutoWidth,0
;   extruderWidth,0.8
;   extrusionMultiplier,1.01
;   extruderUseRetract,1
;   extruderRetractionDistance,9
;   extruderExtraRestartDistance,0
;   extruderRetractionZLift,0
;   extruderRetractionSpeed,1988
;   extruderUseCoasting,0
;   extruderCoastingDistance,0.2
;   extruderUseWipe,0
;   extruderWipeDistance,5
;   primaryExtruder,0
;   layerHeight,0.2
;   topSolidLayers,4
;   bottomSolidLayers,4
;   perimeterOutlines,1
;   printPerimetersInsideOut,1
;   startPointOption,2
;   startPointOriginX,0
;   startPointOriginY,0
;   sequentialIslands,0
;   spiralVaseMode,0
;   firstLayerHeightPercentage,90
;   firstLayerWidthPercentage,100
;   firstLayerUnderspeed,0.5
;   useRaft,0
;   raftExtruder,0
;   raftTopLayers,3
;   raftBaseLayers,2
;   raftOffset,3
;   raftSeparationDistance,0.14
;   raftTopInfill,100
;   aboveRaftSpeedMultiplier,0.3
;   useSkirt,1
;   skirtExtruder,0
;   skirtLayers,1
;   skirtOutlines,1
;   skirtOffset,0.3
;   usePrimePillar,0
;   primePillarExtruder,999
;   primePillarWidth,12
;   primePillarLocation,7
;   primePillarSpeedMultiplier,1
;   useOozeShield,0
;   oozeShieldExtruder,999
;   oozeShieldOffset,2
;   oozeShieldOutlines,1
;   oozeShieldSidewallShape,1
;   oozeShieldSidewallAngle,30
;   oozeShieldSpeedMultiplier,1
;   infillExtruder,0
;   internalInfillPattern,Rectilinear
;   externalInfillPattern,Rectilinear
;   infillPercentage,35
;   outlineOverlapPercentage,30
;   infillExtrusionWidthPercentage,100
;   minInfillLength,5
;   infillLayerInterval,1
;   internalInfillAngles,45,-45
;   overlapInternalInfillAngles,0
;   externalInfillAngles,45,-45
;   generateSupport,1
;   supportExtruder,0
;   supportInfillPercentage,30
;   supportExtraInflation,0
;   supportBaseLayers,0
;   denseSupportExtruder,0
;   denseSupportLayers,0
;   denseSupportInfillPercentage,70
;   supportLayerInterval,1
;   supportHorizontalPartOffset,0.3
;   supportUpperSeparationLayers,1
;   supportLowerSeparationLayers,1
;   supportType,0
;   supportGridSpacing,4
;   maxOverhangAngle,45
;   supportAngles,0
;   temperatureName,Primary Extruder,Bed
;   temperatureNumber,0,0
;   temperatureSetpointCount,1,1
;   temperatureSetpointLayers,1,1
;   temperatureSetpointTemperatures,205,60
;   temperatureStabilizeAtStartup,1,1
;   temperatureHeatedBed,0,1
;   temperatureRelayBetweenLayers,0,0
;   temperatureRelayBetweenLoops,0,0
;   fanLayers,1,2
;   fanSpeeds,0,100
;   blipFanToFullPower,0
;   adjustSpeedForCooling,1
;   minSpeedLayerTime,15
;   minCoolingSpeedSlowdown,20
;   increaseFanForCooling,0
;   minFanLayerTime,45
;   maxCoolingFanSpeed,100
;   increaseFanForBridging,0
;   bridgingFanSpeed,100
;   use5D,1
;   relativeEdistances,0
;   allowEaxisZeroing,1
;   independentExtruderAxes,0
;   includeM10123,0
;   stickySupport,1
;   applyToolheadOffsets,0
;   gcodeXoffset,0
;   gcodeYoffset,0
;   gcodeZoffset,0
;   overrideMachineDefinition,1
;   machineTypeOverride,0
;   strokeXoverride,220
;   strokeYoverride,220
;   strokeZoverride,220
;   originOffsetXoverride,0
;   originOffsetYoverride,0
;   originOffsetZoverride,0
;   homeXdirOverride,-1
;   homeYdirOverride,-1
;   homeZdirOverride,-1
;   flipXoverride,1
;   flipYoverride,-1
;   flipZoverride,1
;   toolheadOffsets,0,0|0,0|0,0|0,0|0,0|0,0
;   overrideFirmwareConfiguration,0
;   firmwareTypeOverride,RepRap (Marlin/Repetier/Sprinter)
;   GPXconfigOverride,r2
;   baudRateOverride,115200
;   overridePrinterModels,0
;   printerModelsOverride
;   startingGcode,G28 ; home all axes
;   layerChangeGcode,
;   retractionGcode,
;   toolChangeGcode,
;   endingGcode,M104 S0 ; turn off extruder,M140 S0 ; turn off bed,M84 ; disable motors,G28 ; home all axes
;   exportFileFormat,gcode
;   celebration,0
;   celebrationSong,Random Song
;   postProcessing,
;   defaultSpeed,2000
;   outlineUnderspeed,0.95
;   solidInfillUnderspeed,0.8
;   supportUnderspeed,0.8
;   rapidXYspeed,4800
;   rapidZspeed,1002
;   minBridgingArea,50
;   bridgingExtraInflation,0
;   bridgingExtrusionMultiplier,1
;   bridgingSpeedMultiplier,1
;   useFixedBridgingAngle,0
;   fixedBridgingAngle,0
;   applyBridgingToPerimeters,0
;   filamentDiameters,1.75|1.75|1.75|1.75|1.75|1.75
;   filamentPricesPerKg,46|46|46|46|46|46
;   filamentDensities,1.25|1.25|1.25|1.25|1.25|1.25
;   useMinPrintHeight,0
;   minPrintHeight,0
;   useMaxPrintHeight,0
;   maxPrintHeight,0
;   useDiaphragm,0
;   diaphragmLayerInterval,20
;   robustSlicing,1
;   mergeAllIntoSolid,0
;   onlyRetractWhenCrossingOutline,1
;   retractBetweenLayers,1
;   useRetractionMinTravel,0
;   retractionMinTravel,3
;   retractWhileWiping,0
;   onlyWipeOutlines,1
;   avoidCrossingOutline,0
;   maxMovementDetourFactor,3
;   toolChangeRetractionDistance,12
;   toolChangeExtraRestartDistance,-0.5
;   toolChangeRetractionSpeed,600
;   externalThinWallType,0
;   internalThinWallType,2
;   thinWallAllowedOverlapPercentage,10
;   singleExtrusionMinLength,1
;   singleExtrusionMinPrintingWidthPercentage,50
;   singleExtrusionMaxPrintingWidthPercentage,200
;   singleExtrusionEndpointExtension,0.2
;   horizontalSizeCompensation,0
G90
M82
M106 S0
M140 S60
M190 S60
M104 S205 T0
M109 S205 T0
G28 ; home all axes
G92 E0
G1 E-9.0000 F1988
G1 Z0.180 F1002
; process Process1
; layer 1, Z = 0.180
T0
; tool H0.200 W0.800
; skirt
G1 X60.399 Y82.361 F4800
G1 E0.0000 F596
G92 E0
G1 X60.546 Y82.300 E0.0107 F1000
G1 X90.659 Y82.300 E2.0339
G1 X91.160 Y82.272 E2.0676
G1 X91.635 Y82.191 E2.0999
G1 X92.099 Y82.058 E2.1323
G1 X92.544 Y81.873 E2.1647
G1 X92.966 Y81.640 E2.1971
G1 X93.359 Y81.361 E2.2295
G1 X93.734 Y81.027 E2.2632
G1 X110.325 Y64.435 E3.8397
G1 X110.391 Y64.391 E3.8450
G1 X110.574 Y64.315 E3.8583
G1 X110.651 Y64.300 E3.8636
G1 X159.454 Y64.300 E7.1424
G1 X159.601 Y64.361 E7.1531
G1 X159.889 Y64.649 E7.1805
G1 X159.950 Y64.796 E7.1912
G1 X159.950 Y155.204 E13.2653
G1 X159.889 Y155.351 E13.2760
G1 X159.601 Y155.639 E13.3034
G1 X159.454 Y155.700 E13.3140
G1 X110.651 Y155.700 E16.5929
G1 X110.574 Y155.685 E16.5982
G1 X110.391 Y155.609 E16.6115
G1 X110.325 Y155.565 E16.6168
G1 X93.734 Y138.973 E18.1932
G1 X93.359 Y138.639 E18.2270
G1 X92.966 Y138.360 E18.2593
G1 X92.544 Y138.127 E18.2917
G1 X92.099 Y137.942 E18.3241
G1 X91.636 Y137.809 E18.3565
G1 X91.160 Y137.728 E18.3889
G1 X90.659 Y137.700 E18.4226
G1 X60.546 Y137.700 E20.4458
G1 X60.399 Y137.639 E20.4565
G1 X60.111 Y137.351 E20.4839
G1 X60.050 Y137.204 E20.4945
G1 X60.050 Y112.796 E22.1344
G1 X60.111 Y112.649 E22.1451
G1 X60.399 Y112.361 E22.1725
G1 X60.546 Y112.300 E22.1832
G1 X68.550 Y112.300 E22.7209
G1 X68.550 Y107.700 E23.0299
G1 X60.546 Y107.700 E23.5677
G1 X60.399 Y107.639 E23.5784
G1 X60.111 Y107.351 E23.6058
G1 X60.050 Y107.204 E23.6165
G1 X60.050 Y82.796 E25.2563
G1 X60.111 Y82.649 E25.2670
G1 X60.399 Y82.361 E25.2944
G92 E0
G1 E-9.0000 F1988
; outer perimeter
G1 X61.150 Y83.400 F4800
G1 E0.0000 F1988
G92 E0
G1 X90.690 Y83.400 E1.9847 F950
G1 X91.284 Y83.367 E2.0246
G1 X91.881 Y83.265 E2.0653
G1 X92.463 Y83.098 E2.1060
G1 X93.022 Y82.866 E2.1467
G1 X93.552 Y82.573 E2.1874
G1 X94.046 Y82.222 E2.2281
G1 X94.489 Y81.826 E2.2680
G1 X110.916 Y65.400 E3.8287
G1 X158.850 Y65.400 E7.0492
G1 X158.850 Y154.600 E13.0422
G1 X110.916 Y154.600 E16.2626
G1 X94.489 Y138.174 E17.8234
G1 X94.046 Y137.778 E17.8633
G1 X93.552 Y137.427 E17.9040
G1 X93.022 Y137.134 E17.9447
G1 X92.463 Y136.902 E17.9854
G1 X91.881 Y136.735 E18.0261
G1 X91.284 Y136.633 E18.0668
G1 X90.690 Y136.600 E18.1067
G1 X61.150 Y136.600 E20.0914
G1 X61.150 Y113.400 E21.6501
G1 X69.650 Y113.400 E22.2212
G1 X69.650 Y106.600 E22.6780
G1 X61.150 Y106.600 E23.2491
G1 X61.150 Y83.400 E24.8078
G1 X63.684 Y92.976 F4800
G92 E0
G1 X63.264 Y93.143 E0.0304 F950
G1 X62.890 Y93.397 E0.0608
G1 X62.575 Y93.729 E0.0915
G1 X62.340 Y94.122 E0.1223
G1 X62.196 Y94.551 E0.1526
G1 X62.148 Y95.006 E0.1834
G1 X62.198 Y95.456 E0.2138
G1 X62.345 Y95.888 E0.2445
G1 X62.579 Y96.275 E0.2749
G1 X62.890 Y96.603 E0.3052
G1 X63.269 Y96.859 E0.3360
G1 X63.689 Y97.026 E0.3663
G1 X64.136 Y97.099 E0.3968
G1 X64.593 Y97.074 E0.4275
G1 X65.033 Y96.951 E0.4582
G1 X65.433 Y96.738 E0.4886
G1 X65.780 Y96.441 E0.5193
G1 X66.053 Y96.081 E0.5497
G1 X66.243 Y95.670 E0.5801
G1 X66.340 Y95.223 E0.6108
G1 X66.340 Y94.771 E0.6412
G1 X66.241 Y94.324 E0.6720
G1 X66.050 Y93.914 E0.7024
G1 X65.772 Y93.551 E0.7331
G1 X65.427 Y93.258 E0.7635
G1 X65.022 Y93.045 E0.7942
G1 X64.586 Y92.925 E0.8246
G1 X64.130 Y92.902 E0.8553
G1 X63.684 Y92.976 E0.8857
G1 X80.232 Y90.471 F4800
G92 E0
G1 X80.361 Y90.925 E0.0318 F950
G1 X80.572 Y91.349 E0.0635
G1 X80.857 Y91.726 E0.0953
G1 X81.206 Y92.044 E0.1270
G1 X81.608 Y92.293 E0.1588
G1 X82.049 Y92.464 E0.1906
G1 X82.514 Y92.551 E0.2223
G1 X82.986 Y92.551 E0.2541
G1 X83.451 Y92.464 E0.2858
G1 X83.892 Y92.293 E0.3176
G1 X84.294 Y92.044 E0.3494
G1 X84.643 Y91.726 E0.3811
G1 X84.928 Y91.349 E0.4129
G1 X85.139 Y90.925 E0.4446
G1 X85.268 Y90.471 E0.4764
G1 X85.312 Y90.000 E0.5082
G1 X85.268 Y89.529 E0.5399
G1 X85.139 Y89.075 E0.5717
G1 X84.928 Y88.651 E0.6035
G1 X84.643 Y88.274 E0.6352
G1 X84.294 Y87.956 E0.6670
G1 X83.892 Y87.707 E0.6987
G1 X83.451 Y87.536 E0.7305
G1 X82.986 Y87.449 E0.7623
G1 X82.514 Y87.449 E0.7940
G1 X82.049 Y87.536 E0.8258
G1 X81.608 Y87.707 E0.8575
G1 X81.206 Y87.956 E0.8893
G1 X80.857 Y88.274 E0.9211
G1 X80.572 Y88.651 E0.9528
G1 X80.361 Y89.075 E0.9846
G1 X80.232 Y89.529 E1.0163
G1 X80.188 Y90.000 E1.0481
G1 X80.232 Y90.471 E1.0799
G1 X65.022 Y123.045 F4800
G92 E0
G1 X64.592 Y122.926 E0.0300 F950
G1 X64.237 Y122.898 E0.0539
G1 X63.689 Y122.973 E0.0911
G1 X63.264 Y123.143 E0.1219
G1 X62.886 Y123.401 E0.1526
G1 X62.578 Y123.725 E0.1826
G1 X62.340 Y124.122 E0.2137
G1 X62.196 Y124.551 E0.2441
G1 X62.148 Y125.006 E0.2748
G1 X62.198 Y125.456 E0.3052
G1 X62.345 Y125.888 E0.3360
G1 X62.579 Y126.275 E0.3663
G1 X62.890 Y126.603 E0.3967
G1 X63.269 Y126.859 E0.4274
G1 X63.690 Y127.026 E0.4578
G1 X64.141 Y127.099 E0.4886
G1 X64.593 Y127.074 E0.5190
G1 X65.033 Y126.951 E0.5497
G1 X65.433 Y126.738 E0.5801
G1 X65.780 Y126.441 E0.6108
G1 X66.053 Y126.081 E0.6412
G1 X66.243 Y125.670 E0.6716
G1 X66.340 Y125.223 E0.7023
G1 X66.340 Y124.771 E0.7327
G1 X66.241 Y124.324 E0.7634
G1 X66.050 Y123.914 E0.7938
G1 X65.772 Y123.551 E0.8245
G1 X65.427 Y123.258 E0.8549
G1 X65.022 Y123.045 E0.8857
G1 X80.361 Y129.075 F4800
G92 E0
G1 X80.232 Y129.529 E0.0318 F950
G1 X80.188 Y130.000 E0.0635
G1 X80.232 Y130.471 E0.0953
G1 X80.361 Y130.925 E0.1270
G1 X80.572 Y131.349 E0.1588
G1 X80.857 Y131.726 E0.1906
G1 X81.206 Y132.044 E0.2223
G1 X81.608 Y132.293 E0.2541
G1 X82.049 Y132.464 E0.2858
G1 X82.514 Y132.551 E0.3176
G1 X82.986 Y132.551 E0.3494
G1 X83.451 Y132.464 E0.3811
G1 X83.892 Y132.293 E0.4129
G1 X84.294 Y132.044 E0.4446
G1 X84.643 Y131.726 E0.4764
G1 X84.928 Y131.349 E0.5082
G1 X85.139 Y130.925 E0.5399
G1 X85.268 Y130.471 E0.5717
G1 X85.312 Y130.000 E0.6035
G1 X85.268 Y129.529 E0.6352
G1 X85.139 Y129.075 E0.6670
G1 X84.928 Y128.651 E0.6987
G1 X84.643 Y128.274 E0.7305
G1 X84.294 Y127.956 E0.7623
G1 X83.892 Y127.707 E0.7940
G1 X83.451 Y127.536 E0.8258
G1 X82.986 Y127.449 E0.8575
G1 X82.514 Y127.449 E0.8893
G1 X82.049 Y127.536 E0.9211
G1 X81.608 Y127.707 E0.9528
G1 X81.206 Y127.956 E0.9846
G1 X80.857 Y128.274 E1.0163
G1 X80.572 Y128.651 E1.0481
G1 X80.361 Y129.075 E1.0799
G92 E0
G1 E-9.0000 F1988
G1 X153.850 Y123.400 F4800
G1 E0.0000 F1988
G92 E0
G1 X157.150 Y123.400 E0.2217 F950
G1 X157.150 Y96.600 E2.0223
G1 X153.850 Y96.600 E2.2440
G1 X153.850 Y123.400 E4.0446
; solid layer
G1 X153.376 Y123.960 F4800
G92 E0
G1 X158.290 Y128.874 E0.4669 F800
G1 X158.290 Y127.743 E0.5429
G1 X154.507 Y123.960 E0.9024
G1 X155.638 Y123.960 E0.9784
G1 X158.290 Y126.612 E1.2303
G1 X158.290 Y125.480 E1.3063
G1 X156.770 Y123.960 E1.4508
G1 X157.710 Y123.960 E1.5140
G1 X157.710 Y123.769 E1.5268
G1 X158.290 Y124.349 E1.5819
G1 X158.290 Y123.217 E1.6579
G1 X157.710 Y122.637 E1.7130
G1 X157.710 Y121.506 E1.7890
G1 X158.290 Y122.086 E1.8442
G1 X158.290 Y120.955 E1.9202
G1 X157.710 Y120.375 E1.9753
G1 X157.710 Y119.243 E2.0513
G1 X158.290 Y119.823 E2.1064
G1 X158.290 Y118.692 E2.1824
G1 X157.710 Y118.112 E2.2375
G1 X157.710 Y116.981 E2.3135
G1 X158.290 Y117.561 E2.3686
G1 X158.290 Y116.429 E2.4446
G1 X157.710 Y115.849 E2.4998
G1 X157.710 Y114.718 E2.5758
G1 X158.290 Y115.298 E2.6309
G1 X158.290 Y114.167 E2.7069
G1 X157.710 Y113.587 E2.7620
G1 X157.710 Y112.455 E2.8380
G1 X158.290 Y113.035 E2.8931
G1 X158.290 Y111.904 E2.9691
G1 X157.710 Y111.324 E3.0242
G1 X157.710 Y110.192 E3.1002
G1 X158.290 Y110.772 E3.1554
G1 X158.290 Y109.641 E3.2314
G1 X157.710 Y109.061 E3.2865
G1 X157.710 Y107.930 E3.3625
G1 X158.290 Y108.510 E3.4176
G1 X158.290 Y107.378 E3.4936
G1 X157.710 Y106.798 E3.5487
G1 X157.710 Y105.667 E3.6247
G1 X158.290 Y106.247 E3.6798
G1 X158.290 Y105.116 E3.7558
G1 X157.710 Y104.536 E3.8110
G1 X157.710 Y103.404 E3.8870
G1 X158.290 Y103.984 E3.9421
G1 X158.290 Y102.853 E4.0181
G1 X157.710 Y102.273 E4.0732
G1 X157.710 Y101.141 E4.1492
G1 X158.290 Y101.721 E4.2043
G1 X158.290 Y100.590 E4.2803
G1 X157.710 Y100.010 E4.3354
G1 X157.710 Y98.879 E4.4114
G1 X158.290 Y99.459 E4.4666
G1 X158.290 Y98.327 E4.5426
G1 X157.710 Y97.747 E4.5977
G1 X157.601 Y65.960 F4800
G92 E0
G1 X158.290 Y66.649 E0.0655 F800
G1 X158.290 Y67.780 E0.1415
G1 X156.470 Y65.960 E0.3144
G1 X155.338 Y65.960 E0.3904
G1 X158.290 Y68.912 E0.6709
G1 X158.290 Y70.043 E0.7469
G1 X154.207 Y65.960 E1.1349
G1 X153.076 Y65.960 E1.2109
G1 X158.290 Y71.174 E1.7063
G1 X158.290 Y72.306 E1.7823
G1 X151.944 Y65.960 E2.3853
G1 X150.813 Y65.960 E2.4613
G1 X158.290 Y73.437 E3.1717
G1 X158.290 Y74.569 E3.2477
G1 X149.681 Y65.960 E4.0657
G1 X148.550 Y65.960 E4.1417
G1 X158.290 Y75.700 E5.0671
G1 X158.290 Y76.831 E5.1431
G1 X147.419 Y65.960 E6.1761
G1 X146.287 Y65.960 E6.2521
G1 X158.290 Y77.963 E7.3925
G1 X158.290 Y79.094 E7.4685
G1 X145.156 Y65.960 E8.7164
G1 X144.025 Y65.960 E8.7924
G1 X158.290 Y80.225 E10.1479
G1 X158.290 Y81.357 E10.2239
G1 X142.893 Y65.960 E11.6868
G1 X141.762 Y65.960 E11.7628
G1 X158.290 Y82.488 E13.3332
G1 X158.290 Y83.620 E13.4092
G1 X140.630 Y65.960 E15.0871
G1 X139.499 Y65.960 E15.1632
G1 X158.290 Y84.751 E16.9486
G1 X158.290 Y85.882 E17.0246
G1 X138.368 Y65.960 E18.9175
G1 X137.236 Y65.960 E18.9935
G1 X158.290 Y87.014 E20.9939
G1 X158.290 Y88.145 E21.0699
G1 X136.105 Y65.960 E23.1778
G1 X134.974 Y65.960 E23.2538
G1 X158.290 Y89.276 E25.4692
G1 X158.290 Y90.408 E25.5452
G1 X133.842 Y65.960 E27.8681
G1 X132.711 Y65.960 E27.9441
G1 X158.290 Y91.539 E30.3745
G1 X158.290 Y92.670 E30.4505
G1 X131.580 Y65.960 E32.9884
G1 X130.448 Y65.960 E33.0644
G1 X158.290 Y93.802 E35.7098
G1 X158.290 Y94.933 E35.7858
G1 X129.317 Y65.960 E38.5387
G1 X128.185 Y65.960 E38.6147
G1 X158.290 Y96.065 E41.4751
G1 X158.290 Y97.196 E41.5511
G1 X157.710 Y96.616 E41.6062
G1 X157.710 Y96.040 E41.6449
G1 X157.134 Y96.040 E41.6836
G1 X127.054 Y65.960 E44.5416
G1 X125.923 Y65.960 E44.6176
G1 X156.003 Y96.040 E47.4757
G1 X154.871 Y96.040 E47.5517
G1 X124.791 Y65.960 E50.4097
G1 X123.660 Y65.960 E50.4858
G1 X153.740 Y96.040 E53.3438
G1 X153.290 Y96.040 E53.3740
G1 X153.290 Y96.721 E53.4198
