; G-Code generated by Simplify3D(R) Version 4.0.0
; Mar 30, 2022 at 6:17:30 PM
; Settings Summary
;   processName,Process1
;   applyToModels,Frame_Motor_Mount_V1.5
;   profileName,Default (modified)
;   profileVersion,2017-03-01 08:00:00
;   baseProfile,
;   printMaterial,
;   printQuality,
;   printExtruders,
;   extruderName,Primary Extruder
;   extruderToolheadNumber,0
;   extruderDiameter,0.4
;   extruderAutoWidth,0
;   extruderWidth,0.8
;   extrusionMultiplier,1.01
;   extruderUseRetract,1
;   extruderRetractionDistance,9
;   extruderExtraRestartDistance,0
;   extruderRetractionZLift,0
;   extruderRetractionSpeed,1988
;   extruderUseCoasting,0
;   extruderCoastingDistance,0.2
;   extruderUseWipe,0
;   extruderWipeDistance,5
;   primaryExtruder,0
;   layerHeight,0.2
;   topSolidLayers,4
;   bottomSolidLayers,4
;   perimeterOutlines,1
;   printPerimetersInsideOut,1
;   startPointOption,2
;   startPointOriginX,0
;   startPointOriginY,0
;   sequentialIslands,0
;   spiralVaseMode,0
;   firstLayerHeightPercentage,90
;   firstLayerWidthPercentage,100
;   firstLayerUnderspeed,0.5
;   useRaft,0
;   raftExtruder,0
;   raftTopLayers,3
;   raftBaseLayers,2
;   raftOffset,3
;   raftSeparationDistance,0.14
;   raftTopInfill,100
;   aboveRaftSpeedMultiplier,0.3
;   useSkirt,1
;   skirtExtruder,0
;   skirtLayers,1
;   skirtOutlines,1
;   skirtOffset,0.3
;   usePrimePillar,0
;   primePillarExtruder,999
;   primePillarWidth,12
;   primePillarLocation,7
;   primePillarSpeedMultiplier,1
;   useOozeShield,0
;   oozeShieldExtruder,999
;   oozeShieldOffset,2
;   oozeShieldOutlines,1
;   oozeShieldSidewallShape,1
;   oozeShieldSidewallAngle,30
;   oozeShieldSpeedMultiplier,1
;   infillExtruder,0
;   internalInfillPattern,Rectilinear
;   externalInfillPattern,Rectilinear
;   infillPercentage,35
;   outlineOverlapPercentage,30
;   infillExtrusionWidthPercentage,100
;   minInfillLength,5
;   infillLayerInterval,1
;   internalInfillAngles,45,-45
;   overlapInternalInfillAngles,0
;   externalInfillAngles,45,-45
;   generateSupport,1
;   supportExtruder,0
;   supportInfillPercentage,30
;   supportExtraInflation,0
;   supportBaseLayers,0
;   denseSupportExtruder,0
;   denseSupportLayers,0
;   denseSupportInfillPercentage,70
;   supportLayerInterval,1
;   supportHorizontalPartOffset,0.3
;   supportUpperSeparationLayers,1
;   supportLowerSeparationLayers,1
;   supportType,0
;   supportGridSpacing,4
;   maxOverhangAngle,45
;   supportAngles,0
;   temperatureName,Primary Extruder,Bed
;   temperatureNumber,0,0
;   temperatureSetpointCount,1,1
;   temperatureSetpointLayers,1,1
;   temperatureSetpointTemperatures,205,60
;   temperatureStabilizeAtStartup,1,1
;   temperatureHeatedBed,0,1
;   temperatureRelayBetweenLayers,0,0
;   temperatureRelayBetweenLoops,0,0
;   fanLayers,1,2
;   fanSpeeds,0,100
;   blipFanToFullPower,0
;   adjustSpeedForCooling,1
;   minSpeedLayerTime,15
;   minCoolingSpeedSlowdown,20
;   increaseFanForCooling,0
;   minFanLayerTime,45
;   maxCoolingFanSpeed,100
;   increaseFanForBridging,0
;   bridgingFanSpeed,100
;   use5D,1
;   relativeEdistances,0
;   allowEaxisZeroing,1
;   independentExtruderAxes,0
;   includeM10123,0
;   stickySupport,1
;   applyToolheadOffsets,0
;   gcodeXoffset,0
;   gcodeYoffset,0
;   gcodeZoffset,0
;   overrideMachineDefinition,1
;   machineTypeOverride,0
;   strokeXoverride,220
;   strokeYoverride,220
;   strokeZoverride,220
;   originOffsetXoverride,0
;   originOffsetYoverride,0
;   originOffsetZoverride,0
;   homeXdirOverride,-1
;   homeYdirOverride,-1
;   homeZdirOverride,-1
;   flipXoverride,1
;   flipYoverride,-1
;   flipZoverride,1
;   toolheadOffsets,0,0|0,0|0,0|0,0|0,0|0,0
;   overrideFirmwareConfiguration,0
;   firmwareTypeOverride,RepRap (Marlin/Repetier/Sprinter)
;   GPXconfigOverride,r2
;   baudRateOverride,115200
;   overridePrinterModels,0
;   printerModelsOverride
;   startingGcode,G28 ; home all axes
;   layerChangeGcode,
;   retractionGcode,
;   toolChangeGcode,
;   endingGcode,M104 S0 ; turn off extruder,M140 S0 ; turn off bed,M84 ; disable motors,G28 ; home all axes
;   exportFileFormat,gcode
;   celebration,0
;   celebrationSong,Random Song
;   postProcessing,
;   defaultSpeed,2000
;   outlineUnderspeed,0.95
;   solidInfillUnderspeed,0.8
;   supportUnderspeed,0.8
;   rapidXYspeed,4800
;   rapidZspeed,1002
;   minBridgingArea,50
;   bridgingExtraInflation,0
;   bridgingExtrusionMultiplier,1
;   bridgingSpeedMultiplier,1
;   useFixedBridgingAngle,0
;   fixedBridgingAngle,0
;   applyBridgingToPerimeters,0
;   filamentDiameters,1.75|1.75|1.75|1.75|1.75|1.75
;   filamentPricesPerKg,46|46|46|46|46|46
;   filamentDensities,1.25|1.25|1.25|1.25|1.25|1.25
;   useMinPrintHeight,0
;   minPrintHeight,0
;   useMaxPrintHeight,0
;   maxPrintHeight,0
;   useDiaphragm,0
;   diaphragmLayerInterval,20
;   robustSlicing,1
;   mergeAllIntoSolid,0
;   onlyRetractWhenCrossingOutline,1
;   retractBetweenLayers,1
;   useRetractionMinTravel,0
;   retractionMinTravel,3
;   retractWhileWiping,0
;   onlyWipeOutlines,1
;   avoidCrossingOutline,0
;   maxMovementDetourFactor,3
;   toolChangeRetractionDistance,12
;   toolChangeExtraRestartDistance,-0.5
;   toolChangeRetractionSpeed,600
;   externalThinWallType,0
;   internalThinWallType,2
;   thinWallAllowedOverlapPercentage,10
;   singleExtrusionMinLength,1
;   singleExtrusionMinPrintingWidthPercentage,50
;   singleExtrusionMaxPrintingWidthPercentage,200
;   singleExtrusionEndpointExtension,0.2
;   horizontalSizeCompensation,0
G90
M82
M106 S0
M140 S60
M190 S60
M104 S205 T0
M109 S205 T0
G28 ; home all axes
G92 E0
G1 E-9.0000 F1988
G1 Z0.180 F1002
; process Process1
; layer 1, Z = 0.180
T0
; tool H0.200 W0.800
; skirt
G1 X68.851 Y103.022 F4800
G1 E0.0000 F596
G92 E0
G1 X68.862 Y103.015 E0.0009 F1000
G1 X68.892 Y102.998 E0.0032
G1 X68.905 Y102.991 E0.0042
G1 X69.159 Y102.869 E0.0232
G1 X69.172 Y102.863 E0.0241
G1 X69.206 Y102.850 E0.0266
G1 X69.220 Y102.845 E0.0276
G1 X69.719 Y102.688 E0.0627
G1 X69.739 Y102.683 E0.0640
G1 X69.788 Y102.673 E0.0674
G1 X69.808 Y102.670 E0.0688
G1 X70.311 Y102.618 E0.1028
G1 X70.322 Y102.617 E0.1035
G1 X70.347 Y102.616 E0.1052
G1 X70.358 Y102.616 E0.1059
G1 X114.697 Y102.615 E3.0849
G1 X114.934 Y102.101 E3.1229
G1 X114.936 Y102.095 E3.1233
G1 X114.943 Y102.081 E3.1244
G1 X114.946 Y102.076 E3.1248
G1 X115.476 Y101.090 E3.2000
G1 X115.479 Y101.084 E3.2005
G1 X115.488 Y101.070 E3.2016
G1 X115.491 Y101.064 E3.2020
G1 X116.084 Y100.114 E3.2772
G1 X116.087 Y100.109 E3.2777
G1 X116.096 Y100.095 E3.2788
G1 X116.100 Y100.090 E3.2792
G1 X116.753 Y99.180 E3.3544
G1 X116.757 Y99.175 E3.3549
G1 X116.767 Y99.162 E3.3560
G1 X116.771 Y99.156 E3.3564
G1 X117.491 Y98.279 E3.4327
G1 X117.495 Y98.275 E3.4331
G1 X117.506 Y98.263 E3.4342
G1 X117.510 Y98.258 E3.4346
G1 X118.272 Y97.443 E3.5096
G1 X118.278 Y97.438 E3.5101
G1 X118.291 Y97.424 E3.5114
G1 X118.297 Y97.419 E3.5119
G1 X119.483 Y96.331 E3.6200
G1 X119.546 Y96.292 E3.6250
G1 X119.720 Y96.224 E3.6376
G1 X119.793 Y96.210 E3.6426
G1 X149.665 Y96.210 E5.6496
G1 X149.677 Y96.210 E5.6503
G1 X149.706 Y96.212 E5.6523
G1 X149.717 Y96.213 E5.6530
G1 X150.043 Y96.251 E5.6751
G1 X150.077 Y96.257 E5.6774
G1 X150.159 Y96.282 E5.6832
G1 X150.191 Y96.294 E5.6855
G1 X150.654 Y96.523 E5.7201
G1 X150.682 Y96.539 E5.7223
G1 X150.748 Y96.587 E5.7278
G1 X150.772 Y96.607 E5.7299
G1 X151.049 Y96.882 E5.7561
G1 X151.066 Y96.901 E5.7578
G1 X151.105 Y96.952 E5.7622
G1 X151.119 Y96.973 E5.7639
G1 X151.301 Y97.283 E5.7880
G1 X151.317 Y97.315 E5.7904
G1 X151.347 Y97.397 E5.7963
G1 X151.356 Y97.431 E5.7986
G1 X151.442 Y97.896 E5.8304
G1 X151.444 Y97.914 E5.8316
G1 X151.448 Y97.959 E5.8347
G1 X151.449 Y97.977 E5.8359
G1 X151.449 Y122.023 E7.4514
G1 X151.448 Y122.034 E7.4521
G1 X151.447 Y122.062 E7.4540
G1 X151.446 Y122.073 E7.4548
G1 X151.410 Y122.393 E7.4764
G1 X151.403 Y122.427 E7.4788
G1 X151.378 Y122.512 E7.4847
G1 X151.365 Y122.545 E7.4871
G1 X151.138 Y122.997 E7.5210
G1 X151.121 Y123.024 E7.5232
G1 X151.073 Y123.090 E7.5287
G1 X151.052 Y123.115 E7.5309
G1 X150.773 Y123.392 E7.5573
G1 X150.749 Y123.412 E7.5594
G1 X150.685 Y123.458 E7.5647
G1 X150.658 Y123.475 E7.5668
G1 X150.211 Y123.699 E7.6004
G1 X150.183 Y123.710 E7.6024
G1 X150.112 Y123.733 E7.6075
G1 X150.082 Y123.740 E7.6095
G1 X149.842 Y123.780 E7.6258
G1 X149.826 Y123.782 E7.6269
G1 X149.785 Y123.785 E7.6297
G1 X149.769 Y123.786 E7.6308
G1 X136.920 Y123.789 E8.4941
G1 X136.920 Y124.424 E8.5367
G1 X136.859 Y124.571 E8.5474
G1 X136.571 Y124.859 E8.5748
G1 X136.424 Y124.920 E8.5855
G1 X127.576 Y124.920 E9.1799
G1 X127.429 Y124.859 E9.1906
G1 X127.141 Y124.571 E9.2180
G1 X127.080 Y124.424 E9.2287
G1 X127.080 Y123.790 E9.2712
G1 X119.793 Y123.790 E9.7608
G1 X119.720 Y123.776 E9.7658
G1 X119.546 Y123.708 E9.7784
G1 X119.483 Y123.669 E9.7834
G1 X118.290 Y122.575 E9.8921
G1 X118.284 Y122.569 E9.8926
G1 X118.271 Y122.556 E9.8939
G1 X118.265 Y122.550 E9.8944
G1 X117.500 Y121.731 E9.9698
G1 X117.496 Y121.726 E9.9702
G1 X117.485 Y121.714 E9.9713
G1 X117.481 Y121.709 E9.9717
G1 X116.770 Y120.843 E10.0470
G1 X116.766 Y120.838 E10.0474
G1 X116.756 Y120.825 E10.0485
G1 X116.753 Y120.820 E10.0489
G1 X116.100 Y119.910 E10.1242
G1 X116.096 Y119.905 E10.1246
G1 X116.087 Y119.891 E10.1257
G1 X116.084 Y119.886 E10.1261
G1 X115.491 Y118.936 E10.2014
G1 X115.488 Y118.930 E10.2018
G1 X115.479 Y118.916 E10.2029
G1 X115.476 Y118.910 E10.2033
G1 X114.946 Y117.924 E10.2786
G1 X114.943 Y117.919 E10.2790
G1 X114.937 Y117.905 E10.2800
G1 X114.934 Y117.899 E10.2804
G1 X114.697 Y117.384 E10.3185
G1 X70.110 Y117.372 E13.3141
G1 X70.090 Y117.371 E13.3155
G1 X70.039 Y117.366 E13.3189
G1 X70.019 Y117.363 E13.3203
G1 X69.505 Y117.256 E13.3556
G1 X69.485 Y117.251 E13.3569
G1 X69.438 Y117.236 E13.3602
G1 X69.420 Y117.229 E13.3615
G1 X68.933 Y117.022 E13.3970
G1 X68.921 Y117.016 E13.3980
G1 X68.889 Y117.000 E13.4004
G1 X68.877 Y116.994 E13.4013
G1 X68.634 Y116.847 E13.4204
G1 X68.623 Y116.840 E13.4213
G1 X68.595 Y116.821 E13.4235
G1 X68.585 Y116.813 E13.4244
G1 X68.156 Y116.469 E13.4613
G1 X68.143 Y116.458 E13.4625
G1 X68.113 Y116.430 E13.4652
G1 X68.102 Y116.418 E13.4663
G1 X67.716 Y115.987 E13.5052
G1 X67.707 Y115.976 E13.5062
G1 X67.684 Y115.946 E13.5087
G1 X67.675 Y115.933 E13.5098
G1 X67.350 Y115.436 E13.5496
G1 X67.343 Y115.424 E13.5506
G1 X67.326 Y115.393 E13.5530
G1 X67.319 Y115.381 E13.5539
G1 X67.058 Y114.824 E13.5952
G1 X67.053 Y114.812 E13.5961
G1 X67.041 Y114.781 E13.5983
G1 X67.037 Y114.769 E13.5992
G1 X66.847 Y114.168 E13.6415
G1 X66.843 Y114.153 E13.6426
G1 X66.834 Y114.115 E13.6452
G1 X66.831 Y114.100 E13.6462
G1 X66.688 Y113.160 E13.7101
G1 X66.687 Y113.145 E13.7111
G1 X66.684 Y113.109 E13.7136
G1 X66.683 Y113.094 E13.7145
G1 X66.673 Y110.548 E13.8856
G1 X66.734 Y110.401 E13.8963
G1 X67.022 Y110.111 E13.9238
G1 X67.169 Y110.050 E13.9345
G1 X106.674 Y110.050 E16.5886
G1 X106.674 Y109.950 E16.5953
G1 X67.170 Y109.950 E19.2494
G1 X67.023 Y109.889 E19.2601
G1 X66.735 Y109.601 E19.2875
G1 X66.674 Y109.454 E19.2982
G1 X66.674 Y107.224 E19.4480
G1 X66.674 Y107.218 E19.4484
G1 X66.674 Y107.203 E19.4494
G1 X66.675 Y107.197 E19.4498
G1 X66.713 Y106.558 E19.4928
G1 X66.715 Y106.543 E19.4938
G1 X66.720 Y106.505 E19.4964
G1 X66.723 Y106.490 E19.4974
G1 X66.922 Y105.568 E19.5608
G1 X66.926 Y105.552 E19.5619
G1 X66.937 Y105.514 E19.5646
G1 X66.942 Y105.499 E19.5656
G1 X67.170 Y104.915 E19.6077
G1 X67.175 Y104.902 E19.6087
G1 X67.190 Y104.872 E19.6109
G1 X67.196 Y104.860 E19.6119
G1 X67.487 Y104.337 E19.6520
G1 X67.492 Y104.328 E19.6528
G1 X67.507 Y104.305 E19.6546
G1 X67.513 Y104.296 E19.6553
G1 X67.687 Y104.050 E19.6755
G1 X67.691 Y104.044 E19.6760
G1 X67.703 Y104.029 E19.6773
G1 X67.708 Y104.023 E19.6778
G1 X67.897 Y103.795 E19.6978
G1 X67.905 Y103.786 E19.6986
G1 X67.925 Y103.764 E19.7006
G1 X67.934 Y103.755 E19.7014
G1 X68.340 Y103.370 E19.7390
G1 X68.353 Y103.359 E19.7401
G1 X68.386 Y103.332 E19.7430
G1 X68.400 Y103.322 E19.7442
G1 X68.851 Y103.022 E19.7805
G92 E0
G1 E-9.0000 F1988
; outer perimeter
G1 X69.415 Y103.967 F4800
G1 E0.0000 F1988
G92 E0
G1 X69.603 Y103.876 E0.0141 F950
G1 X69.794 Y103.806 E0.0277
G1 X69.986 Y103.756 E0.0410
G1 X70.178 Y103.726 E0.0541
G1 X70.381 Y103.716 E0.0677
G1 X115.402 Y103.715 E3.0926
G1 X115.925 Y102.579 E3.1766
G1 X116.435 Y101.629 E3.2491
G1 X117.006 Y100.714 E3.3215
G1 X117.634 Y99.838 E3.3939
G1 X118.328 Y98.994 E3.4673
G1 X119.060 Y98.211 E3.5394
G1 X119.842 Y97.476 E3.6114
G1 X120.035 Y97.310 E3.6286
G1 X149.628 Y97.310 E5.6168
G1 X149.829 Y97.333 E5.6304
G1 X149.907 Y97.361 E5.6359
G1 X150.061 Y97.451 E5.6479
G1 X150.214 Y97.603 E5.6624
G1 X150.310 Y97.767 E5.6751
G1 X150.326 Y97.814 E5.6785
G1 X150.349 Y98.022 E5.6926
G1 X150.349 Y121.986 E7.3026
G1 X150.328 Y122.169 E7.3150
G1 X150.259 Y122.336 E7.3271
G1 X150.222 Y122.389 E7.3314
G1 X150.063 Y122.547 E7.3465
G1 X149.891 Y122.647 E7.3598
G1 X149.834 Y122.666 E7.3639
G1 X149.716 Y122.686 E7.3720
G1 X134.934 Y122.690 E8.3651
G1 X134.934 Y118.106 E8.6730
G1 X134.948 Y118.150 E8.6761
G1 X135.165 Y118.541 E8.7062
G1 X135.456 Y118.881 E8.7363
G1 X135.810 Y119.155 E8.7663
G1 X136.212 Y119.352 E8.7964
G1 X136.645 Y119.464 E8.8265
G1 X137.092 Y119.487 E8.8565
G1 X137.535 Y119.419 E8.8866
G1 X137.955 Y119.263 E8.9167
G1 X138.334 Y119.027 E8.9468
G1 X138.659 Y118.718 E8.9768
G1 X138.914 Y118.351 E9.0069
G1 X139.091 Y117.940 E9.0370
G1 X139.181 Y117.501 E9.0671
G1 X139.180 Y117.050 E9.0974
G1 X139.091 Y116.615 E9.1272
G1 X138.914 Y116.204 E9.1572
G1 X138.659 Y115.837 E9.1873
G1 X138.334 Y115.528 E9.2174
G1 X137.955 Y115.291 E9.2475
G1 X137.535 Y115.136 E9.2775
G1 X137.092 Y115.068 E9.3076
G1 X136.645 Y115.091 E9.3377
G1 X136.212 Y115.203 E9.3677
G1 X135.810 Y115.400 E9.3978
G1 X135.456 Y115.674 E9.4279
G1 X135.165 Y116.014 E9.4580
G1 X134.948 Y116.405 E9.4880
G1 X134.934 Y116.449 E9.4911
G1 X134.934 Y114.485 E9.6230
G1 X135.420 Y114.008 E9.6688
G1 X135.860 Y113.445 E9.7168
G1 X136.230 Y112.836 E9.7647
G1 X136.526 Y112.188 E9.8125
G1 X136.744 Y111.509 E9.8604
G1 X136.880 Y110.806 E9.9086
G1 X136.934 Y110.101 E9.9561
G1 X136.904 Y109.389 E10.0039
G1 X136.790 Y108.686 E10.0518
G1 X136.595 Y108.001 E10.0996
G1 X136.321 Y107.343 E10.1475
G1 X136.035 Y106.834 E10.1867
G1 X136.234 Y106.932 E10.2016
G1 X136.667 Y107.044 E10.2317
G1 X137.114 Y107.067 E10.2618
G1 X137.557 Y106.999 E10.2918
G1 X137.976 Y106.844 E10.3219
G1 X138.356 Y106.607 E10.3520
G1 X138.681 Y106.299 E10.3820
G1 X138.936 Y105.931 E10.4121
G1 X139.113 Y105.520 E10.4422
G1 X139.203 Y105.081 E10.4723
G1 X139.202 Y104.630 E10.5026
G1 X139.113 Y104.195 E10.5324
G1 X138.936 Y103.784 E10.5625
G1 X138.681 Y103.417 E10.5925
G1 X138.356 Y103.108 E10.6226
G1 X137.976 Y102.872 E10.6527
G1 X137.557 Y102.716 E10.6828
G1 X137.114 Y102.648 E10.7128
G1 X136.667 Y102.671 E10.7429
G1 X136.234 Y102.783 E10.7730
G1 X135.832 Y102.980 E10.8030
G1 X135.478 Y103.254 E10.8331
G1 X135.187 Y103.594 E10.8632
G1 X134.969 Y103.985 E10.8932
G1 X134.835 Y104.412 E10.9233
G1 X134.790 Y104.858 E10.9534
G1 X134.835 Y105.303 E10.9835
G1 X134.888 Y105.472 E10.9954
G1 X134.526 Y105.163 E11.0274
G1 X133.933 Y104.768 E11.0752
G1 X133.298 Y104.445 E11.1231
G1 X132.630 Y104.199 E11.1709
G1 X131.937 Y104.033 E11.2188
G1 X131.230 Y103.950 E11.2666
G1 X130.515 Y103.950 E11.3147
G1 X129.803 Y104.035 E11.3628
G1 X129.118 Y104.199 E11.4102
G1 X128.449 Y104.445 E11.4580
G1 X127.815 Y104.768 E11.5059
G1 X127.222 Y105.163 E11.5537
G1 X126.680 Y105.625 E11.6016
G1 X126.195 Y106.147 E11.6494
G1 X125.776 Y106.723 E11.6973
