; G-Code generated by Simplify3D(R) Version 4.0.0
; Mar 30, 2022 at 6:20:18 PM
; Settings Summary
;   processName,Process1
;   applyToModels,Gimbal_Plate_Diam_40mm_X
;   profileName,Default (modified)
;   profileVersion,2017-03-01 08:00:00
;   baseProfile,
;   printMaterial,
;   printQuality,
;   printExtruders,
;   extruderName,Primary Extruder
;   extruderToolheadNumber,0
;   extruderDiameter,0.4
;   extruderAutoWidth,0
;   extruderWidth,0.8
;   extrusionMultiplier,1.01
;   extruderUseRetract,1
;   extruderRetractionDistance,9
;   extruderExtraRestartDistance,0
;   extruderRetractionZLift,0
;   extruderRetractionSpeed,1988
;   extruderUseCoasting,0
;   extruderCoastingDistance,0.2
;   extruderUseWipe,0
;   extruderWipeDistance,5
;   primaryExtruder,0
;   layerHeight,0.2
;   topSolidLayers,4
;   bottomSolidLayers,4
;   perimeterOutlines,1
;   printPerimetersInsideOut,1
;   startPointOption,2
;   startPointOriginX,0
;   startPointOriginY,0
;   sequentialIslands,0
;   spiralVaseMode,0
;   firstLayerHeightPercentage,90
;   firstLayerWidthPercentage,100
;   firstLayerUnderspeed,0.5
;   useRaft,0
;   raftExtruder,0
;   raftTopLayers,3
;   raftBaseLayers,2
;   raftOffset,3
;   raftSeparationDistance,0.14
;   raftTopInfill,100
;   aboveRaftSpeedMultiplier,0.3
;   useSkirt,1
;   skirtExtruder,0
;   skirtLayers,1
;   skirtOutlines,1
;   skirtOffset,0.3
;   usePrimePillar,0
;   primePillarExtruder,999
;   primePillarWidth,12
;   primePillarLocation,7
;   primePillarSpeedMultiplier,1
;   useOozeShield,0
;   oozeShieldExtruder,999
;   oozeShieldOffset,2
;   oozeShieldOutlines,1
;   oozeShieldSidewallShape,1
;   oozeShieldSidewallAngle,30
;   oozeShieldSpeedMultiplier,1
;   infillExtruder,0
;   internalInfillPattern,Rectilinear
;   externalInfillPattern,Rectilinear
;   infillPercentage,35
;   outlineOverlapPercentage,30
;   infillExtrusionWidthPercentage,100
;   minInfillLength,5
;   infillLayerInterval,1
;   internalInfillAngles,45,-45
;   overlapInternalInfillAngles,0
;   externalInfillAngles,45,-45
;   generateSupport,1
;   supportExtruder,0
;   supportInfillPercentage,30
;   supportExtraInflation,0
;   supportBaseLayers,0
;   denseSupportExtruder,0
;   denseSupportLayers,0
;   denseSupportInfillPercentage,70
;   supportLayerInterval,1
;   supportHorizontalPartOffset,0.3
;   supportUpperSeparationLayers,1
;   supportLowerSeparationLayers,1
;   supportType,0
;   supportGridSpacing,4
;   maxOverhangAngle,45
;   supportAngles,0
;   temperatureName,Primary Extruder,Bed
;   temperatureNumber,0,0
;   temperatureSetpointCount,1,1
;   temperatureSetpointLayers,1,1
;   temperatureSetpointTemperatures,205,60
;   temperatureStabilizeAtStartup,1,1
;   temperatureHeatedBed,0,1
;   temperatureRelayBetweenLayers,0,0
;   temperatureRelayBetweenLoops,0,0
;   fanLayers,1,2
;   fanSpeeds,0,100
;   blipFanToFullPower,0
;   adjustSpeedForCooling,1
;   minSpeedLayerTime,15
;   minCoolingSpeedSlowdown,20
;   increaseFanForCooling,0
;   minFanLayerTime,45
;   maxCoolingFanSpeed,100
;   increaseFanForBridging,0
;   bridgingFanSpeed,100
;   use5D,1
;   relativeEdistances,0
;   allowEaxisZeroing,1
;   independentExtruderAxes,0
;   includeM10123,0
;   stickySupport,1
;   applyToolheadOffsets,0
;   gcodeXoffset,0
;   gcodeYoffset,0
;   gcodeZoffset,0
;   overrideMachineDefinition,1
;   machineTypeOverride,0
;   strokeXoverride,220
;   strokeYoverride,220
;   strokeZoverride,220
;   originOffsetXoverride,0
;   originOffsetYoverride,0
;   originOffsetZoverride,0
;   homeXdirOverride,-1
;   homeYdirOverride,-1
;   homeZdirOverride,-1
;   flipXoverride,1
;   flipYoverride,-1
;   flipZoverride,1
;   toolheadOffsets,0,0|0,0|0,0|0,0|0,0|0,0
;   overrideFirmwareConfiguration,0
;   firmwareTypeOverride,RepRap (Marlin/Repetier/Sprinter)
;   GPXconfigOverride,r2
;   baudRateOverride,115200
;   overridePrinterModels,0
;   printerModelsOverride
;   startingGcode,G28 ; home all axes
;   layerChangeGcode,
;   retractionGcode,
;   toolChangeGcode,
;   endingGcode,M104 S0 ; turn off extruder,M140 S0 ; turn off bed,M84 ; disable motors,G28 ; home all axes
;   exportFileFormat,gcode
;   celebration,0
;   celebrationSong,Random Song
;   postProcessing,
;   defaultSpeed,2000
;   outlineUnderspeed,0.95
;   solidInfillUnderspeed,0.8
;   supportUnderspeed,0.8
;   rapidXYspeed,4800
;   rapidZspeed,1002
;   minBridgingArea,50
;   bridgingExtraInflation,0
;   bridgingExtrusionMultiplier,1
;   bridgingSpeedMultiplier,1
;   useFixedBridgingAngle,0
;   fixedBridgingAngle,0
;   applyBridgingToPerimeters,0
;   filamentDiameters,1.75|1.75|1.75|1.75|1.75|1.75
;   filamentPricesPerKg,46|46|46|46|46|46
;   filamentDensities,1.25|1.25|1.25|1.25|1.25|1.25
;   useMinPrintHeight,0
;   minPrintHeight,0
;   useMaxPrintHeight,0
;   maxPrintHeight,0
;   useDiaphragm,0
;   diaphragmLayerInterval,20
;   robustSlicing,1
;   mergeAllIntoSolid,0
;   onlyRetractWhenCrossingOutline,1
;   retractBetweenLayers,1
;   useRetractionMinTravel,0
;   retractionMinTravel,3
;   retractWhileWiping,0
;   onlyWipeOutlines,1
;   avoidCrossingOutline,0
;   maxMovementDetourFactor,3
;   toolChangeRetractionDistance,12
;   toolChangeExtraRestartDistance,-0.5
;   toolChangeRetractionSpeed,600
;   externalThinWallType,0
;   internalThinWallType,2
;   thinWallAllowedOverlapPercentage,10
;   singleExtrusionMinLength,1
;   singleExtrusionMinPrintingWidthPercentage,50
;   singleExtrusionMaxPrintingWidthPercentage,200
;   singleExtrusionEndpointExtension,0.2
;   horizontalSizeCompensation,0
G90
M82
M106 S0
M140 S60
M190 S60
M104 S205 T0
M109 S205 T0
G28 ; home all axes
G92 E0
G1 E-9.0000 F1988
G1 Z0.180 F1002
; process Process1
; layer 1, Z = 0.180
T0
; tool H0.200 W0.800
; skirt
G1 X85.735 Y86.219 F4800
G1 E0.0000 F596
G92 E0
G1 X85.743 Y86.210 E0.0008 F1000
G1 X86.210 Y85.743 E0.0451
G1 X86.219 Y85.735 E0.0460
G1 X86.242 Y85.714 E0.0481
G1 X86.252 Y85.706 E0.0489
G1 X86.773 Y85.302 E0.0932
G1 X86.783 Y85.295 E0.0941
G1 X86.809 Y85.277 E0.0962
G1 X86.820 Y85.270 E0.0970
G1 X87.387 Y84.934 E0.1413
G1 X87.398 Y84.928 E0.1422
G1 X87.426 Y84.914 E0.1443
G1 X87.438 Y84.909 E0.1451
G1 X88.043 Y84.647 E0.1894
G1 X88.054 Y84.642 E0.1903
G1 X88.084 Y84.632 E0.1924
G1 X88.096 Y84.628 E0.1932
G1 X88.729 Y84.444 E0.2375
G1 X88.741 Y84.441 E0.2384
G1 X88.772 Y84.434 E0.2405
G1 X88.784 Y84.431 E0.2413
G1 X89.435 Y84.328 E0.2856
G1 X89.448 Y84.327 E0.2865
G1 X89.479 Y84.324 E0.2886
G1 X89.492 Y84.323 E0.2894
G1 X90.151 Y84.302 E0.3337
G1 X90.163 Y84.302 E0.3346
G1 X90.195 Y84.303 E0.3367
G1 X90.207 Y84.304 E0.3375
G1 X90.864 Y84.366 E0.3818
G1 X90.876 Y84.368 E0.3827
G1 X90.907 Y84.373 E0.3848
G1 X90.920 Y84.375 E0.3856
G1 X91.563 Y84.519 E0.4299
G1 X91.575 Y84.522 E0.4308
G1 X91.605 Y84.531 E0.4329
G1 X91.617 Y84.535 E0.4337
G1 X92.238 Y84.758 E0.4780
G1 X92.249 Y84.763 E0.4789
G1 X92.278 Y84.775 E0.4810
G1 X92.290 Y84.780 E0.4818
G1 X92.877 Y85.080 E0.5261
G1 X92.888 Y85.086 E0.5270
G1 X92.915 Y85.102 E0.5291
G1 X92.926 Y85.109 E0.5299
G1 X93.473 Y85.481 E0.5744
G1 X93.485 Y85.490 E0.5754
G1 X93.514 Y85.513 E0.5779
G1 X93.526 Y85.522 E0.5789
G1 X94.983 Y86.868 E0.7122
G1 X95.993 Y87.715 E0.8007
G1 X97.046 Y88.500 E0.8890
G1 X98.144 Y89.222 E0.9772
G1 X99.282 Y89.878 E1.0655
G1 X100.455 Y90.468 E1.1538
G1 X101.662 Y90.988 E1.2420
G1 X102.896 Y91.438 E1.3303
G1 X104.155 Y91.814 E1.4186
G1 X105.433 Y92.117 E1.5068
G1 X106.727 Y92.346 E1.5951
G1 X108.032 Y92.498 E1.6833
G1 X109.343 Y92.574 E1.7716
G1 X110.657 Y92.574 E1.8599
G1 X111.968 Y92.498 E1.9481
G1 X113.273 Y92.346 E2.0364
G1 X114.567 Y92.117 E2.1246
G1 X115.845 Y91.814 E2.2129
G1 X117.104 Y91.438 E2.3012
G1 X118.338 Y90.988 E2.3894
G1 X119.545 Y90.468 E2.4777
G1 X120.718 Y89.878 E2.5659
G1 X121.842 Y89.229 E2.6531
G1 X122.954 Y88.500 E2.7425
G1 X124.007 Y87.715 E2.8307
G1 X125.017 Y86.868 E2.9192
G1 X126.474 Y85.522 E3.0525
G1 X126.485 Y85.513 E3.0535
G1 X126.515 Y85.490 E3.0560
G1 X126.527 Y85.481 E3.0570
G1 X127.074 Y85.109 E3.1015
G1 X127.085 Y85.102 E3.1024
G1 X127.112 Y85.086 E3.1045
G1 X127.123 Y85.080 E3.1053
G1 X127.710 Y84.780 E3.1496
G1 X127.722 Y84.775 E3.1505
G1 X127.751 Y84.763 E3.1526
G1 X127.762 Y84.758 E3.1534
G1 X128.383 Y84.535 E3.1977
G1 X128.395 Y84.531 E3.1986
G1 X128.425 Y84.522 E3.2007
G1 X128.437 Y84.519 E3.2015
G1 X129.080 Y84.375 E3.2458
G1 X129.093 Y84.373 E3.2467
G1 X129.124 Y84.368 E3.2488
G1 X129.136 Y84.366 E3.2496
G1 X129.793 Y84.304 E3.2939
G1 X129.805 Y84.303 E3.2948
G1 X129.837 Y84.302 E3.2969
G1 X129.849 Y84.302 E3.2977
G1 X130.508 Y84.323 E3.3420
G1 X130.521 Y84.324 E3.3429
G1 X130.552 Y84.327 E3.3450
G1 X130.565 Y84.328 E3.3458
G1 X131.216 Y84.431 E3.3901
G1 X131.228 Y84.434 E3.3910
G1 X131.259 Y84.441 E3.3931
G1 X131.271 Y84.444 E3.3939
G1 X131.904 Y84.628 E3.4382
G1 X131.916 Y84.632 E3.4391
G1 X131.946 Y84.642 E3.4412
G1 X131.957 Y84.647 E3.4420
G1 X132.562 Y84.909 E3.4863
G1 X132.574 Y84.914 E3.4872
G1 X132.602 Y84.928 E3.4893
G1 X132.613 Y84.934 E3.4901
G1 X133.180 Y85.270 E3.5344
G1 X133.191 Y85.277 E3.5352
G1 X133.217 Y85.294 E3.5374
G1 X133.227 Y85.302 E3.5382
G1 X133.748 Y85.706 E3.5825
G1 X133.758 Y85.714 E3.5833
G1 X133.781 Y85.735 E3.5855
G1 X133.790 Y85.743 E3.5863
G1 X134.257 Y86.210 E3.6306
G1 X134.265 Y86.219 E3.6314
G1 X134.286 Y86.242 E3.6335
G1 X134.294 Y86.252 E3.6344
G1 X134.698 Y86.773 E3.6787
G1 X134.706 Y86.783 E3.6795
G1 X134.723 Y86.809 E3.6817
G1 X134.730 Y86.820 E3.6825
G1 X135.066 Y87.387 E3.7268
G1 X135.072 Y87.398 E3.7276
G1 X135.086 Y87.426 E3.7297
G1 X135.091 Y87.438 E3.7306
G1 X135.353 Y88.043 E3.7749
G1 X135.358 Y88.054 E3.7757
G1 X135.368 Y88.084 E3.7778
G1 X135.372 Y88.096 E3.7787
G1 X135.556 Y88.729 E3.8230
G1 X135.559 Y88.741 E3.8238
G1 X135.566 Y88.772 E3.8259
G1 X135.568 Y88.784 E3.8268
G1 X135.672 Y89.436 E3.8711
G1 X135.673 Y89.448 E3.8719
G1 X135.676 Y89.479 E3.8741
G1 X135.677 Y89.492 E3.8749
G1 X135.698 Y90.151 E3.9192
G1 X135.698 Y90.163 E3.9200
G1 X135.697 Y90.195 E3.9221
G1 X135.696 Y90.207 E3.9230
G1 X135.634 Y90.864 E3.9673
G1 X135.632 Y90.876 E3.9681
G1 X135.627 Y90.907 E3.9702
G1 X135.625 Y90.920 E3.9711
G1 X135.481 Y91.563 E4.0154
G1 X135.478 Y91.575 E4.0162
G1 X135.469 Y91.605 E4.0183
G1 X135.465 Y91.617 E4.0192
G1 X135.242 Y92.238 E4.0635
G1 X135.237 Y92.249 E4.0643
G1 X135.225 Y92.278 E4.0664
G1 X135.220 Y92.290 E4.0673
G1 X134.920 Y92.877 E4.1116
G1 X134.914 Y92.888 E4.1124
G1 X134.898 Y92.915 E4.1145
G1 X134.891 Y92.926 E4.1154
G1 X134.519 Y93.473 E4.1599
G1 X134.510 Y93.485 E4.1609
G1 X134.487 Y93.514 E4.1634
G1 X134.478 Y93.526 E4.1644
G1 X133.132 Y94.983 E4.2977
G1 X132.285 Y95.993 E4.3862
G1 X131.500 Y97.046 E4.4744
G1 X130.778 Y98.144 E4.5627
G1 X130.121 Y99.282 E4.6510
G1 X129.532 Y100.456 E4.7392
G1 X129.012 Y101.662 E4.8275
G1 X128.562 Y102.896 E4.9157
G1 X128.186 Y104.155 E5.0040
G1 X127.883 Y105.433 E5.0923
G1 X127.654 Y106.727 E5.1805
G1 X127.502 Y108.032 E5.2688
G1 X127.426 Y109.343 E5.3570
G1 X127.426 Y110.657 E5.4453
G1 X127.502 Y111.968 E5.5336
G1 X127.654 Y113.273 E5.6218
G1 X127.883 Y114.567 E5.7101
G1 X128.186 Y115.845 E5.7983
G1 X128.562 Y117.104 E5.8866
G1 X129.012 Y118.338 E5.9749
G1 X129.532 Y119.544 E6.0631
G1 X130.121 Y120.718 E6.1514
G1 X130.778 Y121.856 E6.2397
G1 X131.500 Y122.954 E6.3279
G1 X132.285 Y124.007 E6.4162
G1 X133.132 Y125.017 E6.5047
G1 X134.478 Y126.474 E6.6380
G1 X134.487 Y126.485 E6.6390
G1 X134.510 Y126.515 E6.6415
G1 X134.519 Y126.527 E6.6425
G1 X134.891 Y127.074 E6.6870
G1 X134.898 Y127.085 E6.6878
G1 X134.914 Y127.112 E6.6899
G1 X134.920 Y127.123 E6.6908
G1 X135.220 Y127.710 E6.7351
G1 X135.225 Y127.722 E6.7359
G1 X135.237 Y127.751 E6.7380
G1 X135.242 Y127.762 E6.7389
G1 X135.465 Y128.383 E6.7832
G1 X135.469 Y128.395 E6.7840
G1 X135.478 Y128.425 E6.7861
G1 X135.481 Y128.437 E6.7870
G1 X135.625 Y129.080 E6.8313
G1 X135.627 Y129.093 E6.8321
G1 X135.632 Y129.124 E6.8342
G1 X135.634 Y129.136 E6.8351
G1 X135.696 Y129.793 E6.8794
G1 X135.697 Y129.805 E6.8802
G1 X135.698 Y129.837 E6.8823
G1 X135.698 Y129.849 E6.8832
G1 X135.677 Y130.508 E6.9275
G1 X135.676 Y130.521 E6.9283
G1 X135.673 Y130.552 E6.9304
G1 X135.672 Y130.564 E6.9313
G1 X135.568 Y131.216 E6.9756
G1 X135.566 Y131.228 E6.9764
G1 X135.559 Y131.259 E6.9785
G1 X135.556 Y131.271 E6.9794
G1 X135.372 Y131.904 E7.0237
G1 X135.368 Y131.916 E7.0245
G1 X135.358 Y131.946 E7.0266
G1 X135.353 Y131.957 E7.0275
G1 X135.091 Y132.562 E7.0718
G1 X135.086 Y132.574 E7.0726
G1 X135.072 Y132.602 E7.0747
G1 X135.066 Y132.613 E7.0756
G1 X134.730 Y133.180 E7.1199
G1 X134.723 Y133.191 E7.1207
G1 X134.706 Y133.217 E7.1228
G1 X134.698 Y133.227 E7.1237
G1 X134.294 Y133.748 E7.1680
G1 X134.286 Y133.758 E7.1688
G1 X134.265 Y133.781 E7.1709
G1 X134.257 Y133.790 E7.1718
G1 X133.790 Y134.257 E7.2161
G1 X133.781 Y134.265 E7.2169
G1 X133.758 Y134.286 E7.2190
G1 X133.748 Y134.294 E7.2199
G1 X133.227 Y134.698 E7.2641
G1 X133.217 Y134.706 E7.2650
G1 X133.191 Y134.723 E7.2671
G1 X133.180 Y134.730 E7.2680
G1 X132.613 Y135.066 E7.3122
G1 X132.602 Y135.072 E7.3131
G1 X132.574 Y135.086 E7.3152
G1 X132.562 Y135.091 E7.3160
G1 X131.957 Y135.353 E7.3603
G1 X131.946 Y135.358 E7.3612
G1 X131.916 Y135.368 E7.3633
G1 X131.904 Y135.372 E7.3641
G1 X131.271 Y135.556 E7.4084
G1 X131.259 Y135.559 E7.4093
G1 X131.228 Y135.566 E7.4114
G1 X131.216 Y135.568 E7.4122
G1 X130.564 Y135.672 E7.4565
G1 X130.552 Y135.673 E7.4574
G1 X130.521 Y135.676 E7.4595
G1 X130.508 Y135.677 E7.4603
G1 X129.849 Y135.698 E7.5046
G1 X129.837 Y135.698 E7.5055
G1 X129.805 Y135.697 E7.5076
G1 X129.793 Y135.696 E7.5084
G1 X129.136 Y135.634 E7.5527
G1 X129.124 Y135.632 E7.5536
G1 X129.093 Y135.627 E7.5557
G1 X129.080 Y135.625 E7.5565
G1 X128.437 Y135.481 E7.6008
G1 X128.425 Y135.478 E7.6017
G1 X128.395 Y135.469 E7.6038
G1 X128.383 Y135.465 E7.6046
G1 X127.762 Y135.242 E7.6489
G1 X127.751 Y135.237 E7.6498
G1 X127.722 Y135.225 E7.6519
G1 X127.710 Y135.220 E7.6527
G1 X127.123 Y134.920 E7.6970
G1 X127.112 Y134.914 E7.6979
G1 X127.085 Y134.898 E7.7000
G1 X127.074 Y134.891 E7.7008
G1 X126.527 Y134.519 E7.7453
G1 X126.515 Y134.510 E7.7463
G1 X126.485 Y134.487 E7.7488
G1 X126.474 Y134.478 E7.7498
G1 X125.017 Y133.132 E7.8831
G1 X124.007 Y132.285 E7.9716
G1 X122.954 Y131.500 E8.0599
G1 X121.856 Y130.778 E8.1482
G1 X120.725 Y130.126 E8.2359
G1 X119.544 Y129.532 E8.3247
G1 X118.338 Y129.012 E8.4129
G1 X117.104 Y128.562 E8.5012
G1 X115.845 Y128.186 E8.5895
G1 X114.567 Y127.883 E8.6777
G1 X113.273 Y127.654 E8.7660
G1 X111.968 Y127.502 E8.8543
G1 X110.657 Y127.426 E8.9425
G1 X109.343 Y127.426 E9.0308
G1 X108.032 Y127.502 E9.1190
G1 X106.727 Y127.654 E9.2073
G1 X105.433 Y127.883 E9.2955
G1 X104.155 Y128.186 E9.3838
G1 X102.896 Y128.562 E9.4721
G1 X101.662 Y129.012 E9.5603
G1 X100.456 Y129.532 E9.6486
G1 X99.282 Y130.121 E9.7368
G1 X98.144 Y130.778 E9.8251
G1 X97.046 Y131.500 E9.9134
G1 X95.993 Y132.285 E10.0016
G1 X94.983 Y133.132 E10.0902
G1 X93.526 Y134.478 E10.2234
G1 X93.514 Y134.487 E10.2244
G1 X93.485 Y134.510 E10.2269
G1 X93.473 Y134.519 E10.2279
G1 X92.926 Y134.891 E10.2724
G1 X92.915 Y134.898 E10.2733
G1 X92.888 Y134.914 E10.2754
G1 X92.877 Y134.920 E10.2762
G1 X92.290 Y135.220 E10.3205
G1 X92.278 Y135.225 E10.3214
G1 X92.249 Y135.237 E10.3235
G1 X92.238 Y135.242 E10.3243
G1 X91.617 Y135.465 E10.3686
G1 X91.605 Y135.469 E10.3695
G1 X91.575 Y135.478 E10.3716
G1 X91.563 Y135.481 E10.3724
G1 X90.920 Y135.625 E10.4167
G1 X90.907 Y135.627 E10.4176
G1 X90.876 Y135.632 E10.4197
G1 X90.864 Y135.634 E10.4205
G1 X90.207 Y135.696 E10.4648
G1 X90.195 Y135.697 E10.4657
G1 X90.163 Y135.698 E10.4678
