; G-Code generated by Simplify3D(R) Version 4.0.0
; Mar 30, 2022 at 6:19:49 PM
; Settings Summary
;   processName,Process1
;   applyToModels,Gimbal_Frame_V1.5
;   profileName,Default (modified)
;   profileVersion,2017-03-01 08:00:00
;   baseProfile,
;   printMaterial,
;   printQuality,
;   printExtruders,
;   extruderName,Primary Extruder
;   extruderToolheadNumber,0
;   extruderDiameter,0.4
;   extruderAutoWidth,0
;   extruderWidth,0.8
;   extrusionMultiplier,1.01
;   extruderUseRetract,1
;   extruderRetractionDistance,9
;   extruderExtraRestartDistance,0
;   extruderRetractionZLift,0
;   extruderRetractionSpeed,1988
;   extruderUseCoasting,0
;   extruderCoastingDistance,0.2
;   extruderUseWipe,0
;   extruderWipeDistance,5
;   primaryExtruder,0
;   layerHeight,0.2
;   topSolidLayers,4
;   bottomSolidLayers,4
;   perimeterOutlines,1
;   printPerimetersInsideOut,1
;   startPointOption,2
;   startPointOriginX,0
;   startPointOriginY,0
;   sequentialIslands,0
;   spiralVaseMode,0
;   firstLayerHeightPercentage,90
;   firstLayerWidthPercentage,100
;   firstLayerUnderspeed,0.5
;   useRaft,0
;   raftExtruder,0
;   raftTopLayers,3
;   raftBaseLayers,2
;   raftOffset,3
;   raftSeparationDistance,0.14
;   raftTopInfill,100
;   aboveRaftSpeedMultiplier,0.3
;   useSkirt,1
;   skirtExtruder,0
;   skirtLayers,1
;   skirtOutlines,1
;   skirtOffset,0.3
;   usePrimePillar,0
;   primePillarExtruder,999
;   primePillarWidth,12
;   primePillarLocation,7
;   primePillarSpeedMultiplier,1
;   useOozeShield,0
;   oozeShieldExtruder,999
;   oozeShieldOffset,2
;   oozeShieldOutlines,1
;   oozeShieldSidewallShape,1
;   oozeShieldSidewallAngle,30
;   oozeShieldSpeedMultiplier,1
;   infillExtruder,0
;   internalInfillPattern,Rectilinear
;   externalInfillPattern,Rectilinear
;   infillPercentage,35
;   outlineOverlapPercentage,30
;   infillExtrusionWidthPercentage,100
;   minInfillLength,5
;   infillLayerInterval,1
;   internalInfillAngles,45,-45
;   overlapInternalInfillAngles,0
;   externalInfillAngles,45,-45
;   generateSupport,1
;   supportExtruder,0
;   supportInfillPercentage,30
;   supportExtraInflation,0
;   supportBaseLayers,0
;   denseSupportExtruder,0
;   denseSupportLayers,0
;   denseSupportInfillPercentage,70
;   supportLayerInterval,1
;   supportHorizontalPartOffset,0.3
;   supportUpperSeparationLayers,1
;   supportLowerSeparationLayers,1
;   supportType,0
;   supportGridSpacing,4
;   maxOverhangAngle,45
;   supportAngles,0
;   temperatureName,Primary Extruder,Bed
;   temperatureNumber,0,0
;   temperatureSetpointCount,1,1
;   temperatureSetpointLayers,1,1
;   temperatureSetpointTemperatures,205,60
;   temperatureStabilizeAtStartup,1,1
;   temperatureHeatedBed,0,1
;   temperatureRelayBetweenLayers,0,0
;   temperatureRelayBetweenLoops,0,0
;   fanLayers,1,2
;   fanSpeeds,0,100
;   blipFanToFullPower,0
;   adjustSpeedForCooling,1
;   minSpeedLayerTime,15
;   minCoolingSpeedSlowdown,20
;   increaseFanForCooling,0
;   minFanLayerTime,45
;   maxCoolingFanSpeed,100
;   increaseFanForBridging,0
;   bridgingFanSpeed,100
;   use5D,1
;   relativeEdistances,0
;   allowEaxisZeroing,1
;   independentExtruderAxes,0
;   includeM10123,0
;   stickySupport,1
;   applyToolheadOffsets,0
;   gcodeXoffset,0
;   gcodeYoffset,0
;   gcodeZoffset,0
;   overrideMachineDefinition,1
;   machineTypeOverride,0
;   strokeXoverride,220
;   strokeYoverride,220
;   strokeZoverride,220
;   originOffsetXoverride,0
;   originOffsetYoverride,0
;   originOffsetZoverride,0
;   homeXdirOverride,-1
;   homeYdirOverride,-1
;   homeZdirOverride,-1
;   flipXoverride,1
;   flipYoverride,-1
;   flipZoverride,1
;   toolheadOffsets,0,0|0,0|0,0|0,0|0,0|0,0
;   overrideFirmwareConfiguration,0
;   firmwareTypeOverride,RepRap (Marlin/Repetier/Sprinter)
;   GPXconfigOverride,r2
;   baudRateOverride,115200
;   overridePrinterModels,0
;   printerModelsOverride
;   startingGcode,G28 ; home all axes
;   layerChangeGcode,
;   retractionGcode,
;   toolChangeGcode,
;   endingGcode,M104 S0 ; turn off extruder,M140 S0 ; turn off bed,M84 ; disable motors,G28 ; home all axes
;   exportFileFormat,gcode
;   celebration,0
;   celebrationSong,Random Song
;   postProcessing,
;   defaultSpeed,2000
;   outlineUnderspeed,0.95
;   solidInfillUnderspeed,0.8
;   supportUnderspeed,0.8
;   rapidXYspeed,4800
;   rapidZspeed,1002
;   minBridgingArea,50
;   bridgingExtraInflation,0
;   bridgingExtrusionMultiplier,1
;   bridgingSpeedMultiplier,1
;   useFixedBridgingAngle,0
;   fixedBridgingAngle,0
;   applyBridgingToPerimeters,0
;   filamentDiameters,1.75|1.75|1.75|1.75|1.75|1.75
;   filamentPricesPerKg,46|46|46|46|46|46
;   filamentDensities,1.25|1.25|1.25|1.25|1.25|1.25
;   useMinPrintHeight,0
;   minPrintHeight,0
;   useMaxPrintHeight,0
;   maxPrintHeight,0
;   useDiaphragm,0
;   diaphragmLayerInterval,20
;   robustSlicing,1
;   mergeAllIntoSolid,0
;   onlyRetractWhenCrossingOutline,1
;   retractBetweenLayers,1
;   useRetractionMinTravel,0
;   retractionMinTravel,3
;   retractWhileWiping,0
;   onlyWipeOutlines,1
;   avoidCrossingOutline,0
;   maxMovementDetourFactor,3
;   toolChangeRetractionDistance,12
;   toolChangeExtraRestartDistance,-0.5
;   toolChangeRetractionSpeed,600
;   externalThinWallType,0
;   internalThinWallType,2
;   thinWallAllowedOverlapPercentage,10
;   singleExtrusionMinLength,1
;   singleExtrusionMinPrintingWidthPercentage,50
;   singleExtrusionMaxPrintingWidthPercentage,200
;   singleExtrusionEndpointExtension,0.2
;   horizontalSizeCompensation,0
G90
M82
M106 S0
M140 S60
M190 S60
M104 S205 T0
M109 S205 T0
G28 ; home all axes
G92 E0
G1 E-9.0000 F1988
G1 Z0.180 F1002
; process Process1
; layer 1, Z = 0.180
T0
; tool H0.200 W0.800
; skirt
G1 X93.629 Y101.336 F4800
G1 E0.0000 F596
G92 E0
G1 X93.639 Y101.327 E0.0009 F1000
G1 X93.643 Y101.323 E0.0012
G1 X99.869 Y95.717 E0.5641
G1 X99.872 Y95.714 E0.5644
G1 X99.881 Y95.707 E0.5652
G1 X99.884 Y95.704 E0.5655
G1 X100.532 Y95.172 E0.6218
G1 X100.540 Y95.166 E0.6224
G1 X100.558 Y95.153 E0.6240
G1 X100.565 Y95.147 E0.6246
G1 X101.266 Y94.672 E0.6815
G1 X101.274 Y94.667 E0.6821
G1 X101.293 Y94.655 E0.6836
G1 X101.301 Y94.650 E0.6842
G1 X102.043 Y94.241 E0.7412
G1 X102.051 Y94.237 E0.7418
G1 X102.072 Y94.227 E0.7433
G1 X102.080 Y94.223 E0.7439
G1 X102.856 Y93.883 E0.8009
G1 X102.865 Y93.879 E0.8015
G1 X102.886 Y93.871 E0.8030
G1 X102.895 Y93.868 E0.8036
G1 X103.699 Y93.601 E0.8606
G1 X103.707 Y93.598 E0.8612
G1 X103.730 Y93.592 E0.8627
G1 X103.738 Y93.590 E0.8633
G1 X104.564 Y93.397 E0.9203
G1 X104.573 Y93.395 E0.9209
G1 X104.595 Y93.391 E0.9224
G1 X104.604 Y93.389 E0.9230
G1 X105.443 Y93.273 E0.9800
G1 X105.453 Y93.272 E0.9806
G1 X105.475 Y93.270 E0.9821
G1 X105.484 Y93.269 E0.9827
G1 X106.325 Y93.230 E1.0393
G1 X106.330 Y93.230 E1.0396
G1 X106.341 Y93.230 E1.0404
G1 X106.346 Y93.230 E1.0407
G1 X113.632 Y93.230 E1.5302
G1 X113.636 Y93.230 E1.5305
G1 X113.647 Y93.230 E1.5312
G1 X113.652 Y93.230 E1.5315
G1 X114.508 Y93.268 E1.5891
G1 X114.518 Y93.269 E1.5898
G1 X114.541 Y93.271 E1.5913
G1 X114.550 Y93.272 E1.5919
G1 X115.389 Y93.388 E1.6489
G1 X115.398 Y93.390 E1.6495
G1 X115.421 Y93.394 E1.6510
G1 X115.430 Y93.396 E1.6516
G1 X116.255 Y93.588 E1.7085
G1 X116.264 Y93.590 E1.7092
G1 X116.286 Y93.596 E1.7107
G1 X116.295 Y93.599 E1.7113
G1 X117.099 Y93.866 E1.7682
G1 X117.107 Y93.869 E1.7689
G1 X117.129 Y93.877 E1.7704
G1 X117.137 Y93.880 E1.7710
G1 X117.914 Y94.220 E1.8279
G1 X117.922 Y94.224 E1.8286
G1 X117.943 Y94.234 E1.8301
G1 X117.951 Y94.238 E1.8307
G1 X118.693 Y94.647 E1.8876
G1 X118.701 Y94.651 E1.8883
G1 X118.720 Y94.663 E1.8898
G1 X118.728 Y94.668 E1.8904
G1 X119.430 Y95.143 E1.9473
G1 X119.437 Y95.149 E1.9479
G1 X119.455 Y95.162 E1.9495
G1 X119.463 Y95.168 E1.9501
G1 X120.113 Y95.702 E2.0066
G1 X120.117 Y95.705 E2.0070
G1 X120.126 Y95.712 E2.0077
G1 X120.129 Y95.715 E2.0080
G1 X126.357 Y101.323 E2.5711
G1 X126.361 Y101.326 E2.5714
G1 X126.371 Y101.335 E2.5723
G1 X126.374 Y101.339 E2.5727
G1 X126.904 Y101.869 E2.6230
G1 X126.911 Y101.877 E2.6237
G1 X126.929 Y101.896 E2.6255
G1 X126.936 Y101.904 E2.6262
G1 X127.413 Y102.493 E2.6772
G1 X127.420 Y102.502 E2.6779
G1 X127.435 Y102.523 E2.6796
G1 X127.441 Y102.532 E2.6803
G1 X127.855 Y103.168 E2.7313
G1 X127.860 Y103.177 E2.7320
G1 X127.873 Y103.200 E2.7338
G1 X127.878 Y103.209 E2.7345
G1 X128.223 Y103.885 E2.7855
G1 X128.228 Y103.894 E2.7862
G1 X128.238 Y103.918 E2.7879
G1 X128.242 Y103.928 E2.7886
G1 X128.516 Y104.639 E2.8398
G1 X128.519 Y104.649 E2.8405
G1 X128.527 Y104.674 E2.8423
G1 X128.530 Y104.684 E2.8430
G1 X128.727 Y105.417 E2.8940
G1 X128.729 Y105.427 E2.8947
G1 X128.734 Y105.453 E2.8964
G1 X128.736 Y105.463 E2.8971
G1 X128.855 Y106.213 E2.9481
G1 X128.857 Y106.223 E2.9489
G1 X128.859 Y106.249 E2.9506
G1 X128.860 Y106.259 E2.9513
G1 X128.899 Y107.011 E3.0018
G1 X128.900 Y107.016 E3.0022
G1 X128.900 Y107.029 E3.0031
G1 X128.900 Y107.034 E3.0034
G1 X128.900 Y108.931 E3.1309
G1 X128.900 Y108.939 E3.1314
G1 X128.899 Y108.958 E3.1327
G1 X128.899 Y108.966 E3.1332
G1 X128.860 Y109.470 E3.1672
G1 X128.858 Y109.486 E3.1683
G1 X128.852 Y109.525 E3.1709
G1 X128.849 Y109.540 E3.1720
G1 X128.730 Y110.036 E3.2062
G1 X128.726 Y110.051 E3.2073
G1 X128.714 Y110.089 E3.2099
G1 X128.708 Y110.103 E3.2110
G1 X128.513 Y110.575 E3.2452
G1 X128.507 Y110.589 E3.2463
G1 X128.489 Y110.624 E3.2489
G1 X128.481 Y110.638 E3.2500
G1 X128.215 Y111.073 E3.2843
G1 X128.206 Y111.086 E3.2853
G1 X128.183 Y111.118 E3.2880
G1 X128.173 Y111.131 E3.2890
G1 X127.842 Y111.519 E3.3233
G1 X127.832 Y111.530 E3.3244
G1 X127.804 Y111.558 E3.3270
G1 X127.792 Y111.569 E3.3281
G1 X127.405 Y111.900 E3.3623
G1 X127.392 Y111.910 E3.3634
G1 X127.361 Y111.933 E3.3660
G1 X127.348 Y111.942 E3.3671
G1 X126.913 Y112.209 E3.4014
G1 X126.899 Y112.216 E3.4024
G1 X126.864 Y112.234 E3.4050
G1 X126.850 Y112.241 E3.4061
G1 X126.379 Y112.436 E3.4404
G1 X126.364 Y112.442 E3.4414
G1 X126.327 Y112.454 E3.4441
G1 X126.312 Y112.458 E3.4451
G1 X125.816 Y112.577 E3.4794
G1 X125.800 Y112.581 E3.4804
G1 X125.762 Y112.587 E3.4831
G1 X125.746 Y112.589 E3.4841
G1 X125.247 Y112.628 E3.5178
G1 X125.239 Y112.629 E3.5183
G1 X125.220 Y112.629 E3.5196
G1 X125.212 Y112.630 E3.5201
G1 X123.016 Y112.630 E3.6677
G1 X122.234 Y112.666 E3.7202
G1 X121.475 Y112.772 E3.7717
G1 X120.729 Y112.947 E3.8232
G1 X120.002 Y113.191 E3.8748
G1 X119.301 Y113.500 E3.9263
G1 X118.631 Y113.873 E3.9778
G1 X117.999 Y114.307 E4.0293
G1 X117.409 Y114.796 E4.0808
G1 X116.867 Y115.339 E4.1323
G1 X116.377 Y115.928 E4.1838
G1 X115.944 Y116.561 E4.2353
G1 X115.571 Y117.230 E4.2868
G1 X115.261 Y117.932 E4.3383
G1 X115.018 Y118.659 E4.3898
G1 X114.842 Y119.405 E4.4413
G1 X114.736 Y120.164 E4.4928
G1 X114.701 Y120.934 E4.5446
G1 X114.700 Y122.088 E4.6221
G1 X114.700 Y122.095 E4.6226
G1 X114.699 Y122.112 E4.6237
G1 X114.699 Y122.119 E4.6242
G1 X114.660 Y122.689 E4.6626
G1 X114.659 Y122.703 E4.6635
G1 X114.654 Y122.737 E4.6658
G1 X114.652 Y122.750 E4.6667
G1 X114.534 Y123.318 E4.7057
G1 X114.530 Y123.331 E4.7066
G1 X114.521 Y123.364 E4.7089
G1 X114.517 Y123.377 E4.7098
G1 X114.323 Y123.924 E4.7488
G1 X114.318 Y123.937 E4.7497
G1 X114.304 Y123.968 E4.7520
G1 X114.298 Y123.980 E4.7529
G1 X114.031 Y124.495 E4.7919
G1 X114.025 Y124.507 E4.7928
G1 X114.007 Y124.536 E4.7951
G1 X113.999 Y124.548 E4.7960
G1 X113.665 Y125.022 E4.8350
G1 X113.657 Y125.032 E4.8359
G1 X113.635 Y125.059 E4.8382
G1 X113.626 Y125.069 E4.8391
G1 X113.230 Y125.493 E4.8781
G1 X113.220 Y125.503 E4.8790
G1 X113.195 Y125.526 E4.8813
G1 X113.185 Y125.535 E4.8822
G1 X112.735 Y125.901 E4.9212
G1 X112.724 Y125.910 E4.9221
G1 X112.696 Y125.929 E4.9244
G1 X112.685 Y125.937 E4.9253
G1 X112.189 Y126.238 E4.9643
G1 X112.177 Y126.245 E4.9652
G1 X112.147 Y126.261 E4.9675
G1 X112.135 Y126.266 E4.9685
G1 X111.603 Y126.498 E5.0074
G1 X111.590 Y126.503 E5.0083
G1 X111.558 Y126.514 E5.0106
G1 X111.545 Y126.518 E5.0116
G1 X110.986 Y126.675 E5.0505
G1 X110.973 Y126.678 E5.0515
G1 X110.940 Y126.685 E5.0537
G1 X110.926 Y126.687 E5.0547
G1 X110.351 Y126.766 E5.0936
G1 X110.338 Y126.768 E5.0946
G1 X110.304 Y126.770 E5.0968
G1 X110.290 Y126.770 E5.0978
G1 X109.710 Y126.770 E5.1367
G1 X109.696 Y126.770 E5.1377
G1 X109.662 Y126.768 E5.1400
G1 X109.649 Y126.766 E5.1409
G1 X109.074 Y126.687 E5.1798
G1 X109.060 Y126.685 E5.1808
G1 X109.027 Y126.678 E5.1831
G1 X109.014 Y126.675 E5.1840
G1 X108.455 Y126.518 E5.2229
G1 X108.442 Y126.514 E5.2239
G1 X108.410 Y126.503 E5.2262
G1 X108.397 Y126.498 E5.2271
G1 X107.865 Y126.266 E5.2661
G1 X107.853 Y126.261 E5.2670
G1 X107.823 Y126.245 E5.2693
G1 X107.811 Y126.238 E5.2702
G1 X107.315 Y125.937 E5.3092
G1 X107.304 Y125.929 E5.3101
G1 X107.276 Y125.910 E5.3124
G1 X107.265 Y125.901 E5.3133
G1 X106.815 Y125.535 E5.3523
G1 X106.804 Y125.526 E5.3532
G1 X106.779 Y125.503 E5.3555
G1 X106.770 Y125.493 E5.3564
G1 X106.374 Y125.069 E5.3954
G1 X106.365 Y125.059 E5.3963
G1 X106.343 Y125.033 E5.3986
G1 X106.335 Y125.022 E5.3995
G1 X106.001 Y124.548 E5.4385
G1 X105.993 Y124.536 E5.4394
G1 X105.975 Y124.507 E5.4417
G1 X105.969 Y124.495 E5.4426
G1 X105.702 Y123.980 E5.4816
G1 X105.696 Y123.968 E5.4825
G1 X105.682 Y123.937 E5.4848
G1 X105.677 Y123.924 E5.4857
G1 X105.483 Y123.377 E5.5247
G1 X105.479 Y123.364 E5.5256
G1 X105.470 Y123.331 E5.5279
G1 X105.466 Y123.318 E5.5288
G1 X105.348 Y122.750 E5.5678
G1 X105.346 Y122.737 E5.5687
G1 X105.341 Y122.703 E5.5710
G1 X105.340 Y122.689 E5.5719
G1 X105.302 Y122.126 E5.6098
G1 X105.301 Y122.120 E5.6103
G1 X105.301 Y122.103 E5.6114
G1 X105.301 Y122.096 E5.6119
G1 X105.300 Y120.962 E5.6881
G1 X105.264 Y120.164 E5.7417
G1 X105.158 Y119.405 E5.7932
G1 X104.982 Y118.659 E5.8447
G1 X104.739 Y117.932 E5.8962
G1 X104.429 Y117.230 E5.9477
G1 X104.056 Y116.561 E5.9992
G1 X103.623 Y115.928 E6.0507
G1 X103.133 Y115.338 E6.1022
G1 X102.591 Y114.796 E6.1537
G1 X102.001 Y114.307 E6.2052
G1 X101.369 Y113.873 E6.2567
G1 X100.699 Y113.500 E6.3082
G1 X99.998 Y113.191 E6.3598
G1 X99.271 Y112.947 E6.4113
G1 X98.525 Y112.772 E6.4628
G1 X97.766 Y112.666 E6.5143
G1 X96.995 Y112.630 E6.5661
G1 X94.797 Y112.630 E6.7138
G1 X94.789 Y112.630 E6.7143
G1 X94.770 Y112.629 E6.7156
G1 X94.762 Y112.628 E6.7161
G1 X94.259 Y112.589 E6.7500
G1 X94.243 Y112.587 E6.7511
G1 X94.204 Y112.581 E6.7538
G1 X94.189 Y112.578 E6.7548
G1 X93.693 Y112.459 E6.7891
G1 X93.678 Y112.455 E6.7901
G1 X93.640 Y112.443 E6.7928
G1 X93.625 Y112.438 E6.7938
G1 X93.154 Y112.243 E6.8281
G1 X93.140 Y112.236 E6.8292
G1 X93.105 Y112.218 E6.8318
G1 X93.091 Y112.211 E6.8328
G1 X92.656 Y111.944 E6.8671
G1 X92.643 Y111.936 E6.8682
G1 X92.611 Y111.913 E6.8708
G1 X92.599 Y111.903 E6.8719
G1 X92.211 Y111.572 E6.9061
G1 X92.199 Y111.561 E6.9072
G1 X92.172 Y111.534 E6.9098
G1 X92.161 Y111.522 E6.9109
G1 X91.829 Y111.134 E6.9451
G1 X91.820 Y111.122 E6.9462
G1 X91.796 Y111.090 E6.9488
G1 X91.788 Y111.077 E6.9499
G1 X91.520 Y110.641 E6.9843
G1 X91.512 Y110.627 E6.9854
G1 X91.494 Y110.592 E6.9880
G1 X91.488 Y110.578 E6.9891
G1 X91.293 Y110.106 E7.0233
G1 X91.287 Y110.092 E7.0244
G1 X91.275 Y110.054 E7.0270
G1 X91.271 Y110.039 E7.0281
G1 X91.152 Y109.543 E7.0623
G1 X91.149 Y109.528 E7.0634
G1 X91.142 Y109.489 E7.0660
G1 X91.141 Y109.473 E7.0671
G1 X91.101 Y108.975 E7.1007
G1 X91.101 Y108.967 E7.1012
G1 X91.100 Y108.947 E7.1026
G1 X91.100 Y108.939 E7.1031
G1 X91.100 Y107.036 E7.2309
G1 X91.100 Y107.031 E7.2313
G1 X91.100 Y107.018 E7.2322
G1 X91.101 Y107.013 E7.2325
G1 X91.140 Y106.264 E7.2829
G1 X91.141 Y106.253 E7.2836
G1 X91.143 Y106.227 E7.2854
G1 X91.145 Y106.217 E7.2861
G1 X91.263 Y105.467 E7.3371
