; G-Code generated by Simplify3D(R) Version 4.0.0
; Mar 30, 2022 at 6:20:59 PM
; Settings Summary
;   processName,Process1
;   applyToModels,LED_Clip_V2
;   profileName,Default (modified)
;   profileVersion,2017-03-01 08:00:00
;   baseProfile,
;   printMaterial,
;   printQuality,
;   printExtruders,
;   extruderName,Primary Extruder
;   extruderToolheadNumber,0
;   extruderDiameter,0.4
;   extruderAutoWidth,0
;   extruderWidth,0.8
;   extrusionMultiplier,1.01
;   extruderUseRetract,1
;   extruderRetractionDistance,9
;   extruderExtraRestartDistance,0
;   extruderRetractionZLift,0
;   extruderRetractionSpeed,1988
;   extruderUseCoasting,0
;   extruderCoastingDistance,0.2
;   extruderUseWipe,0
;   extruderWipeDistance,5
;   primaryExtruder,0
;   layerHeight,0.2
;   topSolidLayers,4
;   bottomSolidLayers,4
;   perimeterOutlines,1
;   printPerimetersInsideOut,1
;   startPointOption,2
;   startPointOriginX,0
;   startPointOriginY,0
;   sequentialIslands,0
;   spiralVaseMode,0
;   firstLayerHeightPercentage,90
;   firstLayerWidthPercentage,100
;   firstLayerUnderspeed,0.5
;   useRaft,0
;   raftExtruder,0
;   raftTopLayers,3
;   raftBaseLayers,2
;   raftOffset,3
;   raftSeparationDistance,0.14
;   raftTopInfill,100
;   aboveRaftSpeedMultiplier,0.3
;   useSkirt,1
;   skirtExtruder,0
;   skirtLayers,1
;   skirtOutlines,1
;   skirtOffset,0.3
;   usePrimePillar,0
;   primePillarExtruder,999
;   primePillarWidth,12
;   primePillarLocation,7
;   primePillarSpeedMultiplier,1
;   useOozeShield,0
;   oozeShieldExtruder,999
;   oozeShieldOffset,2
;   oozeShieldOutlines,1
;   oozeShieldSidewallShape,1
;   oozeShieldSidewallAngle,30
;   oozeShieldSpeedMultiplier,1
;   infillExtruder,0
;   internalInfillPattern,Rectilinear
;   externalInfillPattern,Rectilinear
;   infillPercentage,35
;   outlineOverlapPercentage,30
;   infillExtrusionWidthPercentage,100
;   minInfillLength,5
;   infillLayerInterval,1
;   internalInfillAngles,45,-45
;   overlapInternalInfillAngles,0
;   externalInfillAngles,45,-45
;   generateSupport,1
;   supportExtruder,0
;   supportInfillPercentage,30
;   supportExtraInflation,0
;   supportBaseLayers,0
;   denseSupportExtruder,0
;   denseSupportLayers,0
;   denseSupportInfillPercentage,70
;   supportLayerInterval,1
;   supportHorizontalPartOffset,0.3
;   supportUpperSeparationLayers,1
;   supportLowerSeparationLayers,1
;   supportType,0
;   supportGridSpacing,4
;   maxOverhangAngle,45
;   supportAngles,0
;   temperatureName,Primary Extruder,Bed
;   temperatureNumber,0,0
;   temperatureSetpointCount,1,1
;   temperatureSetpointLayers,1,1
;   temperatureSetpointTemperatures,205,60
;   temperatureStabilizeAtStartup,1,1
;   temperatureHeatedBed,0,1
;   temperatureRelayBetweenLayers,0,0
;   temperatureRelayBetweenLoops,0,0
;   fanLayers,1,2
;   fanSpeeds,0,100
;   blipFanToFullPower,0
;   adjustSpeedForCooling,1
;   minSpeedLayerTime,15
;   minCoolingSpeedSlowdown,20
;   increaseFanForCooling,0
;   minFanLayerTime,45
;   maxCoolingFanSpeed,100
;   increaseFanForBridging,0
;   bridgingFanSpeed,100
;   use5D,1
;   relativeEdistances,0
;   allowEaxisZeroing,1
;   independentExtruderAxes,0
;   includeM10123,0
;   stickySupport,1
;   applyToolheadOffsets,0
;   gcodeXoffset,0
;   gcodeYoffset,0
;   gcodeZoffset,0
;   overrideMachineDefinition,1
;   machineTypeOverride,0
;   strokeXoverride,220
;   strokeYoverride,220
;   strokeZoverride,220
;   originOffsetXoverride,0
;   originOffsetYoverride,0
;   originOffsetZoverride,0
;   homeXdirOverride,-1
;   homeYdirOverride,-1
;   homeZdirOverride,-1
;   flipXoverride,1
;   flipYoverride,-1
;   flipZoverride,1
;   toolheadOffsets,0,0|0,0|0,0|0,0|0,0|0,0
;   overrideFirmwareConfiguration,0
;   firmwareTypeOverride,RepRap (Marlin/Repetier/Sprinter)
;   GPXconfigOverride,r2
;   baudRateOverride,115200
;   overridePrinterModels,0
;   printerModelsOverride
;   startingGcode,G28 ; home all axes
;   layerChangeGcode,
;   retractionGcode,
;   toolChangeGcode,
;   endingGcode,M104 S0 ; turn off extruder,M140 S0 ; turn off bed,M84 ; disable motors,G28 ; home all axes
;   exportFileFormat,gcode
;   celebration,0
;   celebrationSong,Random Song
;   postProcessing,
;   defaultSpeed,2000
;   outlineUnderspeed,0.95
;   solidInfillUnderspeed,0.8
;   supportUnderspeed,0.8
;   rapidXYspeed,4800
;   rapidZspeed,1002
;   minBridgingArea,50
;   bridgingExtraInflation,0
;   bridgingExtrusionMultiplier,1
;   bridgingSpeedMultiplier,1
;   useFixedBridgingAngle,0
;   fixedBridgingAngle,0
;   applyBridgingToPerimeters,0
;   filamentDiameters,1.75|1.75|1.75|1.75|1.75|1.75
;   filamentPricesPerKg,46|46|46|46|46|46
;   filamentDensities,1.25|1.25|1.25|1.25|1.25|1.25
;   useMinPrintHeight,0
;   minPrintHeight,0
;   useMaxPrintHeight,0
;   maxPrintHeight,0
;   useDiaphragm,0
;   diaphragmLayerInterval,20
;   robustSlicing,1
;   mergeAllIntoSolid,0
;   onlyRetractWhenCrossingOutline,1
;   retractBetweenLayers,1
;   useRetractionMinTravel,0
;   retractionMinTravel,3
;   retractWhileWiping,0
;   onlyWipeOutlines,1
;   avoidCrossingOutline,0
;   maxMovementDetourFactor,3
;   toolChangeRetractionDistance,12
;   toolChangeExtraRestartDistance,-0.5
;   toolChangeRetractionSpeed,600
;   externalThinWallType,0
;   internalThinWallType,2
;   thinWallAllowedOverlapPercentage,10
;   singleExtrusionMinLength,1
;   singleExtrusionMinPrintingWidthPercentage,50
;   singleExtrusionMaxPrintingWidthPercentage,200
;   singleExtrusionEndpointExtension,0.2
;   horizontalSizeCompensation,0
G90
M82
M106 S0
M140 S60
M190 S60
M104 S205 T0
M109 S205 T0
G28 ; home all axes
G92 E0
G1 E-9.0000 F1988
G1 Z0.180 F1002
; process Process1
; layer 1, Z = 0.180
T0
; tool H0.200 W0.800
; skirt
G1 X92.175 Y91.779 F4800
G1 E0.0000 F596
G92 E0
G1 X92.287 Y91.704 E0.0090 F1000
G1 X92.673 Y91.606 E0.0358
G1 X92.688 Y91.602 E0.0368
G1 X92.725 Y91.596 E0.0394
G1 X92.741 Y91.594 E0.0404
G1 X93.162 Y91.552 E0.0689
G1 X93.171 Y91.551 E0.0695
G1 X93.196 Y91.550 E0.0712
G1 X93.206 Y91.550 E0.0718
G1 X119.115 Y91.550 E1.8125
G1 X119.121 Y91.550 E1.8129
G1 X119.135 Y91.551 E1.8139
G1 X119.141 Y91.551 E1.8143
G1 X119.782 Y91.589 E1.8574
G1 X119.793 Y91.590 E1.8582
G1 X119.823 Y91.593 E1.8602
G1 X119.834 Y91.595 E1.8610
G1 X120.473 Y91.709 E1.9046
G1 X120.484 Y91.711 E1.9054
G1 X120.513 Y91.718 E1.9073
G1 X120.525 Y91.721 E1.9081
G1 X121.144 Y91.909 E1.9517
G1 X121.156 Y91.913 E1.9525
G1 X121.184 Y91.924 E1.9545
G1 X121.194 Y91.928 E1.9552
G1 X121.787 Y92.188 E1.9987
G1 X121.798 Y92.193 E1.9995
G1 X121.824 Y92.206 E2.0015
G1 X121.834 Y92.212 E2.0023
G1 X122.390 Y92.540 E2.0456
G1 X122.401 Y92.546 E2.0465
G1 X122.425 Y92.563 E2.0485
G1 X122.435 Y92.570 E2.0493
G1 X122.946 Y92.959 E2.0924
G1 X122.954 Y92.966 E2.0932
G1 X122.975 Y92.984 E2.0950
G1 X122.983 Y92.991 E2.0957
G1 X123.359 Y93.349 E2.1306
G1 X123.367 Y93.357 E2.1313
G1 X123.384 Y93.376 E2.1331
G1 X123.391 Y93.383 E2.1338
G1 X123.806 Y93.870 E2.1767
G1 X123.842 Y93.931 E2.1815
G1 X123.903 Y94.098 E2.1935
G1 X123.916 Y94.168 E2.1982
G1 X123.897 Y105.080 E2.9313
G1 X128.424 Y105.080 E3.2354
G1 X128.571 Y105.141 E3.2461
G1 X128.859 Y105.429 E3.2735
G1 X128.920 Y105.576 E3.2842
G1 X128.920 Y114.424 E3.8786
G1 X128.859 Y114.571 E3.8893
G1 X128.571 Y114.859 E3.9167
G1 X128.424 Y114.920 E3.9274
G1 X123.900 Y114.920 E4.2313
G1 X123.914 Y125.834 E4.9646
G1 X123.902 Y125.905 E4.9694
G1 X123.839 Y126.073 E4.9815
G1 X123.803 Y126.135 E4.9863
G1 X123.343 Y126.667 E5.0335
G1 X123.336 Y126.674 E5.0342
G1 X123.318 Y126.693 E5.0360
G1 X123.311 Y126.701 E5.0367
G1 X122.978 Y127.013 E5.0674
G1 X122.970 Y127.020 E5.0681
G1 X122.950 Y127.037 E5.0698
G1 X122.942 Y127.043 E5.0705
G1 X122.432 Y127.432 E5.1136
G1 X122.423 Y127.439 E5.1144
G1 X122.398 Y127.456 E5.1164
G1 X122.388 Y127.462 E5.1172
G1 X121.832 Y127.789 E5.1606
G1 X121.821 Y127.795 E5.1614
G1 X121.795 Y127.808 E5.1634
G1 X121.784 Y127.814 E5.1642
G1 X121.191 Y128.073 E5.2076
G1 X121.180 Y128.077 E5.2084
G1 X121.153 Y128.088 E5.2104
G1 X121.141 Y128.091 E5.2112
G1 X120.521 Y128.279 E5.2547
G1 X120.510 Y128.282 E5.2555
G1 X120.481 Y128.289 E5.2575
G1 X120.470 Y128.292 E5.2583
G1 X119.831 Y128.405 E5.3019
G1 X119.820 Y128.407 E5.3027
G1 X119.790 Y128.411 E5.3046
G1 X119.779 Y128.412 E5.3054
G1 X119.141 Y128.449 E5.3483
G1 X119.135 Y128.449 E5.3487
G1 X119.121 Y128.450 E5.3497
G1 X119.115 Y128.450 E5.3501
G1 X93.206 Y128.450 E7.0908
G1 X93.196 Y128.450 E7.0915
G1 X93.171 Y128.449 E7.0931
G1 X93.162 Y128.448 E7.0938
G1 X92.740 Y128.406 E7.1222
G1 X92.725 Y128.404 E7.1233
G1 X92.687 Y128.398 E7.1258
G1 X92.673 Y128.394 E7.1268
G1 X92.287 Y128.296 E7.1536
G1 X92.175 Y128.221 E7.1626
G1 X91.966 Y127.949 E7.1857
G1 X91.924 Y127.821 E7.1947
G1 X91.961 Y125.288 E7.3649
G1 X92.023 Y125.143 E7.3755
G1 X92.310 Y124.860 E7.4026
G1 X92.456 Y124.800 E7.4132
G1 X114.633 Y124.800 E8.9032
G1 X115.034 Y124.769 E8.9302
G1 X115.399 Y124.684 E8.9554
G1 X115.745 Y124.544 E8.9805
G1 X116.064 Y124.354 E9.0054
G1 X116.347 Y124.118 E9.0301
G1 X116.588 Y123.844 E9.0547
G1 X116.781 Y123.537 E9.0791
G1 X116.922 Y123.205 E9.1033
G1 X117.007 Y122.857 E9.1273
G1 X117.039 Y122.459 E9.1542
G1 X117.039 Y97.527 E10.8293
G1 X117.007 Y97.142 E10.8552
G1 X116.921 Y96.794 E10.8793
G1 X116.780 Y96.462 E10.9035
G1 X116.587 Y96.155 E10.9279
G1 X116.346 Y95.881 E10.9524
G1 X116.063 Y95.645 E10.9772
G1 X115.744 Y95.455 E11.0021
G1 X115.398 Y95.316 E11.0272
G1 X115.033 Y95.231 E11.0524
G1 X114.633 Y95.200 E11.0793
G1 X92.456 Y95.200 E12.5693
G1 X92.310 Y95.140 E12.5798
G1 X92.023 Y94.857 E12.6070
G1 X91.961 Y94.712 E12.6176
G1 X91.924 Y92.179 E12.7878
G1 X91.966 Y92.051 E12.7968
G1 X92.175 Y91.779 E12.8198
G92 E0
G1 E-9.0000 F1988
; outer perimeter
G1 X93.035 Y92.670 F4800
G1 E0.0000 F1988
G92 E0
G1 X93.238 Y92.650 E0.0137 F950
G1 X119.095 Y92.650 E1.7509
G1 X119.679 Y92.684 E1.7902
G1 X120.242 Y92.785 E1.8286
G1 X120.788 Y92.951 E1.8670
G1 X121.310 Y93.180 E1.9052
G1 X121.799 Y93.468 E1.9434
G1 X122.250 Y93.812 E1.9815
G1 X122.576 Y94.123 E2.0118
G1 X122.815 Y94.403 E2.0365
G1 X122.792 Y108.505 E2.9840
G1 X122.812 Y115.239 E3.4364
G1 X122.814 Y125.596 E4.1323
G1 X122.533 Y125.922 E4.1612
G1 X122.249 Y126.189 E4.1874
G1 X121.796 Y126.534 E4.2256
G1 X121.307 Y126.821 E4.2637
G1 X120.786 Y127.050 E4.3020
G1 X120.239 Y127.216 E4.3403
G1 X119.676 Y127.316 E4.3788
G1 X119.095 Y127.350 E4.4179
G1 X93.238 Y127.350 E6.1551
G1 X93.035 Y127.330 E6.1688
G1 X93.058 Y126.456 E6.2275
G1 X93.058 Y125.900 E6.2649
G1 X114.675 Y125.900 E7.7173
G1 X115.203 Y125.860 E7.7528
G1 X115.732 Y125.736 E7.7893
G1 X116.236 Y125.532 E7.8258
G1 X116.701 Y125.254 E7.8623
G1 X117.117 Y124.909 E7.8986
G1 X117.472 Y124.503 E7.9348
G1 X117.759 Y124.048 E7.9709
G1 X117.969 Y123.554 E8.0070
G1 X118.097 Y123.033 E8.0430
G1 X118.139 Y122.502 E8.0789
G1 X118.139 Y97.482 E9.7598
G1 X118.096 Y96.964 E9.7947
G1 X117.968 Y96.444 E9.8307
G1 X117.758 Y95.950 E9.8668
G1 X117.471 Y95.495 E9.9029
G1 X117.115 Y95.090 E9.9391
G1 X116.700 Y94.744 E9.9755
G1 X116.234 Y94.467 E10.0119
G1 X115.730 Y94.264 E10.0484
G1 X115.201 Y94.140 E10.0849
G1 X114.675 Y94.100 E10.1203
G1 X93.058 Y94.100 E11.5727
G1 X93.058 Y93.544 E11.6100
G1 X93.035 Y92.670 E11.6688
; solid layer
G1 X94.341 Y93.210 F4800
G92 E0
G1 X94.671 Y93.540 E0.0314 F800
G1 X95.803 Y93.540 E0.1074
G1 X95.473 Y93.210 E0.1387
G1 X96.604 Y93.210 E0.2147
G1 X96.934 Y93.540 E0.2461
G1 X98.065 Y93.540 E0.3221
G1 X97.735 Y93.210 E0.3535
G1 X98.867 Y93.210 E0.4295
G1 X99.197 Y93.540 E0.4608
G1 X100.328 Y93.540 E0.5368
G1 X99.998 Y93.210 E0.5682
G1 X101.130 Y93.210 E0.6442
G1 X101.460 Y93.540 E0.6756
G1 X102.591 Y93.540 E0.7516
G1 X102.261 Y93.210 E0.7829
G1 X103.392 Y93.210 E0.8589
G1 X103.722 Y93.540 E0.8903
G1 X104.854 Y93.540 E0.9663
G1 X104.524 Y93.210 E0.9977
G1 X105.655 Y93.210 E1.0737
G1 X105.985 Y93.540 E1.1050
G1 X107.116 Y93.540 E1.1810
G1 X106.786 Y93.210 E1.2124
G1 X107.918 Y93.210 E1.2884
G1 X108.248 Y93.540 E1.3198
G1 X109.379 Y93.540 E1.3958
G1 X109.049 Y93.210 E1.4271
G1 X110.181 Y93.210 E1.5031
G1 X110.511 Y93.540 E1.5345
G1 X111.642 Y93.540 E1.6105
G1 X111.312 Y93.210 E1.6419
G1 X112.443 Y93.210 E1.7179
G1 X112.773 Y93.540 E1.7492
G1 X113.905 Y93.540 E1.8252
G1 X113.575 Y93.210 E1.8566
G1 X114.706 Y93.210 E1.9326
G1 X115.064 Y93.568 E1.9666
G1 X115.286 Y93.585 E1.9816
G1 X115.899 Y93.728 E2.0239
G1 X116.484 Y93.964 E2.0662
G1 X116.750 Y94.122 E2.0870
G1 X115.837 Y93.210 E2.1737
G1 X116.969 Y93.210 E2.2497
G1 X122.249 Y98.490 E2.7514
G1 X122.250 Y97.360 E2.8272
G1 X118.100 Y93.210 E3.2216
G1 X119.079 Y93.210 E3.2873
G1 X119.241 Y93.220 E3.2983
G1 X122.252 Y96.231 E3.5844
G1 X122.254 Y95.101 E3.6603
G1 X120.658 Y93.505 E3.8119
G1 X118.150 Y95.523 F4800
G92 E0
G1 X122.247 Y99.619 E0.3892 F800
G1 X122.245 Y100.749 E0.4651
G1 X118.676 Y97.180 E0.8042
G1 X118.699 Y97.459 E0.8230
G1 X118.699 Y98.334 E0.8818
G1 X122.243 Y101.878 E1.2186
G1 X122.241 Y103.008 E1.2944
G1 X118.699 Y99.465 E1.6310
G1 X118.699 Y100.597 E1.7070
G1 X122.239 Y104.137 E2.0434
G1 X122.237 Y105.267 E2.1193
G1 X118.699 Y101.728 E2.4555
G1 X118.699 Y102.859 E2.5315
G1 X122.235 Y106.396 E2.8676
G1 X122.233 Y107.526 E2.9434
G1 X118.699 Y103.991 E3.2793
G1 X118.699 Y105.122 E3.3553
G1 X122.232 Y108.656 E3.6910
G1 X122.236 Y109.790 E3.7673
G1 X118.699 Y106.254 E4.1033
G1 X118.699 Y107.385 E4.1793
G1 X122.239 Y110.925 E4.5157
G1 X122.242 Y112.060 E4.5919
G1 X118.699 Y108.516 E4.9286
G1 X118.699 Y109.648 E5.0046
G1 X122.246 Y113.195 E5.3416
G1 X122.249 Y114.329 E5.4179
G1 X118.699 Y110.779 E5.7552
G1 X118.699 Y111.910 E5.8312
G1 X122.252 Y115.463 E6.1688
G1 X122.252 Y116.595 E6.2448
G1 X118.699 Y113.042 E6.5824
G1 X118.699 Y114.173 E6.6584
G1 X122.252 Y117.727 E6.9961
G1 X122.252 Y118.858 E7.0721
G1 X118.699 Y115.305 E7.4098
G1 X118.699 Y116.436 E7.4858
G1 X122.253 Y119.990 E7.8235
G1 X122.253 Y121.122 E7.8995
G1 X118.699 Y117.567 E8.2372
G1 X118.699 Y118.699 E8.3132
G1 X122.253 Y122.253 E8.6510
G1 X122.254 Y123.385 E8.7270
G1 X118.699 Y119.830 E9.0648
G1 X118.699 Y120.961 E9.1408
G1 X122.254 Y124.517 E9.4786
G1 X122.254 Y125.388 E9.5371
G1 X122.134 Y125.528 E9.5495
G1 X118.699 Y122.093 E9.8759
G1 X118.699 Y122.523 E9.9048
G1 X118.652 Y123.123 E9.9452
G1 X118.641 Y123.166 E9.9482
G1 X121.517 Y126.042 E10.2215
G1 X121.483 Y126.068 E10.2243
G1 X121.052 Y126.322 E10.2579
G1 X120.783 Y126.440 E10.2777
G1 X118.374 Y124.031 E10.5065
G1 X118.257 Y124.308 E10.5267
G1 X117.972 Y124.760 E10.5626
G1 X119.916 Y126.704 E10.7473
G1 X119.610 Y126.759 E10.7682
G1 X119.079 Y126.790 E10.8040
G1 X118.870 Y126.790 E10.8180
G1 X117.445 Y125.364 E10.9534
G1 X117.026 Y125.713 E10.9900
G1 X116.798 Y125.849 E11.0079
G1 X117.739 Y126.790 E11.0973
G1 X116.608 Y126.790 E11.1733
G1 X116.035 Y126.217 E11.2277
G1 X115.902 Y126.271 E11.2373
G1 X115.288 Y126.415 E11.2797
G1 X115.114 Y126.428 E11.2914
G1 X115.476 Y126.790 E11.3258
G1 X114.345 Y126.790 E11.4018
G1 X114.015 Y126.460 E11.4332
G1 X112.884 Y126.460 E11.5092
G1 X113.214 Y126.790 E11.5405
G1 X112.082 Y126.790 E11.6165
G1 X111.752 Y126.460 E11.6479
G1 X110.621 Y126.460 E11.7239
G1 X110.951 Y126.790 E11.7553
G1 X109.819 Y126.790 E11.8313
G1 X109.489 Y126.460 E11.8626
G1 X108.358 Y126.460 E11.9386
G1 X108.688 Y126.790 E11.9700
G1 X107.557 Y126.790 E12.0460
G1 X107.227 Y126.460 E12.0774
G1 X106.095 Y126.460 E12.1534
G1 X106.425 Y126.790 E12.1847
G1 X105.294 Y126.790 E12.2607
G1 X104.964 Y126.460 E12.2921
G1 X103.833 Y126.460 E12.3681
G1 X104.163 Y126.790 E12.3995
G1 X103.031 Y126.790 E12.4755
G1 X102.701 Y126.460 E12.5068
G1 X101.570 Y126.460 E12.5828
