; G-Code generated by Simplify3D(R) Version 4.0.0
; Mar 30, 2022 at 6:21:58 PM
; Settings Summary
;   processName,Process1
;   applyToModels,Servo_Cap_M8
;   profileName,Default (modified)
;   profileVersion,2017-03-01 08:00:00
;   baseProfile,
;   printMaterial,
;   printQuality,
;   printExtruders,
;   extruderName,Primary Extruder
;   extruderToolheadNumber,0
;   extruderDiameter,0.4
;   extruderAutoWidth,0
;   extruderWidth,0.8
;   extrusionMultiplier,1.01
;   extruderUseRetract,1
;   extruderRetractionDistance,9
;   extruderExtraRestartDistance,0
;   extruderRetractionZLift,0
;   extruderRetractionSpeed,1988
;   extruderUseCoasting,0
;   extruderCoastingDistance,0.2
;   extruderUseWipe,0
;   extruderWipeDistance,5
;   primaryExtruder,0
;   layerHeight,0.2
;   topSolidLayers,4
;   bottomSolidLayers,4
;   perimeterOutlines,1
;   printPerimetersInsideOut,1
;   startPointOption,2
;   startPointOriginX,0
;   startPointOriginY,0
;   sequentialIslands,0
;   spiralVaseMode,0
;   firstLayerHeightPercentage,90
;   firstLayerWidthPercentage,100
;   firstLayerUnderspeed,0.5
;   useRaft,0
;   raftExtruder,0
;   raftTopLayers,3
;   raftBaseLayers,2
;   raftOffset,3
;   raftSeparationDistance,0.14
;   raftTopInfill,100
;   aboveRaftSpeedMultiplier,0.3
;   useSkirt,1
;   skirtExtruder,0
;   skirtLayers,1
;   skirtOutlines,1
;   skirtOffset,0.3
;   usePrimePillar,0
;   primePillarExtruder,999
;   primePillarWidth,12
;   primePillarLocation,7
;   primePillarSpeedMultiplier,1
;   useOozeShield,0
;   oozeShieldExtruder,999
;   oozeShieldOffset,2
;   oozeShieldOutlines,1
;   oozeShieldSidewallShape,1
;   oozeShieldSidewallAngle,30
;   oozeShieldSpeedMultiplier,1
;   infillExtruder,0
;   internalInfillPattern,Rectilinear
;   externalInfillPattern,Rectilinear
;   infillPercentage,35
;   outlineOverlapPercentage,30
;   infillExtrusionWidthPercentage,100
;   minInfillLength,5
;   infillLayerInterval,1
;   internalInfillAngles,45,-45
;   overlapInternalInfillAngles,0
;   externalInfillAngles,45,-45
;   generateSupport,1
;   supportExtruder,0
;   supportInfillPercentage,30
;   supportExtraInflation,0
;   supportBaseLayers,0
;   denseSupportExtruder,0
;   denseSupportLayers,0
;   denseSupportInfillPercentage,70
;   supportLayerInterval,1
;   supportHorizontalPartOffset,0.3
;   supportUpperSeparationLayers,1
;   supportLowerSeparationLayers,1
;   supportType,0
;   supportGridSpacing,4
;   maxOverhangAngle,45
;   supportAngles,0
;   temperatureName,Primary Extruder,Bed
;   temperatureNumber,0,0
;   temperatureSetpointCount,1,1
;   temperatureSetpointLayers,1,1
;   temperatureSetpointTemperatures,205,60
;   temperatureStabilizeAtStartup,1,1
;   temperatureHeatedBed,0,1
;   temperatureRelayBetweenLayers,0,0
;   temperatureRelayBetweenLoops,0,0
;   fanLayers,1,2
;   fanSpeeds,0,100
;   blipFanToFullPower,0
;   adjustSpeedForCooling,1
;   minSpeedLayerTime,15
;   minCoolingSpeedSlowdown,20
;   increaseFanForCooling,0
;   minFanLayerTime,45
;   maxCoolingFanSpeed,100
;   increaseFanForBridging,0
;   bridgingFanSpeed,100
;   use5D,1
;   relativeEdistances,0
;   allowEaxisZeroing,1
;   independentExtruderAxes,0
;   includeM10123,0
;   stickySupport,1
;   applyToolheadOffsets,0
;   gcodeXoffset,0
;   gcodeYoffset,0
;   gcodeZoffset,0
;   overrideMachineDefinition,1
;   machineTypeOverride,0
;   strokeXoverride,220
;   strokeYoverride,220
;   strokeZoverride,220
;   originOffsetXoverride,0
;   originOffsetYoverride,0
;   originOffsetZoverride,0
;   homeXdirOverride,-1
;   homeYdirOverride,-1
;   homeZdirOverride,-1
;   flipXoverride,1
;   flipYoverride,-1
;   flipZoverride,1
;   toolheadOffsets,0,0|0,0|0,0|0,0|0,0|0,0
;   overrideFirmwareConfiguration,0
;   firmwareTypeOverride,RepRap (Marlin/Repetier/Sprinter)
;   GPXconfigOverride,r2
;   baudRateOverride,115200
;   overridePrinterModels,0
;   printerModelsOverride
;   startingGcode,G28 ; home all axes
;   layerChangeGcode,
;   retractionGcode,
;   toolChangeGcode,
;   endingGcode,M104 S0 ; turn off extruder,M140 S0 ; turn off bed,M84 ; disable motors,G28 ; home all axes
;   exportFileFormat,gcode
;   celebration,0
;   celebrationSong,Random Song
;   postProcessing,
;   defaultSpeed,2000
;   outlineUnderspeed,0.95
;   solidInfillUnderspeed,0.8
;   supportUnderspeed,0.8
;   rapidXYspeed,4800
;   rapidZspeed,1002
;   minBridgingArea,50
;   bridgingExtraInflation,0
;   bridgingExtrusionMultiplier,1
;   bridgingSpeedMultiplier,1
;   useFixedBridgingAngle,0
;   fixedBridgingAngle,0
;   applyBridgingToPerimeters,0
;   filamentDiameters,1.75|1.75|1.75|1.75|1.75|1.75
;   filamentPricesPerKg,46|46|46|46|46|46
;   filamentDensities,1.25|1.25|1.25|1.25|1.25|1.25
;   useMinPrintHeight,0
;   minPrintHeight,0
;   useMaxPrintHeight,0
;   maxPrintHeight,0
;   useDiaphragm,0
;   diaphragmLayerInterval,20
;   robustSlicing,1
;   mergeAllIntoSolid,0
;   onlyRetractWhenCrossingOutline,1
;   retractBetweenLayers,1
;   useRetractionMinTravel,0
;   retractionMinTravel,3
;   retractWhileWiping,0
;   onlyWipeOutlines,1
;   avoidCrossingOutline,0
;   maxMovementDetourFactor,3
;   toolChangeRetractionDistance,12
;   toolChangeExtraRestartDistance,-0.5
;   toolChangeRetractionSpeed,600
;   externalThinWallType,0
;   internalThinWallType,2
;   thinWallAllowedOverlapPercentage,10
;   singleExtrusionMinLength,1
;   singleExtrusionMinPrintingWidthPercentage,50
;   singleExtrusionMaxPrintingWidthPercentage,200
;   singleExtrusionEndpointExtension,0.2
;   horizontalSizeCompensation,0
G90
M82
M106 S0
M140 S60
M190 S60
M104 S205 T0
M109 S205 T0
G28 ; home all axes
G92 E0
G1 E-9.0000 F1988
G1 Z0.180 F1002
; process Process1
; layer 1, Z = 0.180
T0
; tool H0.200 W0.800
; skirt
G1 X102.073 Y102.088 F4800
G1 E0.0000 F596
G92 E0
G1 X102.088 Y102.073 E0.0015 F1000
G1 X102.094 Y102.067 E0.0021
G1 X102.786 Y101.433 E0.0651
G1 X102.793 Y101.427 E0.0657
G1 X102.809 Y101.413 E0.0671
G1 X102.816 Y101.408 E0.0677
G1 X103.560 Y100.837 E0.1307
G1 X103.567 Y100.832 E0.1313
G1 X103.585 Y100.819 E0.1328
G1 X103.592 Y100.814 E0.1333
G1 X104.383 Y100.311 E0.1964
G1 X104.391 Y100.306 E0.1969
G1 X104.409 Y100.295 E0.1984
G1 X104.417 Y100.291 E0.1990
G1 X105.249 Y99.858 E0.2620
G1 X105.257 Y99.854 E0.2626
G1 X105.277 Y99.845 E0.2641
G1 X105.285 Y99.841 E0.2646
G1 X106.151 Y99.482 E0.3276
G1 X106.159 Y99.479 E0.3282
G1 X106.180 Y99.472 E0.3297
G1 X106.188 Y99.469 E0.3303
G1 X107.082 Y99.187 E0.3933
G1 X107.091 Y99.184 E0.3939
G1 X107.112 Y99.179 E0.3953
G1 X107.120 Y99.177 E0.3959
G1 X108.036 Y98.974 E0.4589
G1 X108.044 Y98.972 E0.4595
G1 X108.066 Y98.968 E0.4610
G1 X108.075 Y98.967 E0.4616
G1 X109.004 Y98.845 E0.5246
G1 X109.013 Y98.844 E0.5252
G1 X109.035 Y98.842 E0.5266
G1 X109.043 Y98.841 E0.5272
G1 X109.980 Y98.800 E0.5902
G1 X109.989 Y98.800 E0.5908
G1 X110.011 Y98.800 E0.5923
G1 X110.020 Y98.800 E0.5929
G1 X110.957 Y98.841 E0.6559
G1 X110.965 Y98.842 E0.6565
G1 X110.987 Y98.844 E0.6579
G1 X110.996 Y98.845 E0.6585
G1 X111.925 Y98.967 E0.7215
G1 X111.934 Y98.968 E0.7221
G1 X111.956 Y98.972 E0.7236
G1 X111.964 Y98.974 E0.7242
G1 X112.880 Y99.177 E0.7872
G1 X112.888 Y99.179 E0.7878
G1 X112.909 Y99.184 E0.7892
G1 X112.918 Y99.187 E0.7898
G1 X113.812 Y99.469 E0.8528
G1 X113.820 Y99.472 E0.8534
G1 X113.841 Y99.479 E0.8549
G1 X113.849 Y99.482 E0.8555
G1 X114.715 Y99.841 E0.9185
G1 X114.723 Y99.845 E0.9190
G1 X114.743 Y99.854 E0.9205
G1 X114.751 Y99.858 E0.9211
G1 X115.583 Y100.291 E0.9841
G1 X115.591 Y100.295 E0.9847
G1 X115.609 Y100.306 E0.9862
G1 X115.617 Y100.311 E0.9868
G1 X116.408 Y100.814 E1.0498
G1 X116.415 Y100.819 E1.0503
G1 X116.433 Y100.832 E1.0518
G1 X116.440 Y100.837 E1.0524
G1 X117.184 Y101.408 E1.1154
G1 X117.191 Y101.413 E1.1160
G1 X117.207 Y101.427 E1.1175
G1 X117.214 Y101.433 E1.1180
G1 X117.906 Y102.067 E1.1811
G1 X117.912 Y102.073 E1.1816
G1 X117.927 Y102.088 E1.1831
G1 X117.933 Y102.094 E1.1837
G1 X118.567 Y102.786 E1.2467
G1 X118.573 Y102.793 E1.2473
G1 X118.587 Y102.809 E1.2488
G1 X118.592 Y102.816 E1.2493
G1 X119.163 Y103.560 E1.3124
G1 X119.168 Y103.567 E1.3129
G1 X119.181 Y103.585 E1.3144
G1 X119.186 Y103.592 E1.3150
G1 X119.689 Y104.383 E1.3780
G1 X119.694 Y104.391 E1.3786
G1 X119.705 Y104.409 E1.3800
G1 X119.709 Y104.417 E1.3806
G1 X120.142 Y105.249 E1.4436
G1 X120.146 Y105.257 E1.4442
G1 X120.155 Y105.277 E1.4457
G1 X120.159 Y105.285 E1.4463
G1 X120.518 Y106.151 E1.5093
G1 X120.521 Y106.159 E1.5099
G1 X120.528 Y106.180 E1.5113
G1 X120.531 Y106.188 E1.5119
G1 X120.813 Y107.082 E1.5749
G1 X120.816 Y107.091 E1.5755
G1 X120.821 Y107.112 E1.5770
G1 X120.823 Y107.120 E1.5776
G1 X121.026 Y108.036 E1.6406
G1 X121.028 Y108.044 E1.6412
G1 X121.032 Y108.066 E1.6426
G1 X121.033 Y108.075 E1.6432
G1 X121.155 Y109.004 E1.7062
G1 X121.156 Y109.013 E1.7068
G1 X121.158 Y109.034 E1.7083
G1 X121.159 Y109.043 E1.7088
G1 X121.200 Y109.964 E1.7707
G1 X121.200 Y109.972 E1.7713
G1 X121.200 Y109.994 E1.7728
G1 X121.200 Y110.002 E1.7734
G1 X121.161 Y110.928 E1.8356
G1 X121.160 Y110.936 E1.8362
G1 X121.159 Y110.958 E1.8376
G1 X121.158 Y110.966 E1.8382
G1 X121.039 Y111.888 E1.9007
G1 X121.037 Y111.897 E1.9012
G1 X121.034 Y111.918 E1.9027
G1 X121.032 Y111.927 E1.9033
G1 X120.824 Y112.878 E1.9687
G1 X120.821 Y112.887 E1.9693
G1 X120.816 Y112.909 E1.9708
G1 X120.813 Y112.917 E1.9714
G1 X120.531 Y113.812 E2.0345
G1 X120.528 Y113.820 E2.0350
G1 X120.521 Y113.841 E2.0365
G1 X120.518 Y113.849 E2.0371
G1 X120.159 Y114.715 E2.1001
G1 X120.155 Y114.723 E2.1007
G1 X120.146 Y114.743 E2.1022
G1 X120.142 Y114.751 E2.1027
G1 X119.709 Y115.583 E2.1658
G1 X119.705 Y115.591 E2.1663
G1 X119.694 Y115.609 E2.1678
G1 X119.689 Y115.617 E2.1684
G1 X119.186 Y116.408 E2.2314
G1 X119.181 Y116.415 E2.2320
G1 X119.168 Y116.433 E2.2334
G1 X119.163 Y116.440 E2.2340
G1 X118.592 Y117.184 E2.2970
G1 X118.587 Y117.191 E2.2976
G1 X118.573 Y117.207 E2.2991
G1 X118.567 Y117.214 E2.2997
G1 X117.933 Y117.906 E2.3627
G1 X117.927 Y117.912 E2.3633
G1 X117.912 Y117.927 E2.3647
G1 X117.906 Y117.933 E2.3653
G1 X117.214 Y118.567 E2.4283
G1 X117.207 Y118.573 E2.4289
G1 X117.191 Y118.587 E2.4304
G1 X117.184 Y118.592 E2.4310
G1 X116.440 Y119.163 E2.4940
G1 X116.433 Y119.168 E2.4946
G1 X116.415 Y119.181 E2.4960
G1 X116.408 Y119.186 E2.4966
G1 X115.617 Y119.689 E2.5596
G1 X115.609 Y119.694 E2.5602
G1 X115.591 Y119.705 E2.5617
G1 X115.583 Y119.709 E2.5623
G1 X114.751 Y120.142 E2.6253
G1 X114.743 Y120.146 E2.6259
G1 X114.723 Y120.155 E2.6273
G1 X114.715 Y120.159 E2.6279
G1 X113.849 Y120.518 E2.6909
G1 X113.841 Y120.521 E2.6915
G1 X113.820 Y120.528 E2.6930
G1 X113.812 Y120.531 E2.6936
G1 X112.918 Y120.813 E2.7566
G1 X112.909 Y120.816 E2.7572
G1 X112.888 Y120.821 E2.7586
G1 X112.880 Y120.823 E2.7592
G1 X111.964 Y121.026 E2.8222
G1 X111.956 Y121.028 E2.8228
G1 X111.934 Y121.032 E2.8243
G1 X111.925 Y121.033 E2.8249
G1 X110.996 Y121.155 E2.8879
G1 X110.987 Y121.156 E2.8885
G1 X110.965 Y121.158 E2.8899
G1 X110.957 Y121.159 E2.8905
G1 X110.020 Y121.200 E2.9535
G1 X110.011 Y121.200 E2.9541
G1 X109.989 Y121.200 E2.9556
G1 X109.980 Y121.200 E2.9562
G1 X109.043 Y121.159 E3.0192
G1 X109.035 Y121.158 E3.0197
G1 X109.013 Y121.156 E3.0212
G1 X109.004 Y121.155 E3.0218
G1 X108.075 Y121.033 E3.0848
G1 X108.066 Y121.032 E3.0854
G1 X108.044 Y121.028 E3.0869
G1 X108.036 Y121.026 E3.0874
G1 X107.120 Y120.823 E3.1505
G1 X107.112 Y120.821 E3.1510
G1 X107.091 Y120.816 E3.1525
G1 X107.082 Y120.813 E3.1531
G1 X106.188 Y120.531 E3.2161
G1 X106.180 Y120.528 E3.2167
G1 X106.159 Y120.521 E3.2182
G1 X106.151 Y120.518 E3.2187
G1 X105.285 Y120.159 E3.2817
G1 X105.277 Y120.155 E3.2823
G1 X105.257 Y120.146 E3.2838
G1 X105.249 Y120.142 E3.2844
G1 X104.417 Y119.709 E3.3474
G1 X104.409 Y119.705 E3.3480
G1 X104.391 Y119.694 E3.3495
G1 X104.383 Y119.689 E3.3500
G1 X103.592 Y119.186 E3.4130
G1 X103.585 Y119.181 E3.4136
G1 X103.567 Y119.168 E3.4151
G1 X103.560 Y119.163 E3.4157
G1 X102.816 Y118.592 E3.4787
G1 X102.809 Y118.587 E3.4793
G1 X102.793 Y118.573 E3.4807
G1 X102.786 Y118.567 E3.4813
G1 X102.094 Y117.933 E3.5443
G1 X102.088 Y117.927 E3.5449
G1 X102.073 Y117.912 E3.5464
G1 X102.067 Y117.906 E3.5470
G1 X101.433 Y117.214 E3.6100
G1 X101.427 Y117.207 E3.6106
G1 X101.413 Y117.191 E3.6120
G1 X101.408 Y117.184 E3.6126
G1 X100.837 Y116.440 E3.6756
G1 X100.832 Y116.433 E3.6762
G1 X100.819 Y116.415 E3.6777
G1 X100.814 Y116.408 E3.6783
G1 X100.311 Y115.617 E3.7413
G1 X100.306 Y115.609 E3.7419
G1 X100.295 Y115.591 E3.7433
G1 X100.291 Y115.583 E3.7439
G1 X99.858 Y114.751 E3.8069
G1 X99.854 Y114.743 E3.8075
G1 X99.845 Y114.723 E3.8090
G1 X99.841 Y114.715 E3.8096
G1 X99.482 Y113.849 E3.8726
G1 X99.479 Y113.841 E3.8732
G1 X99.472 Y113.820 E3.8746
G1 X99.469 Y113.812 E3.8752
G1 X99.187 Y112.918 E3.9382
G1 X99.184 Y112.909 E3.9388
G1 X99.179 Y112.888 E3.9403
G1 X99.177 Y112.880 E3.9409
G1 X98.974 Y111.964 E4.0039
G1 X98.972 Y111.956 E4.0045
G1 X98.968 Y111.934 E4.0059
G1 X98.967 Y111.925 E4.0065
G1 X98.845 Y110.996 E4.0695
G1 X98.844 Y110.987 E4.0701
G1 X98.842 Y110.965 E4.0716
G1 X98.841 Y110.957 E4.0722
G1 X98.800 Y110.020 E4.1352
G1 X98.800 Y110.011 E4.1357
G1 X98.800 Y109.989 E4.1372
G1 X98.800 Y109.980 E4.1378
G1 X98.841 Y109.043 E4.2008
G1 X98.842 Y109.035 E4.2014
G1 X98.844 Y109.013 E4.2029
G1 X98.845 Y109.004 E4.2034
G1 X98.967 Y108.075 E4.2664
G1 X98.968 Y108.066 E4.2670
G1 X98.972 Y108.044 E4.2685
G1 X98.974 Y108.036 E4.2691
G1 X99.177 Y107.120 E4.3321
G1 X99.179 Y107.112 E4.3327
G1 X99.184 Y107.091 E4.3342
G1 X99.187 Y107.082 E4.3347
G1 X99.469 Y106.188 E4.3977
G1 X99.472 Y106.180 E4.3983
G1 X99.479 Y106.159 E4.3998
G1 X99.482 Y106.151 E4.4004
G1 X99.841 Y105.285 E4.4634
G1 X99.845 Y105.277 E4.4640
G1 X99.854 Y105.257 E4.4654
G1 X99.858 Y105.249 E4.4660
G1 X100.291 Y104.417 E4.5290
G1 X100.295 Y104.409 E4.5296
G1 X100.306 Y104.391 E4.5311
G1 X100.311 Y104.383 E4.5317
G1 X100.814 Y103.592 E4.5947
G1 X100.819 Y103.585 E4.5953
G1 X100.832 Y103.567 E4.5967
G1 X100.837 Y103.560 E4.5973
G1 X101.408 Y102.816 E4.6603
G1 X101.413 Y102.809 E4.6609
G1 X101.427 Y102.793 E4.6624
G1 X101.433 Y102.786 E4.6630
G1 X102.067 Y102.094 E4.7260
G1 X102.073 Y102.088 E4.7266
G92 E0
G1 E-9.0000 F1988
; outer perimeter
G1 X102.858 Y102.858 F4800
G1 E0.0000 F1988
G92 E0
G1 X103.508 Y102.263 E0.0592 F950
G1 X104.207 Y101.727 E0.1184
G1 X104.950 Y101.253 E0.1776
G1 X105.732 Y100.847 E0.2368
G1 X106.546 Y100.509 E0.2960
G1 X107.386 Y100.245 E0.3552
G1 X108.246 Y100.054 E0.4144
G1 X109.120 Y99.939 E0.4736
G1 X110.000 Y99.900 E0.5328
G1 X110.880 Y99.939 E0.5920
G1 X111.754 Y100.054 E0.6512
G1 X112.614 Y100.245 E0.7103
G1 X113.454 Y100.509 E0.7695
G1 X114.268 Y100.847 E0.8287
G1 X115.050 Y101.253 E0.8879
G1 X115.793 Y101.727 E0.9471
G1 X116.492 Y102.263 E1.0063
G1 X117.142 Y102.858 E1.0655
G1 X117.737 Y103.508 E1.1247
G1 X118.273 Y104.207 E1.1839
G1 X118.747 Y104.950 E1.2431
G1 X119.153 Y105.732 E1.3023
G1 X119.491 Y106.546 E1.3615
G1 X119.755 Y107.386 E1.4207
G1 X119.946 Y108.246 E1.4799
G1 X120.061 Y109.120 E1.5391
G1 X120.099 Y109.984 E1.5972
G1 X120.063 Y110.853 E1.6557
G1 X119.951 Y111.719 E1.7143
G1 X119.755 Y112.614 E1.7759
G1 X119.491 Y113.454 E1.8351
G1 X119.153 Y114.268 E1.8943
G1 X118.747 Y115.050 E1.9534
G1 X118.273 Y115.793 E2.0126
G1 X117.737 Y116.492 E2.0718
G1 X117.142 Y117.142 E2.1310
G1 X116.492 Y117.737 E2.1902
G1 X115.793 Y118.273 E2.2494
G1 X115.050 Y118.747 E2.3086
G1 X114.268 Y119.153 E2.3678
G1 X113.454 Y119.491 E2.4270
G1 X112.614 Y119.755 E2.4862
G1 X111.754 Y119.946 E2.5454
G1 X110.880 Y120.061 E2.6046
G1 X110.000 Y120.100 E2.6638
G1 X109.120 Y120.061 E2.7230
G1 X108.246 Y119.946 E2.7822
