; G-Code generated by Simplify3D(R) Version 4.0.0
; Mar 30, 2022 at 6:21:27 PM
; Settings Summary
;   processName,Process1
;   applyToModels,Servo_Cap_M5
;   profileName,Default (modified)
;   profileVersion,2017-03-01 08:00:00
;   baseProfile,
;   printMaterial,
;   printQuality,
;   printExtruders,
;   extruderName,Primary Extruder
;   extruderToolheadNumber,0
;   extruderDiameter,0.4
;   extruderAutoWidth,0
;   extruderWidth,0.8
;   extrusionMultiplier,1.01
;   extruderUseRetract,1
;   extruderRetractionDistance,9
;   extruderExtraRestartDistance,0
;   extruderRetractionZLift,0
;   extruderRetractionSpeed,1988
;   extruderUseCoasting,0
;   extruderCoastingDistance,0.2
;   extruderUseWipe,0
;   extruderWipeDistance,5
;   primaryExtruder,0
;   layerHeight,0.2
;   topSolidLayers,4
;   bottomSolidLayers,4
;   perimeterOutlines,1
;   printPerimetersInsideOut,1
;   startPointOption,2
;   startPointOriginX,0
;   startPointOriginY,0
;   sequentialIslands,0
;   spiralVaseMode,0
;   firstLayerHeightPercentage,90
;   firstLayerWidthPercentage,100
;   firstLayerUnderspeed,0.5
;   useRaft,0
;   raftExtruder,0
;   raftTopLayers,3
;   raftBaseLayers,2
;   raftOffset,3
;   raftSeparationDistance,0.14
;   raftTopInfill,100
;   aboveRaftSpeedMultiplier,0.3
;   useSkirt,1
;   skirtExtruder,0
;   skirtLayers,1
;   skirtOutlines,1
;   skirtOffset,0.3
;   usePrimePillar,0
;   primePillarExtruder,999
;   primePillarWidth,12
;   primePillarLocation,7
;   primePillarSpeedMultiplier,1
;   useOozeShield,0
;   oozeShieldExtruder,999
;   oozeShieldOffset,2
;   oozeShieldOutlines,1
;   oozeShieldSidewallShape,1
;   oozeShieldSidewallAngle,30
;   oozeShieldSpeedMultiplier,1
;   infillExtruder,0
;   internalInfillPattern,Rectilinear
;   externalInfillPattern,Rectilinear
;   infillPercentage,35
;   outlineOverlapPercentage,30
;   infillExtrusionWidthPercentage,100
;   minInfillLength,5
;   infillLayerInterval,1
;   internalInfillAngles,45,-45
;   overlapInternalInfillAngles,0
;   externalInfillAngles,45,-45
;   generateSupport,1
;   supportExtruder,0
;   supportInfillPercentage,30
;   supportExtraInflation,0
;   supportBaseLayers,0
;   denseSupportExtruder,0
;   denseSupportLayers,0
;   denseSupportInfillPercentage,70
;   supportLayerInterval,1
;   supportHorizontalPartOffset,0.3
;   supportUpperSeparationLayers,1
;   supportLowerSeparationLayers,1
;   supportType,0
;   supportGridSpacing,4
;   maxOverhangAngle,45
;   supportAngles,0
;   temperatureName,Primary Extruder,Bed
;   temperatureNumber,0,0
;   temperatureSetpointCount,1,1
;   temperatureSetpointLayers,1,1
;   temperatureSetpointTemperatures,205,60
;   temperatureStabilizeAtStartup,1,1
;   temperatureHeatedBed,0,1
;   temperatureRelayBetweenLayers,0,0
;   temperatureRelayBetweenLoops,0,0
;   fanLayers,1,2
;   fanSpeeds,0,100
;   blipFanToFullPower,0
;   adjustSpeedForCooling,1
;   minSpeedLayerTime,15
;   minCoolingSpeedSlowdown,20
;   increaseFanForCooling,0
;   minFanLayerTime,45
;   maxCoolingFanSpeed,100
;   increaseFanForBridging,0
;   bridgingFanSpeed,100
;   use5D,1
;   relativeEdistances,0
;   allowEaxisZeroing,1
;   independentExtruderAxes,0
;   includeM10123,0
;   stickySupport,1
;   applyToolheadOffsets,0
;   gcodeXoffset,0
;   gcodeYoffset,0
;   gcodeZoffset,0
;   overrideMachineDefinition,1
;   machineTypeOverride,0
;   strokeXoverride,220
;   strokeYoverride,220
;   strokeZoverride,220
;   originOffsetXoverride,0
;   originOffsetYoverride,0
;   originOffsetZoverride,0
;   homeXdirOverride,-1
;   homeYdirOverride,-1
;   homeZdirOverride,-1
;   flipXoverride,1
;   flipYoverride,-1
;   flipZoverride,1
;   toolheadOffsets,0,0|0,0|0,0|0,0|0,0|0,0
;   overrideFirmwareConfiguration,0
;   firmwareTypeOverride,RepRap (Marlin/Repetier/Sprinter)
;   GPXconfigOverride,r2
;   baudRateOverride,115200
;   overridePrinterModels,0
;   printerModelsOverride
;   startingGcode,G28 ; home all axes
;   layerChangeGcode,
;   retractionGcode,
;   toolChangeGcode,
;   endingGcode,M104 S0 ; turn off extruder,M140 S0 ; turn off bed,M84 ; disable motors,G28 ; home all axes
;   exportFileFormat,gcode
;   celebration,0
;   celebrationSong,Random Song
;   postProcessing,
;   defaultSpeed,2000
;   outlineUnderspeed,0.95
;   solidInfillUnderspeed,0.8
;   supportUnderspeed,0.8
;   rapidXYspeed,4800
;   rapidZspeed,1002
;   minBridgingArea,50
;   bridgingExtraInflation,0
;   bridgingExtrusionMultiplier,1
;   bridgingSpeedMultiplier,1
;   useFixedBridgingAngle,0
;   fixedBridgingAngle,0
;   applyBridgingToPerimeters,0
;   filamentDiameters,1.75|1.75|1.75|1.75|1.75|1.75
;   filamentPricesPerKg,46|46|46|46|46|46
;   filamentDensities,1.25|1.25|1.25|1.25|1.25|1.25
;   useMinPrintHeight,0
;   minPrintHeight,0
;   useMaxPrintHeight,0
;   maxPrintHeight,0
;   useDiaphragm,0
;   diaphragmLayerInterval,20
;   robustSlicing,1
;   mergeAllIntoSolid,0
;   onlyRetractWhenCrossingOutline,1
;   retractBetweenLayers,1
;   useRetractionMinTravel,0
;   retractionMinTravel,3
;   retractWhileWiping,0
;   onlyWipeOutlines,1
;   avoidCrossingOutline,0
;   maxMovementDetourFactor,3
;   toolChangeRetractionDistance,12
;   toolChangeExtraRestartDistance,-0.5
;   toolChangeRetractionSpeed,600
;   externalThinWallType,0
;   internalThinWallType,2
;   thinWallAllowedOverlapPercentage,10
;   singleExtrusionMinLength,1
;   singleExtrusionMinPrintingWidthPercentage,50
;   singleExtrusionMaxPrintingWidthPercentage,200
;   singleExtrusionEndpointExtension,0.2
;   horizontalSizeCompensation,0
G90
M82
M106 S0
M140 S60
M190 S60
M104 S205 T0
M109 S205 T0
G28 ; home all axes
G92 E0
G1 E-9.0000 F1988
G1 Z0.180 F1002
; process Process1
; layer 1, Z = 0.180
T0
; tool H0.200 W0.800
; skirt
G1 X101.654 Y102.533 F4800
G1 E0.0000 F596
G92 E0
G1 X103.594 Y100.815 E0.1741 F1000
G1 X103.613 Y100.800 E0.1758
G1 X103.663 Y100.765 E0.1798
G1 X103.683 Y100.753 E0.1814
G1 X105.978 Y99.548 E0.3556
G1 X106.000 Y99.539 E0.3572
G1 X106.057 Y99.517 E0.3613
G1 X106.080 Y99.510 E0.3629
G1 X108.596 Y98.890 E0.5370
G1 X108.620 Y98.885 E0.5386
G1 X108.680 Y98.878 E0.5427
G1 X108.704 Y98.877 E0.5443
G1 X111.296 Y98.877 E0.7184
G1 X111.320 Y98.878 E0.7201
G1 X111.380 Y98.885 E0.7241
G1 X111.404 Y98.890 E0.7258
G1 X113.920 Y99.510 E0.8999
G1 X113.943 Y99.517 E0.9015
G1 X114.000 Y99.539 E0.9056
G1 X114.022 Y99.548 E0.9072
G1 X116.317 Y100.753 E1.0813
G1 X116.337 Y100.765 E1.0829
G1 X116.387 Y100.800 E1.0870
G1 X116.406 Y100.815 E1.0886
G1 X118.346 Y102.533 E1.2628
G1 X118.363 Y102.550 E1.2644
G1 X118.403 Y102.596 E1.2684
G1 X118.418 Y102.615 E1.2701
G1 X119.891 Y104.748 E1.4442
G1 X119.903 Y104.768 E1.4458
G1 X119.931 Y104.822 E1.4499
G1 X119.941 Y104.844 E1.4515
G1 X120.860 Y107.268 E1.6257
G1 X120.867 Y107.291 E1.6273
G1 X120.882 Y107.350 E1.6314
G1 X120.886 Y107.374 E1.6330
G1 X121.197 Y109.995 E1.8103
G1 X121.199 Y110.019 E1.8120
G1 X121.199 Y110.079 E1.8160
G1 X121.197 Y110.103 E1.8176
G1 X120.886 Y112.628 E1.9886
G1 X120.882 Y112.652 E1.9902
G1 X120.867 Y112.710 E1.9942
G1 X120.860 Y112.733 E1.9958
G1 X119.941 Y115.156 E2.1699
G1 X119.931 Y115.178 E2.1715
G1 X119.903 Y115.232 E2.1756
G1 X119.891 Y115.252 E2.1772
G1 X118.418 Y117.385 E2.3514
G1 X118.403 Y117.404 E2.3530
G1 X118.363 Y117.450 E2.3570
G1 X118.346 Y117.467 E2.3587
G1 X116.406 Y119.185 E2.5328
G1 X116.387 Y119.200 E2.5344
G1 X116.337 Y119.235 E2.5385
G1 X116.317 Y119.247 E2.5401
G1 X114.022 Y120.452 E2.7142
G1 X114.000 Y120.461 E2.7159
G1 X113.943 Y120.483 E2.7199
G1 X113.920 Y120.490 E2.7215
G1 X111.404 Y121.110 E2.8957
G1 X111.380 Y121.115 E2.8973
G1 X111.320 Y121.122 E2.9014
G1 X111.296 Y121.123 E2.9030
G1 X108.704 Y121.123 E3.0771
G1 X108.680 Y121.122 E3.0787
G1 X108.620 Y121.115 E3.0828
G1 X108.596 Y121.110 E3.0844
G1 X106.080 Y120.490 E3.2585
G1 X106.057 Y120.483 E3.2602
G1 X106.000 Y120.461 E3.2642
G1 X105.978 Y120.452 E3.2659
G1 X103.683 Y119.247 E3.4400
G1 X103.663 Y119.235 E3.4416
G1 X103.613 Y119.200 E3.4457
G1 X103.594 Y119.185 E3.4473
G1 X101.654 Y117.467 E3.6214
G1 X101.637 Y117.450 E3.6230
G1 X101.597 Y117.404 E3.6271
G1 X101.582 Y117.385 E3.6287
G1 X100.109 Y115.252 E3.8029
G1 X100.097 Y115.232 E3.8045
G1 X100.069 Y115.178 E3.8085
G1 X100.059 Y115.156 E3.8102
G1 X99.140 Y112.733 E3.9843
G1 X99.133 Y112.710 E3.9859
G1 X99.118 Y112.651 E3.9900
G1 X99.114 Y112.627 E3.9916
G1 X98.801 Y110.054 E4.1657
G1 X98.800 Y110.030 E4.1674
G1 X98.800 Y109.970 E4.1714
G1 X98.801 Y109.946 E4.1730
G1 X99.114 Y107.373 E4.3472
G1 X99.118 Y107.349 E4.3488
G1 X99.133 Y107.290 E4.3529
G1 X99.140 Y107.267 E4.3545
G1 X100.059 Y104.844 E4.5286
G1 X100.069 Y104.822 E4.5302
G1 X100.097 Y104.768 E4.5343
G1 X100.109 Y104.748 E4.5359
G1 X101.582 Y102.615 E4.7100
G1 X101.597 Y102.596 E4.7117
G1 X101.637 Y102.550 E4.7157
G1 X101.654 Y102.533 E4.7174
G92 E0
G1 E-9.0000 F1988
; outer perimeter
G1 X102.442 Y103.304 F4800
G1 E0.0000 F1988
G92 E0
G1 X104.264 Y101.690 E0.1635 F950
G1 X106.419 Y100.559 E0.3271
G1 X108.783 Y99.977 E0.4906
G1 X111.217 Y99.977 E0.6542
G1 X113.580 Y100.559 E0.8177
G1 X115.736 Y101.690 E0.9812
G1 X117.558 Y103.304 E1.1448
G1 X118.940 Y105.308 E1.3083
G1 X119.808 Y107.594 E1.4726
G1 X119.814 Y107.633 E1.4752
G1 X120.099 Y109.977 E1.6339
G1 X120.099 Y110.023 E1.6370
G1 X119.804 Y112.416 E1.7990
G1 X118.940 Y114.692 E1.9625
G1 X117.558 Y116.696 E2.1261
G1 X115.736 Y118.310 E2.2896
G1 X113.580 Y119.441 E2.4531
G1 X111.217 Y120.023 E2.6167
G1 X108.783 Y120.023 E2.7802
G1 X106.419 Y119.441 E2.9438
G1 X104.264 Y118.310 E3.1073
G1 X102.442 Y116.696 E3.2708
G1 X101.059 Y114.692 E3.4344
G1 X100.196 Y112.416 E3.5979
G1 X99.903 Y110.000 E3.7615
G1 X100.196 Y107.584 E3.9250
G1 X101.059 Y105.308 E4.0885
G1 X102.442 Y103.304 E4.2521
G1 X103.560 Y103.871 F4800
G92 E0
G1 X103.360 Y104.263 E0.0295 F950
G1 X103.292 Y104.697 E0.0591
G1 X103.360 Y105.131 E0.0886
G1 X103.560 Y105.523 E0.1181
G1 X103.871 Y105.833 E0.1477
G1 X104.263 Y106.033 E0.1772
G1 X104.697 Y106.102 E0.2067
G1 X105.131 Y106.033 E0.2363
G1 X105.523 Y105.833 E0.2658
G1 X105.833 Y105.523 E0.2953
G1 X106.033 Y105.131 E0.3249
G1 X106.102 Y104.697 E0.3544
G1 X106.033 Y104.263 E0.3839
G1 X105.833 Y103.871 E0.4135
G1 X105.523 Y103.560 E0.4430
G1 X105.131 Y103.360 E0.4725
G1 X104.697 Y103.292 E0.5021
G1 X104.263 Y103.360 E0.5316
G1 X103.871 Y103.560 E0.5611
G1 X103.560 Y103.871 E0.5907
G92 E0
G1 E-9.0000 F1988
G1 X106.841 Y107.705 F4800
G1 E0.0000 F1988
G92 E0
G1 X106.286 Y108.793 E0.0821 F950
G1 X106.095 Y110.000 E0.1642
G1 X106.286 Y111.207 E0.2463
G1 X106.841 Y112.295 E0.3283
G1 X107.705 Y113.159 E0.4104
G1 X108.793 Y113.714 E0.4925
G1 X110.000 Y113.905 E0.5746
G1 X111.207 Y113.714 E0.6567
G1 X112.295 Y113.159 E0.7388
G1 X113.159 Y112.295 E0.8208
G1 X113.714 Y111.207 E0.9029
G1 X113.905 Y110.000 E0.9850
G1 X113.714 Y108.793 E1.0671
G1 X113.159 Y107.705 E1.1492
G1 X112.295 Y106.841 E1.2313
G1 X111.207 Y106.286 E1.3133
G1 X110.000 Y106.095 E1.3954
G1 X108.793 Y106.286 E1.4775
G1 X107.705 Y106.841 E1.5596
G1 X106.841 Y107.705 E1.6417
G1 X105.131 Y113.967 F4800
G92 E0
G1 X104.697 Y113.898 E0.0295 F950
G1 X104.263 Y113.967 E0.0591
G1 X103.871 Y114.167 E0.0886
G1 X103.560 Y114.477 E0.1181
G1 X103.360 Y114.869 E0.1477
G1 X103.292 Y115.303 E0.1772
G1 X103.360 Y115.737 E0.2067
G1 X103.560 Y116.129 E0.2363
G1 X103.869 Y116.438 E0.2656
G1 X104.262 Y116.639 E0.2953
G1 X104.697 Y116.708 E0.3249
G1 X105.131 Y116.640 E0.3544
G1 X105.523 Y116.440 E0.3839
G1 X105.833 Y116.129 E0.4135
G1 X106.033 Y115.737 E0.4430
G1 X106.102 Y115.303 E0.4725
G1 X106.033 Y114.869 E0.5021
G1 X105.833 Y114.477 E0.5316
G1 X105.523 Y114.167 E0.5611
G1 X105.131 Y113.967 E0.5907
G1 X113.898 Y115.303 F4800
G92 E0
G1 X113.967 Y115.737 E0.0295 F950
G1 X114.167 Y116.129 E0.0591
G1 X114.477 Y116.440 E0.0886
G1 X114.869 Y116.640 E0.1181
G1 X115.303 Y116.708 E0.1477
G1 X115.737 Y116.640 E0.1772
G1 X116.127 Y116.441 E0.2065
G1 X116.440 Y116.129 E0.2362
G1 X116.640 Y115.737 E0.2658
G1 X116.708 Y115.303 E0.2953
G1 X116.640 Y114.869 E0.3249
G1 X116.440 Y114.477 E0.3544
G1 X116.129 Y114.167 E0.3839
G1 X115.737 Y113.967 E0.4135
G1 X115.303 Y113.898 E0.4430
G1 X114.869 Y113.967 E0.4725
G1 X114.477 Y114.167 E0.5021
G1 X114.167 Y114.477 E0.5316
G1 X113.967 Y114.869 E0.5611
G1 X113.898 Y115.303 E0.5907
G1 X115.303 Y106.102 F4800
G92 E0
G1 X115.737 Y106.033 E0.0295 F950
G1 X116.129 Y105.833 E0.0591
G1 X116.440 Y105.523 E0.0886
G1 X116.640 Y105.131 E0.1181
G1 X116.708 Y104.697 E0.1477
G1 X116.640 Y104.263 E0.1772
G1 X116.440 Y103.871 E0.2067
G1 X116.131 Y103.562 E0.2361
G1 X115.738 Y103.361 E0.2658
G1 X115.303 Y103.292 E0.2953
G1 X114.869 Y103.360 E0.3249
G1 X114.477 Y103.560 E0.3544
G1 X114.167 Y103.871 E0.3839
G1 X113.967 Y104.263 E0.4135
G1 X113.898 Y104.697 E0.4430
G1 X113.967 Y105.131 E0.4725
G1 X114.167 Y105.523 E0.5021
G1 X114.477 Y105.833 E0.5316
G1 X114.869 Y106.033 E0.5611
G1 X115.303 Y106.102 E0.5907
; solid layer
G1 X115.663 Y106.612 F4800
G92 E0
G1 X119.484 Y110.433 E0.3631 F800
G1 X119.537 Y109.999 E0.3924
G1 X119.448 Y109.266 E0.4420
G1 X116.468 Y106.286 E0.7252
G1 X116.899 Y105.856 E0.7661
G1 X116.990 Y105.676 E0.7796
G1 X119.292 Y107.979 E0.9983
G1 X119.263 Y107.737 E1.0147
G1 X118.701 Y106.256 E1.1211
G1 X117.257 Y104.812 E1.2583
G1 X114.230 Y108.573 F4800
G92 E0
G1 X118.894 Y113.237 E0.4431 F800
G1 X118.583 Y114.057 E0.5020
G1 X114.462 Y109.936 E0.8935
G1 X114.472 Y110.000 E0.8979
G1 X114.325 Y110.930 E0.9612
G1 X118.189 Y114.795 E1.3283
G1 X117.727 Y115.464 E1.3830
G1 X117.221 Y114.958 E1.4311
G1 X117.179 Y114.694 E1.4491
G1 X116.899 Y114.144 E1.4905
G1 X116.462 Y113.708 E1.5320
G1 X115.913 Y113.428 E1.5734
G1 X115.649 Y113.386 E1.5914
G1 X114.048 Y111.785 E1.7435
G1 X113.666 Y112.534 E1.8000
G1 X114.605 Y113.473 E1.8892
G1 X114.144 Y113.708 E1.9239
G1 X113.926 Y113.926 E1.9447
G1 X113.123 Y113.123 E2.0210
G1 X112.629 Y113.618 E2.0680
G1 X112.534 Y113.666 E2.0750
G1 X113.473 Y114.605 E2.1643
G1 X113.428 Y114.694 E2.1710
G1 X113.331 Y115.303 E2.2124
G1 X113.386 Y115.649 E2.2359
G1 X111.785 Y114.048 E2.3881
G1 X111.382 Y114.253 E2.4185
G1 X110.930 Y114.325 E2.4492
G1 X114.783 Y118.177 E2.8152
G1 X114.041 Y118.567 E2.8715
G1 X109.936 Y114.462 E3.2615
G1 X111.466 Y119.385 F4800
G92 E0
G1 X106.362 Y114.282 E0.4849 F800
G1 X106.572 Y114.694 E0.5160
G1 X106.669 Y115.303 E0.5575
G1 X106.612 Y115.663 E0.5819
G1 X110.412 Y119.463 E0.9430
G1 X109.281 Y119.463 E1.0190
G1 X106.286 Y116.468 E1.3036
G1 X105.856 Y116.899 E1.3445
G1 X105.676 Y116.990 E1.3580
G1 X107.920 Y119.234 E1.5712
G1 X106.620 Y118.913 E1.6613
G1 X106.301 Y118.747 E1.6854
G1 X104.812 Y117.257 E1.8269
G1 X104.697 Y117.275 E1.8348
G1 X104.087 Y117.179 E1.8763
G1 X103.535 Y116.896 E1.9179
G1 X103.101 Y116.462 E1.9591
G1 X102.821 Y115.913 E2.0006
G1 X102.725 Y115.303 E2.0420
G1 X102.743 Y115.188 E2.0499
G1 X101.299 Y113.744 E2.1871
G1 X100.744 Y112.281 E2.2922
G1 X100.713 Y112.027 E2.3094
G1 X103.010 Y114.324 E2.5276
G1 X103.101 Y114.144 E2.5411
G1 X103.532 Y113.714 E2.5820
G1 X100.557 Y110.739 E2.8647
G1 X100.467 Y110.000 E2.9147
G1 X100.519 Y109.570 E2.9438
G1 X104.337 Y113.388 E3.3066
G1 X104.697 Y113.331 E3.3310
G1 X105.306 Y113.428 E3.3725
G1 X105.718 Y113.638 E3.4035
G1 X100.642 Y108.561 E3.8859
G1 X100.744 Y107.719 E3.9429
G1 X100.795 Y107.584 E3.9526
G1 X112.373 Y119.162 E5.0527
G1 X113.281 Y118.938 E5.1155
G1 X108.574 Y114.230 E5.5628
G1 X107.371 Y113.618 E5.6535
G1 X106.382 Y112.629 E5.7475
G1 X105.770 Y111.426 E5.8381
G1 X101.106 Y106.763 E6.2812
G1 X101.417 Y105.943 E6.3401
G1 X105.538 Y110.064 E6.7316
G1 X105.528 Y110.000 E6.7360
G1 X105.675 Y109.070 E6.7993
