; G-Code generated by Simplify3D(R) Version 4.0.0
; Mar 30, 2022 at 6:27:28 PM
; Settings Summary
;   processName,Process1
;   applyToModels,Wormdrive_V1.5_M8Octo
;   profileName,Default (modified)
;   profileVersion,2017-03-01 08:00:00
;   baseProfile,
;   printMaterial,
;   printQuality,
;   printExtruders,
;   extruderName,Primary Extruder
;   extruderToolheadNumber,0
;   extruderDiameter,0.4
;   extruderAutoWidth,0
;   extruderWidth,0.8
;   extrusionMultiplier,1.01
;   extruderUseRetract,1
;   extruderRetractionDistance,9
;   extruderExtraRestartDistance,0
;   extruderRetractionZLift,0
;   extruderRetractionSpeed,1988
;   extruderUseCoasting,0
;   extruderCoastingDistance,0.2
;   extruderUseWipe,0
;   extruderWipeDistance,5
;   primaryExtruder,0
;   layerHeight,0.2
;   topSolidLayers,4
;   bottomSolidLayers,4
;   perimeterOutlines,1
;   printPerimetersInsideOut,1
;   startPointOption,2
;   startPointOriginX,0
;   startPointOriginY,0
;   sequentialIslands,0
;   spiralVaseMode,0
;   firstLayerHeightPercentage,90
;   firstLayerWidthPercentage,100
;   firstLayerUnderspeed,0.5
;   useRaft,0
;   raftExtruder,0
;   raftTopLayers,3
;   raftBaseLayers,2
;   raftOffset,3
;   raftSeparationDistance,0.14
;   raftTopInfill,100
;   aboveRaftSpeedMultiplier,0.3
;   useSkirt,1
;   skirtExtruder,0
;   skirtLayers,1
;   skirtOutlines,1
;   skirtOffset,0.3
;   usePrimePillar,0
;   primePillarExtruder,999
;   primePillarWidth,12
;   primePillarLocation,7
;   primePillarSpeedMultiplier,1
;   useOozeShield,0
;   oozeShieldExtruder,999
;   oozeShieldOffset,2
;   oozeShieldOutlines,1
;   oozeShieldSidewallShape,1
;   oozeShieldSidewallAngle,30
;   oozeShieldSpeedMultiplier,1
;   infillExtruder,0
;   internalInfillPattern,Rectilinear
;   externalInfillPattern,Rectilinear
;   infillPercentage,35
;   outlineOverlapPercentage,30
;   infillExtrusionWidthPercentage,100
;   minInfillLength,5
;   infillLayerInterval,1
;   internalInfillAngles,45,-45
;   overlapInternalInfillAngles,0
;   externalInfillAngles,45,-45
;   generateSupport,1
;   supportExtruder,0
;   supportInfillPercentage,30
;   supportExtraInflation,0
;   supportBaseLayers,0
;   denseSupportExtruder,0
;   denseSupportLayers,0
;   denseSupportInfillPercentage,70
;   supportLayerInterval,1
;   supportHorizontalPartOffset,0.3
;   supportUpperSeparationLayers,1
;   supportLowerSeparationLayers,1
;   supportType,0
;   supportGridSpacing,4
;   maxOverhangAngle,45
;   supportAngles,0
;   temperatureName,Primary Extruder,Bed
;   temperatureNumber,0,0
;   temperatureSetpointCount,1,1
;   temperatureSetpointLayers,1,1
;   temperatureSetpointTemperatures,205,60
;   temperatureStabilizeAtStartup,1,1
;   temperatureHeatedBed,0,1
;   temperatureRelayBetweenLayers,0,0
;   temperatureRelayBetweenLoops,0,0
;   fanLayers,1,2
;   fanSpeeds,0,100
;   blipFanToFullPower,0
;   adjustSpeedForCooling,1
;   minSpeedLayerTime,15
;   minCoolingSpeedSlowdown,20
;   increaseFanForCooling,0
;   minFanLayerTime,45
;   maxCoolingFanSpeed,100
;   increaseFanForBridging,0
;   bridgingFanSpeed,100
;   use5D,1
;   relativeEdistances,0
;   allowEaxisZeroing,1
;   independentExtruderAxes,0
;   includeM10123,0
;   stickySupport,1
;   applyToolheadOffsets,0
;   gcodeXoffset,0
;   gcodeYoffset,0
;   gcodeZoffset,0
;   overrideMachineDefinition,1
;   machineTypeOverride,0
;   strokeXoverride,220
;   strokeYoverride,220
;   strokeZoverride,220
;   originOffsetXoverride,0
;   originOffsetYoverride,0
;   originOffsetZoverride,0
;   homeXdirOverride,-1
;   homeYdirOverride,-1
;   homeZdirOverride,-1
;   flipXoverride,1
;   flipYoverride,-1
;   flipZoverride,1
;   toolheadOffsets,0,0|0,0|0,0|0,0|0,0|0,0
;   overrideFirmwareConfiguration,0
;   firmwareTypeOverride,RepRap (Marlin/Repetier/Sprinter)
;   GPXconfigOverride,r2
;   baudRateOverride,115200
;   overridePrinterModels,0
;   printerModelsOverride
;   startingGcode,G28 ; home all axes
;   layerChangeGcode,
;   retractionGcode,
;   toolChangeGcode,
;   endingGcode,M104 S0 ; turn off extruder,M140 S0 ; turn off bed,M84 ; disable motors,G28 ; home all axes
;   exportFileFormat,gcode
;   celebration,0
;   celebrationSong,Random Song
;   postProcessing,
;   defaultSpeed,2000
;   outlineUnderspeed,0.95
;   solidInfillUnderspeed,0.8
;   supportUnderspeed,0.8
;   rapidXYspeed,4800
;   rapidZspeed,1002
;   minBridgingArea,50
;   bridgingExtraInflation,0
;   bridgingExtrusionMultiplier,1
;   bridgingSpeedMultiplier,1
;   useFixedBridgingAngle,0
;   fixedBridgingAngle,0
;   applyBridgingToPerimeters,0
;   filamentDiameters,1.75|1.75|1.75|1.75|1.75|1.75
;   filamentPricesPerKg,46|46|46|46|46|46
;   filamentDensities,1.25|1.25|1.25|1.25|1.25|1.25
;   useMinPrintHeight,0
;   minPrintHeight,0
;   useMaxPrintHeight,0
;   maxPrintHeight,0
;   useDiaphragm,0
;   diaphragmLayerInterval,20
;   robustSlicing,1
;   mergeAllIntoSolid,0
;   onlyRetractWhenCrossingOutline,1
;   retractBetweenLayers,1
;   useRetractionMinTravel,0
;   retractionMinTravel,3
;   retractWhileWiping,0
;   onlyWipeOutlines,1
;   avoidCrossingOutline,0
;   maxMovementDetourFactor,3
;   toolChangeRetractionDistance,12
;   toolChangeExtraRestartDistance,-0.5
;   toolChangeRetractionSpeed,600
;   externalThinWallType,0
;   internalThinWallType,2
;   thinWallAllowedOverlapPercentage,10
;   singleExtrusionMinLength,1
;   singleExtrusionMinPrintingWidthPercentage,50
;   singleExtrusionMaxPrintingWidthPercentage,200
;   singleExtrusionEndpointExtension,0.2
;   horizontalSizeCompensation,0
G90
M82
M106 S0
M140 S60
M190 S60
M104 S205 T0
M109 S205 T0
G28 ; home all axes
G92 E0
G1 E-9.0000 F1988
G1 Z0.180 F1002
; process Process1
; layer 1, Z = 0.180
T0
; tool H0.200 W0.800
; skirt
G1 X74.559 Y100.111 F4800
G1 E0.0000 F596
G92 E0
G1 X74.706 Y100.050 E0.0107 F1000
G1 X97.485 Y100.050 E1.5411
G1 X98.306 Y100.014 E1.5963
G1 X99.111 Y99.909 E1.6508
G1 X99.903 Y99.733 E1.7054
G1 X100.677 Y99.490 E1.7599
G1 X101.426 Y99.180 E1.8144
G1 X102.146 Y98.805 E1.8689
G1 X102.830 Y98.370 E1.9234
G1 X103.474 Y97.876 E1.9779
G1 X104.073 Y97.328 E2.0324
G1 X104.621 Y96.730 E2.0869
G1 X105.115 Y96.087 E2.1414
G1 X105.551 Y95.403 E2.1959
G1 X105.926 Y94.684 E2.2504
G1 X106.237 Y93.935 E2.3049
G1 X106.481 Y93.161 E2.3594
G1 X106.657 Y92.369 E2.4139
G1 X106.763 Y91.564 E2.4684
G1 X106.800 Y90.735 E2.5242
G1 X106.800 Y83.546 E3.0072
G1 X106.861 Y83.399 E3.0179
G1 X107.149 Y83.111 E3.0453
G1 X107.296 Y83.050 E3.0559
G1 X107.800 Y83.050 E3.0898
G1 X107.800 Y77.046 E3.4932
G1 X107.861 Y76.899 E3.5039
G1 X108.149 Y76.611 E3.5312
G1 X108.296 Y76.550 E3.5419
G1 X112.704 Y76.550 E3.8381
G1 X112.851 Y76.611 E3.8488
G1 X113.139 Y76.899 E3.8761
G1 X113.200 Y77.046 E3.8868
G1 X113.200 Y90.735 E4.8065
G1 X113.236 Y91.556 E4.8618
G1 X113.341 Y92.361 E4.9163
G1 X113.517 Y93.153 E4.9708
G1 X113.760 Y93.927 E5.0253
G1 X114.070 Y94.676 E5.0798
G1 X114.445 Y95.396 E5.1343
G1 X114.880 Y96.080 E5.1888
G1 X115.374 Y96.724 E5.2433
G1 X115.922 Y97.323 E5.2978
G1 X116.519 Y97.871 E5.3523
G1 X117.163 Y98.365 E5.4068
G1 X117.847 Y98.801 E5.4613
G1 X118.566 Y99.176 E5.5158
G1 X119.315 Y99.487 E5.5703
G1 X120.089 Y99.731 E5.6248
G1 X120.881 Y99.907 E5.6793
G1 X121.686 Y100.013 E5.7338
G1 X122.515 Y100.050 E5.7896
G1 X145.294 Y100.050 E7.3200
G1 X145.441 Y100.111 E7.3307
G1 X145.729 Y100.399 E7.3581
G1 X145.790 Y100.546 E7.3688
G1 X145.790 Y125.954 E9.0758
G1 X145.729 Y126.101 E9.0865
G1 X145.441 Y126.389 E9.1139
G1 X145.294 Y126.450 E9.1246
G1 X122.515 Y126.450 E10.6550
G1 X121.694 Y126.486 E10.7102
G1 X120.889 Y126.591 E10.7647
G1 X120.097 Y126.767 E10.8192
G1 X119.323 Y127.010 E10.8738
G1 X118.574 Y127.320 E10.9283
G1 X117.854 Y127.695 E10.9828
G1 X117.170 Y128.130 E11.0373
G1 X116.526 Y128.624 E11.0918
G1 X115.927 Y129.172 E11.1463
G1 X115.379 Y129.770 E11.2008
G1 X114.885 Y130.413 E11.2553
G1 X114.449 Y131.097 E11.3098
G1 X114.074 Y131.816 E11.3643
G1 X113.763 Y132.566 E11.4188
G1 X113.519 Y133.339 E11.4733
G1 X113.343 Y134.131 E11.5278
G1 X113.237 Y134.936 E11.5823
G1 X113.200 Y135.765 E11.6381
G1 X113.200 Y140.044 E11.9256
G1 X113.139 Y140.191 E11.9363
G1 X112.851 Y140.479 E11.9636
G1 X112.704 Y140.540 E11.9743
G1 X107.296 Y140.540 E12.3376
G1 X107.149 Y140.479 E12.3483
G1 X106.861 Y140.191 E12.3757
G1 X106.800 Y140.044 E12.3864
G1 X106.800 Y135.806 E12.6711
G1 X106.764 Y134.943 E12.7292
G1 X106.659 Y134.139 E12.7836
G1 X106.483 Y133.347 E12.8381
G1 X106.240 Y132.573 E12.8926
G1 X105.930 Y131.824 E12.9472
G1 X105.555 Y131.104 E13.0017
G1 X105.120 Y130.420 E13.0562
G1 X104.626 Y129.776 E13.1107
G1 X104.078 Y129.177 E13.1652
G1 X103.481 Y128.629 E13.2197
G1 X102.837 Y128.135 E13.2742
G1 X102.153 Y127.699 E13.3287
G1 X101.434 Y127.324 E13.3832
G1 X100.685 Y127.013 E13.4377
G1 X99.911 Y126.769 E13.4922
G1 X99.119 Y126.593 E13.5467
G1 X98.314 Y126.487 E13.6012
G1 X97.485 Y126.450 E13.6570
G1 X74.706 Y126.450 E15.1874
G1 X74.559 Y126.389 E15.1981
G1 X74.271 Y126.101 E15.2255
G1 X74.210 Y125.954 E15.2362
G1 X74.210 Y100.546 E16.9432
G1 X74.271 Y100.399 E16.9539
G1 X74.559 Y100.111 E16.9813
G92 E0
G1 E-9.0000 F1988
; outer perimeter
G1 X75.310 Y101.150 F4800
G1 E0.0000 F1988
G92 E0
G1 X97.509 Y101.150 E1.4914 F950
G1 X98.402 Y101.111 E1.5515
G1 X99.302 Y100.993 E1.6125
G1 X100.187 Y100.797 E1.6734
G1 X101.053 Y100.525 E1.7344
G1 X101.891 Y100.178 E1.7953
G1 X102.696 Y99.759 E1.8563
G1 X103.462 Y99.272 E1.9172
G1 X104.182 Y98.720 E1.9782
G1 X104.851 Y98.107 E2.0392
G1 X105.464 Y97.439 E2.1001
G1 X106.017 Y96.719 E2.1611
G1 X106.505 Y95.954 E2.2220
G1 X106.924 Y95.149 E2.2830
G1 X107.271 Y94.311 E2.3439
G1 X107.545 Y93.446 E2.4049
G1 X107.741 Y92.560 E2.4659
G1 X107.860 Y91.661 E2.5268
G1 X107.900 Y90.759 E2.5875
G1 X107.900 Y84.150 E3.0315
G1 X108.900 Y84.150 E3.0987
G1 X108.900 Y77.650 E3.5354
G1 X112.100 Y77.650 E3.7504
G1 X112.100 Y90.759 E4.6311
G1 X112.139 Y91.652 E4.6912
G1 X112.257 Y92.552 E4.7521
G1 X112.453 Y93.437 E4.8131
G1 X112.725 Y94.303 E4.8740
G1 X113.072 Y95.141 E4.9350
G1 X113.491 Y95.946 E4.9960
G1 X113.978 Y96.712 E5.0569
G1 X114.530 Y97.432 E5.1179
G1 X115.143 Y98.101 E5.1788
G1 X115.811 Y98.714 E5.2398
G1 X116.531 Y99.267 E5.3007
G1 X117.296 Y99.755 E5.3617
G1 X118.101 Y100.174 E5.4227
G1 X118.939 Y100.521 E5.4836
G1 X119.804 Y100.795 E5.5446
G1 X120.690 Y100.991 E5.6055
G1 X121.589 Y101.110 E5.6665
G1 X122.491 Y101.150 E5.7272
G1 X144.690 Y101.150 E7.2186
G1 X144.690 Y125.350 E8.8445
G1 X122.491 Y125.350 E10.3359
G1 X121.598 Y125.389 E10.3960
G1 X120.698 Y125.507 E10.4569
G1 X119.813 Y125.703 E10.5179
G1 X118.947 Y125.975 E10.5789
G1 X118.109 Y126.322 E10.6398
G1 X117.304 Y126.741 E10.7008
G1 X116.538 Y127.228 E10.7617
G1 X115.818 Y127.780 E10.8227
G1 X115.149 Y128.393 E10.8836
G1 X114.536 Y129.061 E10.9446
G1 X113.983 Y129.781 E11.0056
G1 X113.495 Y130.546 E11.0665
G1 X113.076 Y131.351 E11.1275
G1 X112.729 Y132.189 E11.1884
G1 X112.455 Y133.054 E11.2494
G1 X112.259 Y133.940 E11.3103
G1 X112.140 Y134.839 E11.3713
G1 X112.100 Y135.741 E11.4320
G1 X112.100 Y139.440 E11.6805
G1 X107.900 Y139.440 E11.9627
G1 X107.900 Y135.784 E12.2083
G1 X107.861 Y134.848 E12.2712
G1 X107.743 Y133.948 E12.3322
G1 X107.547 Y133.063 E12.3931
G1 X107.275 Y132.197 E12.4541
G1 X106.928 Y131.359 E12.5151
G1 X106.509 Y130.554 E12.5760
G1 X106.022 Y129.788 E12.6370
G1 X105.470 Y129.068 E12.6979
G1 X104.857 Y128.399 E12.7589
G1 X104.189 Y127.786 E12.8198
G1 X103.469 Y127.233 E12.8808
G1 X102.704 Y126.745 E12.9418
G1 X101.899 Y126.326 E13.0027
G1 X101.061 Y125.979 E13.0637
G1 X100.196 Y125.705 E13.1246
G1 X99.310 Y125.509 E13.1856
G1 X98.411 Y125.390 E13.2465
G1 X97.509 Y125.350 E13.3072
G1 X75.310 Y125.350 E14.7986
G1 X75.310 Y101.150 E16.4245
G1 X80.597 Y107.343 F4800
G92 E0
G1 X80.250 Y107.749 E0.0359 F950
G1 X79.971 Y108.204 E0.0717
G1 X79.766 Y108.696 E0.1076
G1 X79.641 Y109.215 E0.1434
G1 X79.600 Y109.734 E0.1784
G1 X79.600 Y116.766 E0.6508
G1 X79.640 Y117.280 E0.6854
G1 X79.765 Y117.798 E0.7213
G1 X79.968 Y118.292 E0.7571
G1 X80.247 Y118.747 E0.7930
G1 X80.593 Y119.153 E0.8289
G1 X80.999 Y119.500 E0.8647
G1 X81.454 Y119.779 E0.9006
G1 X81.946 Y119.984 E0.9364
G1 X82.465 Y120.109 E0.9723
G1 X82.984 Y120.150 E1.0072
G1 X95.016 Y120.150 E1.8156
G1 X95.530 Y120.110 E1.8502
G1 X96.048 Y119.985 E1.8861
G1 X96.542 Y119.782 E1.9219
G1 X96.997 Y119.503 E1.9578
G1 X97.403 Y119.157 E1.9936
G1 X97.750 Y118.751 E2.0295
G1 X98.029 Y118.296 E2.0653
G1 X98.234 Y117.804 E2.1012
G1 X98.359 Y117.285 E2.1371
G1 X98.400 Y116.766 E2.1720
G1 X98.400 Y109.734 E2.6444
G1 X98.360 Y109.220 E2.6791
G1 X98.235 Y108.702 E2.7149
G1 X98.032 Y108.208 E2.7508
G1 X97.753 Y107.753 E2.7866
G1 X97.407 Y107.347 E2.8225
G1 X97.001 Y107.000 E2.8583
G1 X96.546 Y106.721 E2.8942
G1 X96.054 Y106.516 E2.9301
G1 X95.535 Y106.391 E2.9659
G1 X95.016 Y106.350 E3.0009
G1 X82.984 Y106.350 E3.8092
G1 X82.470 Y106.390 E3.8439
G1 X81.952 Y106.515 E3.8797
G1 X81.458 Y106.718 E3.9156
G1 X81.003 Y106.997 E3.9514
G1 X80.597 Y107.343 E3.9873
G92 E0
G1 E-9.0000 F1988
G1 X103.223 Y110.695 F4800
G1 E0.0000 F1988
G92 E0
G1 X103.239 Y110.932 E0.0159 F950
G1 X103.313 Y111.125 E0.0299
G1 X103.600 Y111.622 E0.0684
G1 X103.600 Y114.878 E0.2872
G1 X103.314 Y115.374 E0.3256
G1 X103.239 Y115.566 E0.3394
G1 X103.223 Y115.802 E0.3553
G1 X103.279 Y116.032 E0.3713
G1 X103.402 Y116.235 E0.3872
G1 X103.580 Y116.392 E0.4031
G1 X103.769 Y116.476 E0.4171
G1 X104.323 Y116.624 E0.4556
G1 X106.626 Y118.927 E0.6744
G1 X106.774 Y119.480 E0.7129
G1 X106.857 Y119.668 E0.7266
G1 X107.013 Y119.846 E0.7426
G1 X107.215 Y119.970 E0.7585
G1 X107.445 Y120.026 E0.7744
G1 X107.682 Y120.011 E0.7904
G1 X107.875 Y119.937 E0.8043
G1 X108.372 Y119.650 E0.8428
G1 X111.628 Y119.650 E1.0616
G1 X112.124 Y119.936 E1.1001
G1 X112.316 Y120.011 E1.1139
G1 X112.552 Y120.027 E1.1298
G1 X112.782 Y119.971 E1.1457
G1 X112.985 Y119.848 E1.1616
G1 X113.142 Y119.670 E1.1776
G1 X113.226 Y119.481 E1.1915
G1 X113.374 Y118.927 E1.2300
G1 X115.677 Y116.624 E1.4488
G1 X116.230 Y116.476 E1.4873
G1 X116.418 Y116.393 E1.5011
G1 X116.596 Y116.237 E1.5170
G1 X116.720 Y116.035 E1.5329
G1 X116.776 Y115.805 E1.5489
G1 X116.761 Y115.568 E1.5648
G1 X116.687 Y115.375 E1.5787
G1 X116.400 Y114.878 E1.6172
G1 X116.400 Y111.622 E1.8360
G1 X116.684 Y111.130 E1.8742
G1 X116.761 Y110.936 E1.8882
G1 X116.777 Y110.698 E1.9042
G1 X116.721 Y110.468 E1.9201
G1 X116.598 Y110.265 E1.9361
G1 X116.420 Y110.108 E1.9520
G1 X116.231 Y110.024 E1.9659
G1 X115.677 Y109.876 E2.0044
G1 X113.374 Y107.573 E2.2232
G1 X113.226 Y107.020 E2.2617
G1 X113.143 Y106.832 E2.2755
G1 X112.987 Y106.654 E2.2914
G1 X112.785 Y106.530 E2.3073
G1 X112.555 Y106.473 E2.3233
G1 X112.318 Y106.489 E2.3392
G1 X112.125 Y106.563 E2.3531
G1 X111.628 Y106.850 E2.3917
G1 X108.372 Y106.850 E2.6104
G1 X107.876 Y106.564 E2.6489
G1 X107.684 Y106.489 E2.6627
G1 X107.448 Y106.473 E2.6786
G1 X107.218 Y106.529 E2.6946
G1 X107.015 Y106.652 E2.7105
G1 X106.858 Y106.830 E2.7264
G1 X106.774 Y107.019 E2.7404
G1 X106.626 Y107.573 E2.7789
G1 X104.323 Y109.876 E2.9976
G1 X103.770 Y110.024 E3.0361
G1 X103.582 Y110.107 E3.0499
G1 X103.404 Y110.263 E3.0658
G1 X103.280 Y110.465 E3.0818
G1 X103.223 Y110.695 E3.0977
G92 E0
G1 E-9.0000 F1988
G1 X121.600 Y109.734 F4800
G1 E0.0000 F1988
G92 E0
G1 X121.600 Y116.766 E0.4724 F950
G1 X121.640 Y117.280 E0.5071
G1 X121.765 Y117.798 E0.5429
G1 X121.968 Y118.292 E0.5788
G1 X122.247 Y118.747 E0.6146
G1 X122.593 Y119.153 E0.6505
G1 X122.999 Y119.500 E0.6863
G1 X123.454 Y119.779 E0.7222
G1 X123.946 Y119.984 E0.7580
G1 X124.465 Y120.109 E0.7939
G1 X124.984 Y120.150 E0.8289
