; G-Code generated by Simplify3D(R) Version 4.0.0
; Mar 30, 2022 at 6:24:26 PM
; Settings Summary
;   processName,Process1
;   applyToModels,Wormdrive_Endstops_V1.5_for_Quarter-20_Nut
;   profileName,Default (modified)
;   profileVersion,2017-03-01 08:00:00
;   baseProfile,
;   printMaterial,
;   printQuality,
;   printExtruders,
;   extruderName,Primary Extruder
;   extruderToolheadNumber,0
;   extruderDiameter,0.4
;   extruderAutoWidth,0
;   extruderWidth,0.8
;   extrusionMultiplier,1.01
;   extruderUseRetract,1
;   extruderRetractionDistance,9
;   extruderExtraRestartDistance,0
;   extruderRetractionZLift,0
;   extruderRetractionSpeed,1988
;   extruderUseCoasting,0
;   extruderCoastingDistance,0.2
;   extruderUseWipe,0
;   extruderWipeDistance,5
;   primaryExtruder,0
;   layerHeight,0.2
;   topSolidLayers,4
;   bottomSolidLayers,4
;   perimeterOutlines,1
;   printPerimetersInsideOut,1
;   startPointOption,2
;   startPointOriginX,0
;   startPointOriginY,0
;   sequentialIslands,0
;   spiralVaseMode,0
;   firstLayerHeightPercentage,90
;   firstLayerWidthPercentage,100
;   firstLayerUnderspeed,0.5
;   useRaft,0
;   raftExtruder,0
;   raftTopLayers,3
;   raftBaseLayers,2
;   raftOffset,3
;   raftSeparationDistance,0.14
;   raftTopInfill,100
;   aboveRaftSpeedMultiplier,0.3
;   useSkirt,1
;   skirtExtruder,0
;   skirtLayers,1
;   skirtOutlines,1
;   skirtOffset,0.3
;   usePrimePillar,0
;   primePillarExtruder,999
;   primePillarWidth,12
;   primePillarLocation,7
;   primePillarSpeedMultiplier,1
;   useOozeShield,0
;   oozeShieldExtruder,999
;   oozeShieldOffset,2
;   oozeShieldOutlines,1
;   oozeShieldSidewallShape,1
;   oozeShieldSidewallAngle,30
;   oozeShieldSpeedMultiplier,1
;   infillExtruder,0
;   internalInfillPattern,Rectilinear
;   externalInfillPattern,Rectilinear
;   infillPercentage,35
;   outlineOverlapPercentage,30
;   infillExtrusionWidthPercentage,100
;   minInfillLength,5
;   infillLayerInterval,1
;   internalInfillAngles,45,-45
;   overlapInternalInfillAngles,0
;   externalInfillAngles,45,-45
;   generateSupport,1
;   supportExtruder,0
;   supportInfillPercentage,30
;   supportExtraInflation,0
;   supportBaseLayers,0
;   denseSupportExtruder,0
;   denseSupportLayers,0
;   denseSupportInfillPercentage,70
;   supportLayerInterval,1
;   supportHorizontalPartOffset,0.3
;   supportUpperSeparationLayers,1
;   supportLowerSeparationLayers,1
;   supportType,0
;   supportGridSpacing,4
;   maxOverhangAngle,45
;   supportAngles,0
;   temperatureName,Primary Extruder,Bed
;   temperatureNumber,0,0
;   temperatureSetpointCount,1,1
;   temperatureSetpointLayers,1,1
;   temperatureSetpointTemperatures,205,60
;   temperatureStabilizeAtStartup,1,1
;   temperatureHeatedBed,0,1
;   temperatureRelayBetweenLayers,0,0
;   temperatureRelayBetweenLoops,0,0
;   fanLayers,1,2
;   fanSpeeds,0,100
;   blipFanToFullPower,0
;   adjustSpeedForCooling,1
;   minSpeedLayerTime,15
;   minCoolingSpeedSlowdown,20
;   increaseFanForCooling,0
;   minFanLayerTime,45
;   maxCoolingFanSpeed,100
;   increaseFanForBridging,0
;   bridgingFanSpeed,100
;   use5D,1
;   relativeEdistances,0
;   allowEaxisZeroing,1
;   independentExtruderAxes,0
;   includeM10123,0
;   stickySupport,1
;   applyToolheadOffsets,0
;   gcodeXoffset,0
;   gcodeYoffset,0
;   gcodeZoffset,0
;   overrideMachineDefinition,1
;   machineTypeOverride,0
;   strokeXoverride,220
;   strokeYoverride,220
;   strokeZoverride,220
;   originOffsetXoverride,0
;   originOffsetYoverride,0
;   originOffsetZoverride,0
;   homeXdirOverride,-1
;   homeYdirOverride,-1
;   homeZdirOverride,-1
;   flipXoverride,1
;   flipYoverride,-1
;   flipZoverride,1
;   toolheadOffsets,0,0|0,0|0,0|0,0|0,0|0,0
;   overrideFirmwareConfiguration,0
;   firmwareTypeOverride,RepRap (Marlin/Repetier/Sprinter)
;   GPXconfigOverride,r2
;   baudRateOverride,115200
;   overridePrinterModels,0
;   printerModelsOverride
;   startingGcode,G28 ; home all axes
;   layerChangeGcode,
;   retractionGcode,
;   toolChangeGcode,
;   endingGcode,M104 S0 ; turn off extruder,M140 S0 ; turn off bed,M84 ; disable motors,G28 ; home all axes
;   exportFileFormat,gcode
;   celebration,0
;   celebrationSong,Random Song
;   postProcessing,
;   defaultSpeed,2000
;   outlineUnderspeed,0.95
;   solidInfillUnderspeed,0.8
;   supportUnderspeed,0.8
;   rapidXYspeed,4800
;   rapidZspeed,1002
;   minBridgingArea,50
;   bridgingExtraInflation,0
;   bridgingExtrusionMultiplier,1
;   bridgingSpeedMultiplier,1
;   useFixedBridgingAngle,0
;   fixedBridgingAngle,0
;   applyBridgingToPerimeters,0
;   filamentDiameters,1.75|1.75|1.75|1.75|1.75|1.75
;   filamentPricesPerKg,46|46|46|46|46|46
;   filamentDensities,1.25|1.25|1.25|1.25|1.25|1.25
;   useMinPrintHeight,0
;   minPrintHeight,0
;   useMaxPrintHeight,0
;   maxPrintHeight,0
;   useDiaphragm,0
;   diaphragmLayerInterval,20
;   robustSlicing,1
;   mergeAllIntoSolid,0
;   onlyRetractWhenCrossingOutline,1
;   retractBetweenLayers,1
;   useRetractionMinTravel,0
;   retractionMinTravel,3
;   retractWhileWiping,0
;   onlyWipeOutlines,1
;   avoidCrossingOutline,0
;   maxMovementDetourFactor,3
;   toolChangeRetractionDistance,12
;   toolChangeExtraRestartDistance,-0.5
;   toolChangeRetractionSpeed,600
;   externalThinWallType,0
;   internalThinWallType,2
;   thinWallAllowedOverlapPercentage,10
;   singleExtrusionMinLength,1
;   singleExtrusionMinPrintingWidthPercentage,50
;   singleExtrusionMaxPrintingWidthPercentage,200
;   singleExtrusionEndpointExtension,0.2
;   horizontalSizeCompensation,0
G90
M82
M106 S0
M140 S60
M190 S60
M104 S205 T0
M109 S205 T0
G28 ; home all axes
G92 E0
G1 E-9.0000 F1988
G1 Z0.180 F1002
; process Process1
; layer 1, Z = 0.180
T0
; tool H0.200 W0.800
; skirt
G1 X74.559 Y96.861 F4800
G1 E0.0000 F596
G92 E0
G1 X74.706 Y96.800 E0.0107 F1000
G1 X97.485 Y96.800 E1.5411
G1 X98.310 Y96.764 E1.5966
G1 X99.115 Y96.658 E1.6511
G1 X99.907 Y96.482 E1.7056
G1 X100.681 Y96.238 E1.7601
G1 X101.430 Y95.928 E1.8146
G1 X102.155 Y95.550 E1.8696
G1 X102.839 Y95.113 E1.9241
G1 X103.483 Y94.619 E1.9786
G1 X104.080 Y94.071 E2.0331
G1 X104.624 Y93.478 E2.0871
G1 X105.117 Y92.834 E2.1416
G1 X105.555 Y92.146 E2.1964
G1 X105.928 Y91.430 E2.2507
G1 X106.238 Y90.681 E2.3052
G1 X106.482 Y89.907 E2.3597
G1 X106.658 Y89.115 E2.4142
G1 X106.764 Y88.306 E2.4690
G1 X106.800 Y87.475 E2.5249
G1 X106.800 Y85.206 E2.6773
G1 X106.861 Y85.059 E2.6880
G1 X107.149 Y84.771 E2.7154
G1 X107.296 Y84.710 E2.7261
G1 X112.704 Y84.710 E3.0894
G1 X112.851 Y84.771 E3.1001
G1 X113.139 Y85.059 E3.1275
G1 X113.200 Y85.206 E3.1382
G1 X113.200 Y87.485 E3.2913
G1 X113.236 Y88.310 E3.3468
G1 X113.342 Y89.115 E3.4013
G1 X113.518 Y89.907 E3.4558
G1 X113.761 Y90.680 E3.5103
G1 X114.075 Y91.436 E3.5653
G1 X114.450 Y92.156 E3.6198
G1 X114.887 Y92.840 E3.6743
G1 X115.377 Y93.478 E3.7284
G1 X115.924 Y94.075 E3.7828
G1 X116.528 Y94.628 E3.8378
G1 X117.166 Y95.118 E3.8918
G1 X117.850 Y95.554 E3.9463
G1 X118.570 Y95.928 E4.0008
G1 X119.319 Y96.238 E4.0553
G1 X120.093 Y96.482 E4.1098
G1 X120.885 Y96.658 E4.1643
G1 X121.693 Y96.764 E4.2191
G1 X122.538 Y96.800 E4.2759
G1 X126.704 Y96.800 E4.5558
G1 X126.851 Y96.861 E4.5665
G1 X127.070 Y97.080 E4.5873
G1 X132.630 Y97.080 E4.9609
G1 X132.849 Y96.861 E4.9817
G1 X132.996 Y96.800 E4.9924
G1 X145.294 Y96.800 E5.8186
G1 X145.441 Y96.861 E5.8293
G1 X145.729 Y97.149 E5.8567
G1 X145.790 Y97.296 E5.8674
G1 X145.790 Y101.080 E6.1216
G1 X150.424 Y101.080 E6.4329
G1 X150.571 Y101.141 E6.4436
G1 X150.859 Y101.429 E6.4710
G1 X150.920 Y101.576 E6.4817
G1 X150.920 Y106.424 E6.8074
G1 X150.859 Y106.571 E6.8181
G1 X150.571 Y106.859 E6.8454
G1 X150.424 Y106.920 E6.8561
G1 X145.790 Y106.920 E7.1675
G1 X145.790 Y109.080 E7.3126
G1 X150.424 Y109.080 E7.6239
G1 X150.571 Y109.141 E7.6346
G1 X150.859 Y109.429 E7.6620
G1 X150.920 Y109.576 E7.6727
G1 X150.920 Y114.424 E7.9984
G1 X150.859 Y114.571 E8.0091
G1 X150.571 Y114.859 E8.0365
G1 X150.424 Y114.920 E8.0471
G1 X145.790 Y114.920 E8.3585
G1 X145.790 Y122.704 E8.8814
G1 X145.729 Y122.851 E8.8921
G1 X145.441 Y123.139 E8.9195
G1 X145.294 Y123.200 E8.9302
G1 X122.515 Y123.200 E10.4606
G1 X121.690 Y123.236 E10.5161
G1 X120.885 Y123.342 E10.5706
G1 X120.093 Y123.518 E10.6251
G1 X119.319 Y123.762 E10.6797
G1 X118.570 Y124.072 E10.7342
G1 X117.850 Y124.446 E10.7886
G1 X117.166 Y124.882 E10.8432
G1 X116.522 Y125.376 E10.8977
G1 X115.924 Y125.924 E10.9522
G1 X115.376 Y126.522 E11.0067
G1 X114.882 Y127.166 E11.0612
G1 X114.446 Y127.850 E11.1157
G1 X114.072 Y128.570 E11.1702
G1 X113.761 Y129.319 E11.2247
G1 X113.518 Y130.093 E11.2792
G1 X113.342 Y130.885 E11.3337
G1 X113.236 Y131.694 E11.3885
G1 X113.200 Y132.525 E11.4444
G1 X113.200 Y134.794 E11.5968
G1 X113.139 Y134.941 E11.6075
G1 X112.851 Y135.229 E11.6349
G1 X112.704 Y135.290 E11.6456
G1 X107.296 Y135.290 E12.0089
G1 X107.149 Y135.229 E12.0196
G1 X106.861 Y134.941 E12.0470
G1 X106.800 Y134.794 E12.0577
G1 X106.800 Y132.515 E12.2108
G1 X106.764 Y131.690 E12.2663
G1 X106.658 Y130.885 E12.3208
G1 X106.482 Y130.093 E12.3753
G1 X106.238 Y129.319 E12.4298
G1 X105.928 Y128.570 E12.4843
G1 X105.554 Y127.850 E12.5388
G1 X105.118 Y127.166 E12.5933
G1 X104.624 Y126.522 E12.6478
G1 X104.076 Y125.924 E12.7023
G1 X103.478 Y125.376 E12.7568
G1 X102.834 Y124.882 E12.8114
G1 X102.150 Y124.447 E12.8659
G1 X101.430 Y124.072 E12.9204
G1 X100.681 Y123.762 E12.9749
G1 X99.907 Y123.518 E13.0294
G1 X99.115 Y123.342 E13.0839
G1 X98.306 Y123.236 E13.1387
G1 X97.485 Y123.200 E13.1939
G1 X74.706 Y123.200 E14.7243
G1 X74.559 Y123.139 E14.7350
G1 X74.271 Y122.851 E14.7624
G1 X74.210 Y122.704 E14.7731
G1 X74.210 Y97.296 E16.4801
G1 X74.271 Y97.149 E16.4908
G1 X74.559 Y96.861 E16.5182
G92 E0
G1 E-9.0000 F1988
; outer perimeter
G1 X75.310 Y97.900 F4800
G1 E0.0000 F1988
G92 E0
G1 X97.509 Y97.900 E1.4914 F950
G1 X98.406 Y97.861 E1.5518
G1 X99.306 Y97.742 E1.6128
G1 X100.192 Y97.546 E1.6737
G1 X101.057 Y97.273 E1.7347
G1 X101.896 Y96.926 E1.7956
G1 X102.706 Y96.503 E1.8571
G1 X103.472 Y96.015 E1.9181
G1 X104.191 Y95.462 E1.9791
G1 X104.859 Y94.849 E2.0399
G1 X105.467 Y94.185 E2.1004
G1 X106.020 Y93.465 E2.1614
G1 X106.509 Y92.697 E2.2226
G1 X106.926 Y91.895 E2.2833
G1 X107.273 Y91.057 E2.3443
G1 X107.546 Y90.192 E2.4052
G1 X107.742 Y89.306 E2.4662
G1 X107.861 Y88.402 E2.5274
G1 X107.900 Y87.499 E2.5882
G1 X107.900 Y85.810 E2.7016
G1 X112.100 Y85.810 E2.9838
G1 X112.100 Y87.509 E3.0979
G1 X112.139 Y88.406 E3.1583
G1 X112.258 Y89.306 E3.2193
G1 X112.454 Y90.192 E3.2802
G1 X112.727 Y91.057 E3.3412
G1 X113.078 Y91.902 E3.4027
G1 X113.497 Y92.707 E3.4636
G1 X113.985 Y93.472 E3.5246
G1 X114.533 Y94.186 E3.5851
G1 X115.146 Y94.854 E3.6460
G1 X115.820 Y95.471 E3.7074
G1 X116.535 Y96.019 E3.7679
G1 X117.300 Y96.507 E3.8288
G1 X118.105 Y96.926 E3.8898
G1 X118.943 Y97.273 E3.9508
G1 X119.808 Y97.546 E4.0117
G1 X120.694 Y97.742 E4.0727
G1 X121.598 Y97.861 E4.1340
G1 X122.514 Y97.900 E4.1956
G1 X126.100 Y97.900 E4.4365
G1 X126.100 Y118.400 E5.8138
G1 X133.600 Y118.400 E6.3177
G1 X133.600 Y97.900 E7.6950
G1 X144.690 Y97.900 E8.4400
G1 X144.690 Y122.100 E10.0659
G1 X122.491 Y122.100 E11.5574
G1 X121.594 Y122.139 E11.6177
G1 X120.694 Y122.258 E11.6787
G1 X119.808 Y122.454 E11.7397
G1 X118.943 Y122.727 E11.8006
G1 X118.105 Y123.074 E11.8616
G1 X117.300 Y123.493 E11.9225
G1 X116.535 Y123.981 E11.9835
G1 X115.815 Y124.533 E12.0444
G1 X115.146 Y125.146 E12.1054
G1 X114.533 Y125.815 E12.1664
G1 X113.981 Y126.535 E12.2273
G1 X113.493 Y127.300 E12.2883
G1 X113.074 Y128.105 E12.3492
G1 X112.727 Y128.943 E12.4102
G1 X112.454 Y129.808 E12.4712
G1 X112.258 Y130.694 E12.5321
G1 X112.139 Y131.598 E12.5934
G1 X112.100 Y132.501 E12.6541
G1 X112.100 Y134.190 E12.7676
G1 X107.900 Y134.190 E13.0498
G1 X107.900 Y132.491 E13.1639
G1 X107.861 Y131.594 E13.2243
G1 X107.742 Y130.694 E13.2852
G1 X107.546 Y129.808 E13.3462
G1 X107.273 Y128.943 E13.4071
G1 X106.926 Y128.105 E13.4681
G1 X106.507 Y127.300 E13.5290
G1 X106.019 Y126.535 E13.5900
G1 X105.467 Y125.815 E13.6510
G1 X104.854 Y125.146 E13.7119
G1 X104.185 Y124.533 E13.7729
G1 X103.465 Y123.981 E13.8338
G1 X102.700 Y123.493 E13.8948
G1 X101.895 Y123.074 E13.9558
G1 X101.057 Y122.727 E14.0167
G1 X100.192 Y122.454 E14.0777
G1 X99.306 Y122.258 E14.1386
G1 X98.402 Y122.139 E14.1999
G1 X97.509 Y122.100 E14.2600
G1 X75.310 Y122.100 E15.7514
G1 X75.310 Y97.900 E17.3773
G1 X106.098 Y108.822 F4800
G92 E0
G1 X105.968 Y109.402 E0.0400 F950
G1 X105.924 Y110.000 E0.0802
G1 X105.967 Y110.589 E0.1199
G1 X106.096 Y111.170 E0.1599
G1 X106.308 Y111.726 E0.1999
G1 X106.598 Y112.245 E0.2399
G1 X106.962 Y112.717 E0.2798
G1 X107.390 Y113.130 E0.3198
G1 X107.873 Y113.477 E0.3598
G1 X108.402 Y113.749 E0.3998
G1 X108.965 Y113.942 E0.4398
G1 X109.550 Y114.051 E0.4797
G1 X110.145 Y114.073 E0.5197
G1 X110.736 Y114.009 E0.5597
G1 X111.312 Y113.859 E0.5997
G1 X111.860 Y113.627 E0.6396
G1 X112.368 Y113.317 E0.6796
G1 X112.826 Y112.937 E0.7196
G1 X113.223 Y112.494 E0.7596
G1 X113.552 Y111.999 E0.7995
G1 X113.805 Y111.460 E0.8395
G1 X113.977 Y110.890 E0.8795
G1 X114.065 Y110.302 E0.9195
G1 X114.065 Y109.705 E0.9596
G1 X113.979 Y109.118 E0.9994
G1 X113.808 Y108.548 E1.0394
G1 X113.556 Y108.009 E1.0794
G1 X113.229 Y107.512 E1.1194
G1 X112.832 Y107.069 E1.1593
G1 X112.375 Y106.688 E1.1993
G1 X111.867 Y106.377 E1.2393
G1 X111.320 Y106.144 E1.2793
G1 X110.745 Y105.993 E1.3193
G1 X110.153 Y105.927 E1.3592
G1 X109.558 Y105.948 E1.3992
G1 X108.973 Y106.056 E1.4392
G1 X108.410 Y106.247 E1.4792
G1 X107.880 Y106.519 E1.5191
G1 X107.396 Y106.864 E1.5591
G1 X106.967 Y107.277 E1.5991
G1 X106.603 Y107.748 E1.6391
G1 X106.311 Y108.266 E1.6790
G1 X106.098 Y108.822 E1.7190
G92 E0
G1 E-9.0000 F1988
; solid layer
G1 X108.830 Y114.487 F4800
G1 E0.0000 F1988
G92 E0
G1 X117.237 Y122.894 E0.7988 F800
G1 X117.868 Y122.566 E0.8466
G1 X117.990 Y122.515 E0.8555
G1 X110.107 Y114.632 E1.6045
G1 X110.164 Y114.634 E1.6084
G1 X110.837 Y114.561 E1.6539
G1 X111.099 Y114.493 E1.6720
G1 X118.793 Y122.187 E2.4030
G1 X119.653 Y121.916 E2.4636
G1 X111.939 Y114.201 E3.1966
G1 X112.116 Y114.126 E3.2096
G1 X112.662 Y113.794 E3.2525
G1 X120.578 Y121.710 E4.0047
G1 X120.597 Y121.706 E4.0059
G1 X121.545 Y121.581 E4.0702
G1 X121.579 Y121.579 E4.0725
G1 X113.275 Y113.275 E4.8615
G1 X113.667 Y112.838 E4.9010
G1 X113.788 Y112.656 E4.9156
G1 X122.671 Y121.540 E5.7597
G1 X123.803 Y121.540 E5.8357
G1 X114.200 Y111.937 E6.7481
G1 X114.330 Y111.661 E6.7686
G1 X114.498 Y111.104 E6.8077
G1 X124.934 Y121.540 E7.7993
G1 X126.065 Y121.540 E7.8753
G1 X114.625 Y110.099 E8.9623
G1 X124.482 Y98.460 F4800
G92 E0
G1 X125.540 Y99.518 E0.1006 F800
G1 X125.540 Y100.650 E0.1766
G1 X123.350 Y98.460 E0.3846
G1 X122.502 Y98.460 E0.4416
G1 X122.206 Y98.447 E0.4615
G1 X125.540 Y101.781 E0.7783
G1 X125.540 Y102.913 E0.8543
G1 X120.971 Y98.344 E1.2884
G1 X120.597 Y98.294 E1.3138
G1 X119.663 Y98.087 E1.3780
G1 X119.547 Y98.051 E1.3862
G1 X125.540 Y104.044 E1.9557
G1 X125.540 Y105.175 E2.0317
G1 X117.724 Y97.359 E2.7743
G1 X117.020 Y96.992 E2.8277
G1 X116.213 Y96.479 E2.8919
G1 X115.460 Y95.901 E2.9557
G1 X114.750 Y95.251 E3.0204
G1 X114.104 Y94.546 E3.0846
G1 X113.526 Y93.793 E3.1483
G1 X113.012 Y92.988 E3.2126
G1 X112.641 Y92.277 E3.2664
G1 X108.436 Y88.071 E3.6660
G1 X108.419 Y88.451 E3.6915
G1 X108.334 Y89.101 E3.7356
G1 X125.540 Y106.307 E5.3704
G1 X125.540 Y107.438 E5.4464
G1 X108.151 Y90.049 E7.0986
G1 X108.087 Y90.337 E7.1184
G1 X107.900 Y90.930 E7.1602
G1 X125.540 Y108.569 E8.8362
G1 X125.540 Y109.701 E8.9122
G1 X107.591 Y91.752 E10.6176
G1 X107.434 Y92.132 E10.6452
