; G-Code generated by Simplify3D(R) Version 4.0.0
; Mar 30, 2022 at 6:27:48 PM
; Settings Summary
;   processName,Process1
;   applyToModels,Wormdrive_V1.5_M8Round
;   profileName,Default (modified)
;   profileVersion,2017-03-01 08:00:00
;   baseProfile,
;   printMaterial,
;   printQuality,
;   printExtruders,
;   extruderName,Primary Extruder
;   extruderToolheadNumber,0
;   extruderDiameter,0.4
;   extruderAutoWidth,0
;   extruderWidth,0.8
;   extrusionMultiplier,1.01
;   extruderUseRetract,1
;   extruderRetractionDistance,9
;   extruderExtraRestartDistance,0
;   extruderRetractionZLift,0
;   extruderRetractionSpeed,1988
;   extruderUseCoasting,0
;   extruderCoastingDistance,0.2
;   extruderUseWipe,0
;   extruderWipeDistance,5
;   primaryExtruder,0
;   layerHeight,0.2
;   topSolidLayers,4
;   bottomSolidLayers,4
;   perimeterOutlines,1
;   printPerimetersInsideOut,1
;   startPointOption,2
;   startPointOriginX,0
;   startPointOriginY,0
;   sequentialIslands,0
;   spiralVaseMode,0
;   firstLayerHeightPercentage,90
;   firstLayerWidthPercentage,100
;   firstLayerUnderspeed,0.5
;   useRaft,0
;   raftExtruder,0
;   raftTopLayers,3
;   raftBaseLayers,2
;   raftOffset,3
;   raftSeparationDistance,0.14
;   raftTopInfill,100
;   aboveRaftSpeedMultiplier,0.3
;   useSkirt,1
;   skirtExtruder,0
;   skirtLayers,1
;   skirtOutlines,1
;   skirtOffset,0.3
;   usePrimePillar,0
;   primePillarExtruder,999
;   primePillarWidth,12
;   primePillarLocation,7
;   primePillarSpeedMultiplier,1
;   useOozeShield,0
;   oozeShieldExtruder,999
;   oozeShieldOffset,2
;   oozeShieldOutlines,1
;   oozeShieldSidewallShape,1
;   oozeShieldSidewallAngle,30
;   oozeShieldSpeedMultiplier,1
;   infillExtruder,0
;   internalInfillPattern,Rectilinear
;   externalInfillPattern,Rectilinear
;   infillPercentage,35
;   outlineOverlapPercentage,30
;   infillExtrusionWidthPercentage,100
;   minInfillLength,5
;   infillLayerInterval,1
;   internalInfillAngles,45,-45
;   overlapInternalInfillAngles,0
;   externalInfillAngles,45,-45
;   generateSupport,1
;   supportExtruder,0
;   supportInfillPercentage,30
;   supportExtraInflation,0
;   supportBaseLayers,0
;   denseSupportExtruder,0
;   denseSupportLayers,0
;   denseSupportInfillPercentage,70
;   supportLayerInterval,1
;   supportHorizontalPartOffset,0.3
;   supportUpperSeparationLayers,1
;   supportLowerSeparationLayers,1
;   supportType,0
;   supportGridSpacing,4
;   maxOverhangAngle,45
;   supportAngles,0
;   temperatureName,Primary Extruder,Bed
;   temperatureNumber,0,0
;   temperatureSetpointCount,1,1
;   temperatureSetpointLayers,1,1
;   temperatureSetpointTemperatures,205,60
;   temperatureStabilizeAtStartup,1,1
;   temperatureHeatedBed,0,1
;   temperatureRelayBetweenLayers,0,0
;   temperatureRelayBetweenLoops,0,0
;   fanLayers,1,2
;   fanSpeeds,0,100
;   blipFanToFullPower,0
;   adjustSpeedForCooling,1
;   minSpeedLayerTime,15
;   minCoolingSpeedSlowdown,20
;   increaseFanForCooling,0
;   minFanLayerTime,45
;   maxCoolingFanSpeed,100
;   increaseFanForBridging,0
;   bridgingFanSpeed,100
;   use5D,1
;   relativeEdistances,0
;   allowEaxisZeroing,1
;   independentExtruderAxes,0
;   includeM10123,0
;   stickySupport,1
;   applyToolheadOffsets,0
;   gcodeXoffset,0
;   gcodeYoffset,0
;   gcodeZoffset,0
;   overrideMachineDefinition,1
;   machineTypeOverride,0
;   strokeXoverride,220
;   strokeYoverride,220
;   strokeZoverride,220
;   originOffsetXoverride,0
;   originOffsetYoverride,0
;   originOffsetZoverride,0
;   homeXdirOverride,-1
;   homeYdirOverride,-1
;   homeZdirOverride,-1
;   flipXoverride,1
;   flipYoverride,-1
;   flipZoverride,1
;   toolheadOffsets,0,0|0,0|0,0|0,0|0,0|0,0
;   overrideFirmwareConfiguration,0
;   firmwareTypeOverride,RepRap (Marlin/Repetier/Sprinter)
;   GPXconfigOverride,r2
;   baudRateOverride,115200
;   overridePrinterModels,0
;   printerModelsOverride
;   startingGcode,G28 ; home all axes
;   layerChangeGcode,
;   retractionGcode,
;   toolChangeGcode,
;   endingGcode,M104 S0 ; turn off extruder,M140 S0 ; turn off bed,M84 ; disable motors,G28 ; home all axes
;   exportFileFormat,gcode
;   celebration,0
;   celebrationSong,Random Song
;   postProcessing,
;   defaultSpeed,2000
;   outlineUnderspeed,0.95
;   solidInfillUnderspeed,0.8
;   supportUnderspeed,0.8
;   rapidXYspeed,4800
;   rapidZspeed,1002
;   minBridgingArea,50
;   bridgingExtraInflation,0
;   bridgingExtrusionMultiplier,1
;   bridgingSpeedMultiplier,1
;   useFixedBridgingAngle,0
;   fixedBridgingAngle,0
;   applyBridgingToPerimeters,0
;   filamentDiameters,1.75|1.75|1.75|1.75|1.75|1.75
;   filamentPricesPerKg,46|46|46|46|46|46
;   filamentDensities,1.25|1.25|1.25|1.25|1.25|1.25
;   useMinPrintHeight,0
;   minPrintHeight,0
;   useMaxPrintHeight,0
;   maxPrintHeight,0
;   useDiaphragm,0
;   diaphragmLayerInterval,20
;   robustSlicing,1
;   mergeAllIntoSolid,0
;   onlyRetractWhenCrossingOutline,1
;   retractBetweenLayers,1
;   useRetractionMinTravel,0
;   retractionMinTravel,3
;   retractWhileWiping,0
;   onlyWipeOutlines,1
;   avoidCrossingOutline,0
;   maxMovementDetourFactor,3
;   toolChangeRetractionDistance,12
;   toolChangeExtraRestartDistance,-0.5
;   toolChangeRetractionSpeed,600
;   externalThinWallType,0
;   internalThinWallType,2
;   thinWallAllowedOverlapPercentage,10
;   singleExtrusionMinLength,1
;   singleExtrusionMinPrintingWidthPercentage,50
;   singleExtrusionMaxPrintingWidthPercentage,200
;   singleExtrusionEndpointExtension,0.2
;   horizontalSizeCompensation,0
G90
M82
M106 S0
M140 S60
M190 S60
M104 S205 T0
M109 S205 T0
G28 ; home all axes
G92 E0
G1 E-9.0000 F1988
G1 Z0.180 F1002
; process Process1
; layer 1, Z = 0.180
T0
; tool H0.200 W0.800
; skirt
G1 X74.559 Y100.111 F4800
G1 E0.0000 F596
G92 E0
G1 X74.706 Y100.050 E0.0107 F1000
G1 X97.485 Y100.050 E1.5411
G1 X98.310 Y100.014 E1.5966
G1 X99.115 Y99.908 E1.6511
G1 X99.907 Y99.732 E1.7056
G1 X100.681 Y99.488 E1.7601
G1 X101.430 Y99.178 E1.8146
G1 X102.150 Y98.803 E1.8691
G1 X102.834 Y98.368 E1.9236
G1 X103.478 Y97.874 E1.9782
G1 X104.076 Y97.326 E2.0327
G1 X104.624 Y96.728 E2.0872
G1 X105.118 Y96.084 E2.1417
G1 X105.553 Y95.400 E2.1962
G1 X105.928 Y94.680 E2.2507
G1 X106.238 Y93.931 E2.3052
G1 X106.482 Y93.157 E2.3597
G1 X106.658 Y92.365 E2.4142
G1 X106.764 Y91.556 E2.4690
G1 X106.800 Y90.735 E2.5242
G1 X106.800 Y83.546 E3.0072
G1 X106.861 Y83.399 E3.0179
G1 X107.149 Y83.111 E3.0453
G1 X107.296 Y83.050 E3.0560
G1 X107.800 Y83.050 E3.0898
G1 X107.800 Y77.046 E3.4932
G1 X107.861 Y76.899 E3.5039
G1 X108.149 Y76.611 E3.5313
G1 X108.296 Y76.550 E3.5420
G1 X112.704 Y76.550 E3.8381
G1 X112.851 Y76.611 E3.8488
G1 X113.139 Y76.899 E3.8762
G1 X113.200 Y77.046 E3.8869
G1 X113.200 Y90.735 E4.8065
G1 X113.236 Y91.560 E4.8621
G1 X113.342 Y92.365 E4.9166
G1 X113.518 Y93.157 E4.9711
G1 X113.762 Y93.931 E5.0256
G1 X114.072 Y94.680 E5.0801
G1 X114.447 Y95.400 E5.1346
G1 X114.882 Y96.084 E5.1891
G1 X115.376 Y96.728 E5.2436
G1 X115.924 Y97.326 E5.2981
G1 X116.522 Y97.874 E5.3526
G1 X117.166 Y98.368 E5.4071
G1 X117.850 Y98.804 E5.4616
G1 X118.570 Y99.178 E5.5161
G1 X119.319 Y99.488 E5.5706
G1 X120.093 Y99.732 E5.6251
G1 X120.885 Y99.908 E5.6796
G1 X121.694 Y100.014 E5.7344
G1 X122.515 Y100.050 E5.7897
G1 X145.294 Y100.050 E7.3201
G1 X145.441 Y100.111 E7.3307
G1 X145.729 Y100.399 E7.3581
G1 X145.790 Y100.546 E7.3688
G1 X145.790 Y125.954 E9.0759
G1 X145.729 Y126.101 E9.0865
G1 X145.441 Y126.389 E9.1139
G1 X145.294 Y126.450 E9.1246
G1 X122.515 Y126.450 E10.6550
G1 X121.690 Y126.486 E10.7105
G1 X120.885 Y126.592 E10.7650
G1 X120.093 Y126.768 E10.8196
G1 X119.319 Y127.012 E10.8741
G1 X118.570 Y127.322 E10.9286
G1 X117.850 Y127.696 E10.9831
G1 X117.166 Y128.132 E11.0376
G1 X116.523 Y128.626 E11.0921
G1 X115.924 Y129.174 E11.1466
G1 X115.376 Y129.772 E11.2011
G1 X114.882 Y130.416 E11.2556
G1 X114.447 Y131.100 E11.3101
G1 X114.072 Y131.820 E11.3646
G1 X113.761 Y132.569 E11.4191
G1 X113.518 Y133.343 E11.4736
G1 X113.342 Y134.135 E11.5281
G1 X113.236 Y134.943 E11.5829
G1 X113.200 Y135.806 E11.6409
G1 X113.200 Y140.044 E11.9256
G1 X113.139 Y140.191 E11.9363
G1 X112.851 Y140.479 E11.9637
G1 X112.704 Y140.540 E11.9744
G1 X107.296 Y140.540 E12.3377
G1 X107.149 Y140.479 E12.3484
G1 X106.861 Y140.191 E12.3758
G1 X106.800 Y140.044 E12.3865
G1 X106.800 Y135.765 E12.6739
G1 X106.764 Y134.940 E12.7295
G1 X106.658 Y134.135 E12.7840
G1 X106.482 Y133.343 E12.8385
G1 X106.238 Y132.569 E12.8930
G1 X105.928 Y131.820 E12.9475
G1 X105.553 Y131.100 E13.0020
G1 X105.118 Y130.416 E13.0565
G1 X104.624 Y129.772 E13.1110
G1 X104.076 Y129.174 E13.1655
G1 X103.477 Y128.626 E13.2200
G1 X102.834 Y128.132 E13.2745
G1 X102.150 Y127.697 E13.3290
G1 X101.430 Y127.322 E13.3835
G1 X100.681 Y127.012 E13.4380
G1 X99.907 Y126.768 E13.4925
G1 X99.115 Y126.592 E13.5470
G1 X98.306 Y126.486 E13.6018
G1 X97.485 Y126.450 E13.6571
G1 X74.706 Y126.450 E15.1875
G1 X74.559 Y126.389 E15.1981
G1 X74.271 Y126.101 E15.2255
G1 X74.210 Y125.954 E15.2362
G1 X74.210 Y100.546 E16.9433
G1 X74.271 Y100.399 E16.9539
G1 X74.559 Y100.111 E16.9813
G92 E0
G1 E-9.0000 F1988
; outer perimeter
G1 X75.310 Y101.150 F4800
G1 E0.0000 F1988
G92 E0
G1 X97.509 Y101.150 E1.4914 F950
G1 X98.406 Y101.111 E1.5518
G1 X99.306 Y100.992 E1.6128
G1 X100.192 Y100.796 E1.6737
G1 X101.057 Y100.523 E1.7347
G1 X101.895 Y100.176 E1.7956
G1 X102.700 Y99.757 E1.8566
G1 X103.465 Y99.269 E1.9176
G1 X104.185 Y98.717 E1.9785
G1 X104.854 Y98.104 E2.0395
G1 X105.467 Y97.435 E2.1004
G1 X106.019 Y96.715 E2.1614
G1 X106.507 Y95.950 E2.2223
G1 X106.926 Y95.145 E2.2833
G1 X107.273 Y94.307 E2.3443
G1 X107.546 Y93.442 E2.4052
G1 X107.742 Y92.556 E2.4662
G1 X107.861 Y91.652 E2.5274
G1 X107.900 Y90.759 E2.5875
G1 X107.900 Y84.150 E3.0315
G1 X108.900 Y84.150 E3.0987
G1 X108.900 Y77.650 E3.5354
G1 X112.100 Y77.650 E3.7504
G1 X112.100 Y90.759 E4.6311
G1 X112.139 Y91.656 E4.6915
G1 X112.258 Y92.556 E4.7525
G1 X112.454 Y93.442 E4.8134
G1 X112.727 Y94.307 E4.8744
G1 X113.074 Y95.145 E4.9353
G1 X113.493 Y95.950 E4.9963
G1 X113.981 Y96.715 E5.0572
G1 X114.533 Y97.435 E5.1182
G1 X115.146 Y98.104 E5.1792
G1 X115.815 Y98.717 E5.2401
G1 X116.535 Y99.269 E5.3011
G1 X117.300 Y99.757 E5.3620
G1 X118.105 Y100.176 E5.4230
G1 X118.943 Y100.523 E5.4840
G1 X119.808 Y100.796 E5.5449
G1 X120.694 Y100.992 E5.6059
G1 X121.598 Y101.111 E5.6671
G1 X122.491 Y101.150 E5.7272
G1 X144.690 Y101.150 E7.2186
G1 X144.690 Y125.350 E8.8445
G1 X122.491 Y125.350 E10.3360
G1 X121.594 Y125.389 E10.3963
G1 X120.694 Y125.508 E10.4573
G1 X119.808 Y125.704 E10.5182
G1 X118.943 Y125.977 E10.5792
G1 X118.105 Y126.324 E10.6402
G1 X117.300 Y126.743 E10.7011
G1 X116.535 Y127.231 E10.7621
G1 X115.815 Y127.783 E10.8230
G1 X115.146 Y128.396 E10.8840
G1 X114.533 Y129.065 E10.9450
G1 X113.981 Y129.785 E11.0059
G1 X113.493 Y130.550 E11.0669
G1 X113.074 Y131.355 E11.1278
G1 X112.727 Y132.193 E11.1888
G1 X112.454 Y133.058 E11.2497
G1 X112.258 Y133.944 E11.3107
G1 X112.139 Y134.848 E11.3720
G1 X112.100 Y135.784 E11.4349
G1 X112.100 Y139.440 E11.6805
G1 X107.900 Y139.440 E11.9627
G1 X107.900 Y135.741 E12.2112
G1 X107.861 Y134.844 E12.2716
G1 X107.742 Y133.944 E12.3325
G1 X107.546 Y133.058 E12.3935
G1 X107.273 Y132.193 E12.4545
G1 X106.926 Y131.355 E12.5154
G1 X106.507 Y130.550 E12.5764
G1 X106.019 Y129.785 E12.6373
G1 X105.467 Y129.065 E12.6983
G1 X104.854 Y128.396 E12.7592
G1 X104.185 Y127.783 E12.8202
G1 X103.465 Y127.231 E12.8812
G1 X102.700 Y126.743 E12.9421
G1 X101.895 Y126.324 E13.0031
G1 X101.057 Y125.977 E13.0640
G1 X100.192 Y125.704 E13.1250
G1 X99.306 Y125.508 E13.1860
G1 X98.402 Y125.389 E13.2472
G1 X97.509 Y125.350 E13.3073
G1 X75.310 Y125.350 E14.7987
G1 X75.310 Y101.150 E16.4246
G1 X80.597 Y107.343 F4800
G92 E0
G1 X80.250 Y107.749 E0.0359 F950
G1 X79.971 Y108.204 E0.0717
G1 X79.765 Y108.699 E0.1077
G1 X79.641 Y109.215 E0.1434
G1 X79.600 Y109.734 E0.1784
G1 X79.600 Y116.766 E0.6508
G1 X79.640 Y117.280 E0.6854
G1 X79.765 Y117.798 E0.7213
G1 X79.968 Y118.292 E0.7571
G1 X80.247 Y118.747 E0.7930
G1 X80.593 Y119.153 E0.8289
G1 X80.999 Y119.500 E0.8647
G1 X81.454 Y119.779 E0.9006
G1 X81.946 Y119.984 E0.9364
G1 X82.465 Y120.109 E0.9723
G1 X82.984 Y120.150 E1.0072
G1 X95.016 Y120.150 E1.8156
G1 X95.530 Y120.110 E1.8502
G1 X96.048 Y119.985 E1.8861
G1 X96.542 Y119.782 E1.9219
G1 X96.997 Y119.503 E1.9578
G1 X97.403 Y119.157 E1.9936
G1 X97.750 Y118.751 E2.0295
G1 X98.029 Y118.296 E2.0653
G1 X98.234 Y117.804 E2.1012
G1 X98.359 Y117.285 E2.1371
G1 X98.400 Y116.766 E2.1720
G1 X98.400 Y109.734 E2.6444
G1 X98.360 Y109.220 E2.6791
G1 X98.235 Y108.702 E2.7149
G1 X98.032 Y108.208 E2.7508
G1 X97.753 Y107.753 E2.7866
G1 X97.407 Y107.347 E2.8225
G1 X97.001 Y107.000 E2.8583
G1 X96.546 Y106.721 E2.8942
G1 X96.054 Y106.516 E2.9301
G1 X95.535 Y106.391 E2.9659
G1 X95.016 Y106.350 E3.0009
G1 X82.984 Y106.350 E3.8092
G1 X82.470 Y106.390 E3.8439
G1 X81.952 Y106.515 E3.8797
G1 X81.458 Y106.718 E3.9156
G1 X81.003 Y106.997 E3.9514
G1 X80.597 Y107.343 E3.9873
G92 E0
G1 E-9.0000 F1988
G1 X105.018 Y111.943 F4800
G1 E0.0000 F1988
G92 E0
G1 X104.891 Y112.591 E0.0443 F950
G1 X104.849 Y113.250 E0.0887
G1 X104.891 Y113.909 E0.1330
G1 X105.018 Y114.557 E0.1774
G1 X105.226 Y115.183 E0.2217
G1 X105.512 Y115.778 E0.2661
G1 X105.872 Y116.331 E0.3104
G1 X106.300 Y116.833 E0.3548
G1 X106.789 Y117.277 E0.3991
G1 X107.330 Y117.655 E0.4434
G1 X107.915 Y117.960 E0.4878
G1 X108.534 Y118.188 E0.5321
G1 X109.178 Y118.335 E0.5765
G1 X109.835 Y118.398 E0.6208
G1 X110.495 Y118.377 E0.6652
G1 X111.146 Y118.272 E0.7095
G1 X111.779 Y118.084 E0.7539
G1 X112.382 Y117.817 E0.7982
G1 X112.947 Y117.475 E0.8425
G1 X113.463 Y117.063 E0.8869
G1 X113.922 Y116.589 E0.9312
G1 X114.317 Y116.060 E0.9756
G1 X114.641 Y115.485 E1.0199
G1 X114.888 Y114.873 E1.0643
G1 X115.056 Y114.235 E1.1086
G1 X115.139 Y113.586 E1.1525
G1 X115.150 Y113.258 E1.1746
G1 X115.140 Y112.921 E1.1972
G1 X115.056 Y112.266 E1.2416
G1 X114.888 Y111.627 E1.2860
G1 X114.641 Y111.015 E1.3303
G1 X114.317 Y110.440 E1.3747
G1 X113.922 Y109.911 E1.4190
G1 X113.463 Y109.437 E1.4634
G1 X112.947 Y109.025 E1.5077
G1 X112.382 Y108.683 E1.5521
G1 X111.779 Y108.416 E1.5964
G1 X111.146 Y108.228 E1.6408
G1 X110.495 Y108.123 E1.6851
G1 X109.835 Y108.102 E1.7294
G1 X109.178 Y108.165 E1.7738
G1 X108.534 Y108.312 E1.8181
G1 X107.915 Y108.540 E1.8625
G1 X107.330 Y108.845 E1.9068
G1 X106.789 Y109.223 E1.9512
G1 X106.300 Y109.667 E1.9955
G1 X105.872 Y110.169 E2.0399
G1 X105.512 Y110.722 E2.0842
G1 X105.226 Y111.317 E2.1285
G1 X105.018 Y111.943 E2.1729
G92 E0
G1 E-9.0000 F1988
G1 X121.600 Y109.734 F4800
G1 E0.0000 F1988
G92 E0
G1 X121.600 Y116.766 E0.4724 F950
G1 X121.640 Y117.280 E0.5071
G1 X121.765 Y117.798 E0.5429
G1 X121.968 Y118.292 E0.5788
G1 X122.247 Y118.747 E0.6146
G1 X122.593 Y119.153 E0.6505
G1 X122.999 Y119.500 E0.6863
G1 X123.454 Y119.779 E0.7222
G1 X123.946 Y119.984 E0.7580
G1 X124.465 Y120.109 E0.7939
G1 X124.984 Y120.150 E0.8289
G1 X137.016 Y120.150 E1.6372
G1 X137.530 Y120.110 E1.6718
G1 X138.048 Y119.985 E1.7077
G1 X138.542 Y119.782 E1.7435
G1 X138.997 Y119.503 E1.7794
G1 X139.403 Y119.157 E1.8152
G1 X139.750 Y118.751 E1.8511
G1 X140.029 Y118.296 E1.8870
G1 X140.234 Y117.804 E1.9228
G1 X140.359 Y117.285 E1.9587
G1 X140.400 Y116.766 E1.9936
G1 X140.400 Y109.734 E2.4661
G1 X140.360 Y109.220 E2.5007
G1 X140.235 Y108.702 E2.5365
G1 X140.032 Y108.208 E2.5724
G1 X139.753 Y107.753 E2.6082
G1 X139.407 Y107.347 E2.6441
G1 X139.001 Y107.000 E2.6800
G1 X138.546 Y106.721 E2.7158
G1 X138.054 Y106.516 E2.7517
G1 X137.535 Y106.391 E2.7875
G1 X137.016 Y106.350 E2.8225
